(Exported by FreeCAD)
(Post Processor: KineticNCBeamicon2_post)
(Output Time:2023-12-28 18:01:49.636847)
(begin preamble)
%
G17 G21 G40 G49 G80 G90
M08
G21
(begin operation: Fixture)
(machine: not set, mm/min)
G54
(finish operation: Fixture)
(begin operation: 3.18mm Endmill003)
(machine: not set, mm/min)
(3.18mm Endmill003)
M05
M09M6 T2
M3 S10000
(finish operation: 3.18mm Endmill003)
(begin operation: DressupDogbone001)
(machine: not set, mm/min)
(Profile002)
(Compensated Tool Path. Diameter: 3.18)
G0 Z5.000
G0 X81.124 Y81.124
G0 Z3.000
G1 X81.124 Y81.124 Z-0.500 F100.000
G2 X81.590 Y80.000 Z-0.500 I-1.124 J-1.124 F250.000
G1 X81.590 Y68.000 Z-0.500 F250.000
G2 X80.000 Y66.410 Z-0.500 I-1.590 J-0.000 F250.000
G1 X78.410 Y66.410 Z-0.500 F250.000
G1 X77.944 Y66.876
G1 X78.410 Y66.410
G1 X78.410 Y61.590 Z-0.500 F250.000
G1 X77.944 Y61.124
G1 X78.410 Y61.590
G1 X80.000 Y61.590 Z-0.500 F250.000
G2 X81.590 Y60.000 Z-0.500 I0.000 J-1.590 F250.000
G1 X81.590 Y52.000 Z-0.500 F250.000
G2 X80.000 Y50.410 Z-0.500 I-1.590 J-0.000 F250.000
G1 X78.410 Y50.410 Z-0.500 F250.000
G1 X77.944 Y50.876
G1 X78.410 Y50.410
G1 X78.410 Y45.590 Z-0.500 F250.000
G1 X77.944 Y45.124
G1 X78.410 Y45.590
G1 X80.000 Y45.590 Z-0.500 F250.000
G2 X81.590 Y44.000 Z-0.500 I0.000 J-1.590 F250.000
G1 X81.590 Y36.000 Z-0.500 F250.000
G2 X80.000 Y34.410 Z-0.500 I-1.590 J-0.000 F250.000
G1 X78.410 Y34.410 Z-0.500 F250.000
G1 X77.944 Y34.876
G1 X78.410 Y34.410
G1 X78.410 Y29.590 Z-0.500 F250.000
G1 X77.944 Y29.124
G1 X78.410 Y29.590
G1 X80.000 Y29.590 Z-0.500 F250.000
G2 X81.590 Y28.000 Z-0.500 I0.000 J-1.590 F250.000
G1 X81.590 Y20.000 Z-0.500 F250.000
G2 X80.000 Y18.410 Z-0.500 I-1.590 J-0.000 F250.000
G1 X78.410 Y18.410 Z-0.500 F250.000
G1 X77.944 Y18.876
G1 X78.410 Y18.410
G1 X78.410 Y13.590 Z-0.500 F250.000
G1 X77.944 Y13.124
G1 X78.410 Y13.590
G1 X80.000 Y13.590 Z-0.500 F250.000
G2 X81.590 Y12.000 Z-0.500 I0.000 J-1.590 F250.000
G1 X81.590 Y0.000 Z-0.500 F250.000
G2 X80.000 Y-1.590 Z-0.500 I-1.590 J-0.000 F250.000
G1 X68.000 Y-1.590 Z-0.500 F250.000
G1 Y-1.590
G1 Y-1.590
G2 X66.410 Y0.000 Z-0.500 I-0.000 J1.590 F250.000
G1 X66.410 Y1.590 Z-0.500 F250.000
G1 X66.876 Y2.056
G1 X66.410 Y1.590
G1 X61.590 Y1.590 Z-0.500 F250.000
G1 X61.124 Y2.056
G1 X61.590 Y1.590
G1 X61.590 Y0.000 Z-0.500 F250.000
G2 X60.000 Y-1.590 Z-0.500 I-1.590 J-0.000 F250.000
G1 X52.000 Y-1.590 Z-0.500 F250.000
G1 Y-1.590
G1 Y-1.590
G2 X50.410 Y0.000 Z-0.500 I-0.000 J1.590 F250.000
G1 X50.410 Y1.590 Z-0.500 F250.000
G1 X50.876 Y2.056
G1 X50.410 Y1.590
G1 X45.590 Y1.590 Z-0.500 F250.000
G1 X45.124 Y2.056
G1 X45.590 Y1.590
G1 X45.590 Y-0.000 Z-0.500 F250.000
G2 X44.000 Y-1.590 Z-0.500 I-1.590 J-0.000 F250.000
G1 X36.000 Y-1.590 Z-0.500 F250.000
G2 X34.410 Y0.000 Z-0.500 I0.000 J1.590 F250.000
G1 X34.410 Y1.590 Z-0.500 F250.000
G1 X34.876 Y2.056
G1 X34.410 Y1.590
G1 X29.590 Y1.590 Z-0.500 F250.000
G1 X29.124 Y2.056
G1 X29.590 Y1.590
G1 X29.590 Y0.000 Z-0.500 F250.000
G2 X28.000 Y-1.590 Z-0.500 I-1.590 J-0.000 F250.000
G1 X20.000 Y-1.590 Z-0.500 F250.000
G1 Y-1.590
G1 Y-1.590
G2 X18.410 Y0.000 Z-0.500 I-0.000 J1.590 F250.000
G1 X18.410 Y1.590 Z-0.500 F250.000
G1 X18.876 Y2.056
G1 X18.410 Y1.590
G1 X13.590 Y1.590 Z-0.500 F250.000
G1 X13.124 Y2.056
G1 X13.590 Y1.590
G1 X13.590 Y0.000 Z-0.500 F250.000
G2 X12.000 Y-1.590 Z-0.500 I-1.590 J-0.000 F250.000
G1 X0.000 Y-1.590 Z-0.500 F250.000
G1 Y-1.590
G1 Y-1.590
G2 X-1.590 Y0.000 Z-0.500 I-0.000 J1.590 F250.000
G1 X-1.590 Y12.000 Z-0.500 F250.000
G2 X0.000 Y13.590 Z-0.500 I1.590 J0.000 F250.000
G1 X1.590 Y13.590 Z-0.500 F250.000
G1 X2.056 Y13.124
G1 X1.590 Y13.590
G1 X1.590 Y18.410 Z-0.500 F250.000
G1 X2.056 Y18.876
G1 X1.590 Y18.410
G1 X0.000 Y18.410 Z-0.500 F250.000
G1 Y18.410
G1 Y18.410
G2 X-1.590 Y20.000 Z-0.500 I-0.000 J1.590 F250.000
G1 X-1.590 Y28.000 Z-0.500 F250.000
G2 X0.000 Y29.590 Z-0.500 I1.590 J0.000 F250.000
G1 X1.590 Y29.590 Z-0.500 F250.000
G1 X2.056 Y29.124
G1 X1.590 Y29.590
G1 X1.590 Y34.410 Z-0.500 F250.000
G1 X2.056 Y34.876
G1 X1.590 Y34.410
G1 X0.000 Y34.410 Z-0.500 F250.000
G1 Y34.410
G1 Y34.410
G2 X-1.590 Y36.000 Z-0.500 I-0.000 J1.590 F250.000
G1 X-1.590 Y44.000 Z-0.500 F250.000
G2 X0.000 Y45.590 Z-0.500 I1.590 J0.000 F250.000
G1 X1.590 Y45.590 Z-0.500 F250.000
G1 X2.056 Y45.124
G1 X1.590 Y45.590
G1 X1.590 Y50.410 Z-0.500 F250.000
G1 X2.056 Y50.876
G1 X1.590 Y50.410
G1 X0.000 Y50.410 Z-0.500 F250.000
G1 Y50.410
G1 Y50.410
G2 X-1.590 Y52.000 Z-0.500 I-0.000 J1.590 F250.000
G1 X-1.590 Y60.000 Z-0.500 F250.000
G2 X0.000 Y61.590 Z-0.500 I1.590 J0.000 F250.000
G1 X1.590 Y61.590 Z-0.500 F250.000
G1 X2.056 Y61.124
G1 X1.590 Y61.590
G1 X1.590 Y66.410 Z-0.500 F250.000
G1 X2.056 Y66.876
G1 X1.590 Y66.410
G1 X0.000 Y66.410 Z-0.500 F250.000
G1 Y66.410
G1 Y66.410
G2 X-1.590 Y68.000 Z-0.500 I-0.000 J1.590 F250.000
G1 X-1.590 Y80.000 Z-0.500 F250.000
G2 X0.000 Y81.590 Z-0.500 I1.590 J0.000 F250.000
G1 X12.000 Y81.590 Z-0.500 F250.000
G2 X13.590 Y80.000 Z-0.500 I0.000 J-1.590 F250.000
G1 X13.590 Y78.410 Z-0.500 F250.000
G1 X13.124 Y77.944
G1 X13.590 Y78.410
G1 X18.410 Y78.410 Z-0.500 F250.000
G1 X18.876 Y77.944
G1 X18.410 Y78.410
G1 X18.410 Y80.000 Z-0.500 F250.000
G2 X20.000 Y81.590 Z-0.500 I1.590 J0.000 F250.000
G1 X28.000 Y81.590 Z-0.500 F250.000
G2 X29.590 Y80.000 Z-0.500 I0.000 J-1.590 F250.000
G1 X29.590 Y78.410 Z-0.500 F250.000
G1 X29.124 Y77.944
G1 X29.590 Y78.410
G1 X34.410 Y78.410 Z-0.500 F250.000
G1 X34.876 Y77.944
G1 X34.410 Y78.410
G1 X34.410 Y80.000 Z-0.500 F250.000
G2 X36.000 Y81.590 Z-0.500 I1.590 J0.000 F250.000
G1 X44.000 Y81.590 Z-0.500 F250.000
G2 X45.590 Y80.000 Z-0.500 I0.000 J-1.590 F250.000
G1 X45.590 Y78.410 Z-0.500 F250.000
G1 X45.124 Y77.944
G1 X45.590 Y78.410
G1 X50.410 Y78.410 Z-0.500 F250.000
G1 X50.876 Y77.944
G1 X50.410 Y78.410
G1 X50.410 Y80.000 Z-0.500 F250.000
G2 X52.000 Y81.590 Z-0.500 I1.590 J0.000 F250.000
G1 X60.000 Y81.590 Z-0.500 F250.000
G2 X61.590 Y80.000 Z-0.500 I0.000 J-1.590 F250.000
G1 X61.590 Y78.410 Z-0.500 F250.000
G1 X61.124 Y77.944
G1 X61.590 Y78.410
G1 X66.410 Y78.410 Z-0.500 F250.000
G1 X66.876 Y77.944
G1 X66.410 Y78.410
G1 X66.410 Y80.000 Z-0.500 F250.000
G2 X68.000 Y81.590 Z-0.500 I1.590 J0.000 F250.000
G1 X80.000 Y81.590 Z-0.500 F250.000
G2 X81.124 Y81.124 Z-0.500 I0.000 J-1.590 F250.000
G1 X81.124 Y81.124 Z-1.000 F100.000
G2 X81.590 Y80.000 Z-1.000 I-1.124 J-1.124 F250.000
G1 X81.590 Y68.000 Z-1.000 F250.000
G2 X80.000 Y66.410 Z-1.000 I-1.590 J-0.000 F250.000
G1 X78.410 Y66.410 Z-1.000 F250.000
G1 X77.944 Y66.876
G1 X78.410 Y66.410
G1 X78.410 Y61.590 Z-1.000 F250.000
G1 X77.944 Y61.124
G1 X78.410 Y61.590
G1 X80.000 Y61.590 Z-1.000 F250.000
G2 X81.590 Y60.000 Z-1.000 I0.000 J-1.590 F250.000
G1 X81.590 Y52.000 Z-1.000 F250.000
G2 X80.000 Y50.410 Z-1.000 I-1.590 J-0.000 F250.000
G1 X78.410 Y50.410 Z-1.000 F250.000
G1 X77.944 Y50.876
G1 X78.410 Y50.410
G1 X78.410 Y45.590 Z-1.000 F250.000
G1 X77.944 Y45.124
G1 X78.410 Y45.590
G1 X80.000 Y45.590 Z-1.000 F250.000
G2 X81.590 Y44.000 Z-1.000 I0.000 J-1.590 F250.000
G1 X81.590 Y36.000 Z-1.000 F250.000
G2 X80.000 Y34.410 Z-1.000 I-1.590 J-0.000 F250.000
G1 X78.410 Y34.410 Z-1.000 F250.000
G1 X77.944 Y34.876
G1 X78.410 Y34.410
G1 X78.410 Y29.590 Z-1.000 F250.000
G1 X77.944 Y29.124
G1 X78.410 Y29.590
G1 X80.000 Y29.590 Z-1.000 F250.000
G2 X81.590 Y28.000 Z-1.000 I0.000 J-1.590 F250.000
G1 X81.590 Y20.000 Z-1.000 F250.000
G2 X80.000 Y18.410 Z-1.000 I-1.590 J-0.000 F250.000
G1 X78.410 Y18.410 Z-1.000 F250.000
G1 X77.944 Y18.876
G1 X78.410 Y18.410
G1 X78.410 Y13.590 Z-1.000 F250.000
G1 X77.944 Y13.124
G1 X78.410 Y13.590
G1 X80.000 Y13.590 Z-1.000 F250.000
G2 X81.590 Y12.000 Z-1.000 I0.000 J-1.590 F250.000
G1 X81.590 Y0.000 Z-1.000 F250.000
G2 X80.000 Y-1.590 Z-1.000 I-1.590 J-0.000 F250.000
G1 X68.000 Y-1.590 Z-1.000 F250.000
G1 Y-1.590
G1 Y-1.590
G2 X66.410 Y0.000 Z-1.000 I-0.000 J1.590 F250.000
G1 X66.410 Y1.590 Z-1.000 F250.000
G1 X66.876 Y2.056
G1 X66.410 Y1.590
G1 X61.590 Y1.590 Z-1.000 F250.000
G1 X61.124 Y2.056
G1 X61.590 Y1.590
G1 X61.590 Y0.000 Z-1.000 F250.000
G2 X60.000 Y-1.590 Z-1.000 I-1.590 J-0.000 F250.000
G1 X52.000 Y-1.590 Z-1.000 F250.000
G1 Y-1.590
G1 Y-1.590
G2 X50.410 Y0.000 Z-1.000 I-0.000 J1.590 F250.000
G1 X50.410 Y1.590 Z-1.000 F250.000
G1 X50.876 Y2.056
G1 X50.410 Y1.590
G1 X45.590 Y1.590 Z-1.000 F250.000
G1 X45.124 Y2.056
G1 X45.590 Y1.590
G1 X45.590 Y-0.000 Z-1.000 F250.000
G2 X44.000 Y-1.590 Z-1.000 I-1.590 J-0.000 F250.000
G1 X36.000 Y-1.590 Z-1.000 F250.000
G2 X34.410 Y0.000 Z-1.000 I0.000 J1.590 F250.000
G1 X34.410 Y1.590 Z-1.000 F250.000
G1 X34.876 Y2.056
G1 X34.410 Y1.590
G1 X29.590 Y1.590 Z-1.000 F250.000
G1 X29.124 Y2.056
G1 X29.590 Y1.590
G1 X29.590 Y0.000 Z-1.000 F250.000
G2 X28.000 Y-1.590 Z-1.000 I-1.590 J-0.000 F250.000
G1 X20.000 Y-1.590 Z-1.000 F250.000
G1 Y-1.590
G1 Y-1.590
G2 X18.410 Y0.000 Z-1.000 I-0.000 J1.590 F250.000
G1 X18.410 Y1.590 Z-1.000 F250.000
G1 X18.876 Y2.056
G1 X18.410 Y1.590
G1 X13.590 Y1.590 Z-1.000 F250.000
G1 X13.124 Y2.056
G1 X13.590 Y1.590
G1 X13.590 Y0.000 Z-1.000 F250.000
G2 X12.000 Y-1.590 Z-1.000 I-1.590 J-0.000 F250.000
G1 X0.000 Y-1.590 Z-1.000 F250.000
G1 Y-1.590
G1 Y-1.590
G2 X-1.590 Y0.000 Z-1.000 I-0.000 J1.590 F250.000
G1 X-1.590 Y12.000 Z-1.000 F250.000
G2 X0.000 Y13.590 Z-1.000 I1.590 J0.000 F250.000
G1 X1.590 Y13.590 Z-1.000 F250.000
G1 X2.056 Y13.124
G1 X1.590 Y13.590
G1 X1.590 Y18.410 Z-1.000 F250.000
G1 X2.056 Y18.876
G1 X1.590 Y18.410
G1 X0.000 Y18.410 Z-1.000 F250.000
G1 Y18.410
G1 Y18.410
G2 X-1.590 Y20.000 Z-1.000 I-0.000 J1.590 F250.000
G1 X-1.590 Y28.000 Z-1.000 F250.000
G2 X0.000 Y29.590 Z-1.000 I1.590 J0.000 F250.000
G1 X1.590 Y29.590 Z-1.000 F250.000
G1 X2.056 Y29.124
G1 X1.590 Y29.590
G1 X1.590 Y34.410 Z-1.000 F250.000
G1 X2.056 Y34.876
G1 X1.590 Y34.410
G1 X0.000 Y34.410 Z-1.000 F250.000
G1 Y34.410
G1 Y34.410
G2 X-1.590 Y36.000 Z-1.000 I-0.000 J1.590 F250.000
G1 X-1.590 Y44.000 Z-1.000 F250.000
G2 X0.000 Y45.590 Z-1.000 I1.590 J0.000 F250.000
G1 X1.590 Y45.590 Z-1.000 F250.000
G1 X2.056 Y45.124
G1 X1.590 Y45.590
G1 X1.590 Y50.410 Z-1.000 F250.000
G1 X2.056 Y50.876
G1 X1.590 Y50.410
G1 X0.000 Y50.410 Z-1.000 F250.000
G1 Y50.410
G1 Y50.410
G2 X-1.590 Y52.000 Z-1.000 I-0.000 J1.590 F250.000
G1 X-1.590 Y60.000 Z-1.000 F250.000
G2 X0.000 Y61.590 Z-1.000 I1.590 J0.000 F250.000
G1 X1.590 Y61.590 Z-1.000 F250.000
G1 X2.056 Y61.124
G1 X1.590 Y61.590
G1 X1.590 Y66.410 Z-1.000 F250.000
G1 X2.056 Y66.876
G1 X1.590 Y66.410
G1 X0.000 Y66.410 Z-1.000 F250.000
G1 Y66.410
G1 Y66.410
G2 X-1.590 Y68.000 Z-1.000 I-0.000 J1.590 F250.000
G1 X-1.590 Y80.000 Z-1.000 F250.000
G2 X0.000 Y81.590 Z-1.000 I1.590 J0.000 F250.000
G1 X12.000 Y81.590 Z-1.000 F250.000
G2 X13.590 Y80.000 Z-1.000 I0.000 J-1.590 F250.000
G1 X13.590 Y78.410 Z-1.000 F250.000
G1 X13.124 Y77.944
G1 X13.590 Y78.410
G1 X18.410 Y78.410 Z-1.000 F250.000
G1 X18.876 Y77.944
G1 X18.410 Y78.410
G1 X18.410 Y80.000 Z-1.000 F250.000
G2 X20.000 Y81.590 Z-1.000 I1.590 J0.000 F250.000
G1 X28.000 Y81.590 Z-1.000 F250.000
G2 X29.590 Y80.000 Z-1.000 I0.000 J-1.590 F250.000
G1 X29.590 Y78.410 Z-1.000 F250.000
G1 X29.124 Y77.944
G1 X29.590 Y78.410
G1 X34.410 Y78.410 Z-1.000 F250.000
G1 X34.876 Y77.944
G1 X34.410 Y78.410
G1 X34.410 Y80.000 Z-1.000 F250.000
G2 X36.000 Y81.590 Z-1.000 I1.590 J0.000 F250.000
G1 X44.000 Y81.590 Z-1.000 F250.000
G2 X45.590 Y80.000 Z-1.000 I0.000 J-1.590 F250.000
G1 X45.590 Y78.410 Z-1.000 F250.000
G1 X45.124 Y77.944
G1 X45.590 Y78.410
G1 X50.410 Y78.410 Z-1.000 F250.000
G1 X50.876 Y77.944
G1 X50.410 Y78.410
G1 X50.410 Y80.000 Z-1.000 F250.000
G2 X52.000 Y81.590 Z-1.000 I1.590 J0.000 F250.000
G1 X60.000 Y81.590 Z-1.000 F250.000
G2 X61.590 Y80.000 Z-1.000 I0.000 J-1.590 F250.000
G1 X61.590 Y78.410 Z-1.000 F250.000
G1 X61.124 Y77.944
G1 X61.590 Y78.410
G1 X66.410 Y78.410 Z-1.000 F250.000
G1 X66.876 Y77.944
G1 X66.410 Y78.410
G1 X66.410 Y80.000 Z-1.000 F250.000
G2 X68.000 Y81.590 Z-1.000 I1.590 J0.000 F250.000
G1 X80.000 Y81.590 Z-1.000 F250.000
G2 X81.124 Y81.124 Z-1.000 I0.000 J-1.590 F250.000
G1 X81.124 Y81.124 Z-1.500 F100.000
G2 X81.590 Y80.000 Z-1.500 I-1.124 J-1.124 F250.000
G1 X81.590 Y68.000 Z-1.500 F250.000
G2 X80.000 Y66.410 Z-1.500 I-1.590 J-0.000 F250.000
G1 X78.410 Y66.410 Z-1.500 F250.000
G1 X77.944 Y66.876
G1 X78.410 Y66.410
G1 X78.410 Y61.590 Z-1.500 F250.000
G1 X77.944 Y61.124
G1 X78.410 Y61.590
G1 X80.000 Y61.590 Z-1.500 F250.000
G2 X81.590 Y60.000 Z-1.500 I0.000 J-1.590 F250.000
G1 X81.590 Y52.000 Z-1.500 F250.000
G2 X80.000 Y50.410 Z-1.500 I-1.590 J-0.000 F250.000
G1 X78.410 Y50.410 Z-1.500 F250.000
G1 X77.944 Y50.876
G1 X78.410 Y50.410
G1 X78.410 Y45.590 Z-1.500 F250.000
G1 X77.944 Y45.124
G1 X78.410 Y45.590
G1 X80.000 Y45.590 Z-1.500 F250.000
G2 X81.590 Y44.000 Z-1.500 I0.000 J-1.590 F250.000
G1 X81.590 Y36.000 Z-1.500 F250.000
G2 X80.000 Y34.410 Z-1.500 I-1.590 J-0.000 F250.000
G1 X78.410 Y34.410 Z-1.500 F250.000
G1 X77.944 Y34.876
G1 X78.410 Y34.410
G1 X78.410 Y29.590 Z-1.500 F250.000
G1 X77.944 Y29.124
G1 X78.410 Y29.590
G1 X80.000 Y29.590 Z-1.500 F250.000
G2 X81.590 Y28.000 Z-1.500 I0.000 J-1.590 F250.000
G1 X81.590 Y20.000 Z-1.500 F250.000
G2 X80.000 Y18.410 Z-1.500 I-1.590 J-0.000 F250.000
G1 X78.410 Y18.410 Z-1.500 F250.000
G1 X77.944 Y18.876
G1 X78.410 Y18.410
G1 X78.410 Y13.590 Z-1.500 F250.000
G1 X77.944 Y13.124
G1 X78.410 Y13.590
G1 X80.000 Y13.590 Z-1.500 F250.000
G2 X81.590 Y12.000 Z-1.500 I0.000 J-1.590 F250.000
G1 X81.590 Y0.000 Z-1.500 F250.000
G2 X80.000 Y-1.590 Z-1.500 I-1.590 J-0.000 F250.000
G1 X68.000 Y-1.590 Z-1.500 F250.000
G1 Y-1.590
G1 Y-1.590
G2 X66.410 Y0.000 Z-1.500 I-0.000 J1.590 F250.000
G1 X66.410 Y1.590 Z-1.500 F250.000
G1 X66.876 Y2.056
G1 X66.410 Y1.590
G1 X61.590 Y1.590 Z-1.500 F250.000
G1 X61.124 Y2.056
G1 X61.590 Y1.590
G1 X61.590 Y0.000 Z-1.500 F250.000
G2 X60.000 Y-1.590 Z-1.500 I-1.590 J-0.000 F250.000
G1 X52.000 Y-1.590 Z-1.500 F250.000
G1 Y-1.590
G1 Y-1.590
G2 X50.410 Y0.000 Z-1.500 I-0.000 J1.590 F250.000
G1 X50.410 Y1.590 Z-1.500 F250.000
G1 X50.876 Y2.056
G1 X50.410 Y1.590
G1 X45.590 Y1.590 Z-1.500 F250.000
G1 X45.124 Y2.056
G1 X45.590 Y1.590
G1 X45.590 Y-0.000 Z-1.500 F250.000
G2 X44.000 Y-1.590 Z-1.500 I-1.590 J-0.000 F250.000
G1 X36.000 Y-1.590 Z-1.500 F250.000
G2 X34.410 Y0.000 Z-1.500 I0.000 J1.590 F250.000
G1 X34.410 Y1.590 Z-1.500 F250.000
G1 X34.876 Y2.056
G1 X34.410 Y1.590
G1 X29.590 Y1.590 Z-1.500 F250.000
G1 X29.124 Y2.056
G1 X29.590 Y1.590
G1 X29.590 Y0.000 Z-1.500 F250.000
G2 X28.000 Y-1.590 Z-1.500 I-1.590 J-0.000 F250.000
G1 X20.000 Y-1.590 Z-1.500 F250.000
G1 Y-1.590
G1 Y-1.590
G2 X18.410 Y0.000 Z-1.500 I-0.000 J1.590 F250.000
G1 X18.410 Y1.590 Z-1.500 F250.000
G1 X18.876 Y2.056
G1 X18.410 Y1.590
G1 X13.590 Y1.590 Z-1.500 F250.000
G1 X13.124 Y2.056
G1 X13.590 Y1.590
G1 X13.590 Y0.000 Z-1.500 F250.000
G2 X12.000 Y-1.590 Z-1.500 I-1.590 J-0.000 F250.000
G1 X0.000 Y-1.590 Z-1.500 F250.000
G1 Y-1.590
G1 Y-1.590
G2 X-1.590 Y0.000 Z-1.500 I-0.000 J1.590 F250.000
G1 X-1.590 Y12.000 Z-1.500 F250.000
G2 X0.000 Y13.590 Z-1.500 I1.590 J0.000 F250.000
G1 X1.590 Y13.590 Z-1.500 F250.000
G1 X2.056 Y13.124
G1 X1.590 Y13.590
G1 X1.590 Y18.410 Z-1.500 F250.000
G1 X2.056 Y18.876
G1 X1.590 Y18.410
G1 X0.000 Y18.410 Z-1.500 F250.000
G1 Y18.410
G1 Y18.410
G2 X-1.590 Y20.000 Z-1.500 I-0.000 J1.590 F250.000
G1 X-1.590 Y28.000 Z-1.500 F250.000
G2 X0.000 Y29.590 Z-1.500 I1.590 J0.000 F250.000
G1 X1.590 Y29.590 Z-1.500 F250.000
G1 X2.056 Y29.124
G1 X1.590 Y29.590
G1 X1.590 Y34.410 Z-1.500 F250.000
G1 X2.056 Y34.876
G1 X1.590 Y34.410
G1 X0.000 Y34.410 Z-1.500 F250.000
G1 Y34.410
G1 Y34.410
G2 X-1.590 Y36.000 Z-1.500 I-0.000 J1.590 F250.000
G1 X-1.590 Y44.000 Z-1.500 F250.000
G2 X0.000 Y45.590 Z-1.500 I1.590 J0.000 F250.000
G1 X1.590 Y45.590 Z-1.500 F250.000
G1 X2.056 Y45.124
G1 X1.590 Y45.590
G1 X1.590 Y50.410 Z-1.500 F250.000
G1 X2.056 Y50.876
G1 X1.590 Y50.410
G1 X0.000 Y50.410 Z-1.500 F250.000
G1 Y50.410
G1 Y50.410
G2 X-1.590 Y52.000 Z-1.500 I-0.000 J1.590 F250.000
G1 X-1.590 Y60.000 Z-1.500 F250.000
G2 X0.000 Y61.590 Z-1.500 I1.590 J0.000 F250.000
G1 X1.590 Y61.590 Z-1.500 F250.000
G1 X2.056 Y61.124
G1 X1.590 Y61.590
G1 X1.590 Y66.410 Z-1.500 F250.000
G1 X2.056 Y66.876
G1 X1.590 Y66.410
G1 X0.000 Y66.410 Z-1.500 F250.000
G1 Y66.410
G1 Y66.410
G2 X-1.590 Y68.000 Z-1.500 I-0.000 J1.590 F250.000
G1 X-1.590 Y80.000 Z-1.500 F250.000
G2 X0.000 Y81.590 Z-1.500 I1.590 J0.000 F250.000
G1 X12.000 Y81.590 Z-1.500 F250.000
G2 X13.590 Y80.000 Z-1.500 I0.000 J-1.590 F250.000
G1 X13.590 Y78.410 Z-1.500 F250.000
G1 X13.124 Y77.944
G1 X13.590 Y78.410
G1 X18.410 Y78.410 Z-1.500 F250.000
G1 X18.876 Y77.944
G1 X18.410 Y78.410
G1 X18.410 Y80.000 Z-1.500 F250.000
G2 X20.000 Y81.590 Z-1.500 I1.590 J0.000 F250.000
G1 X28.000 Y81.590 Z-1.500 F250.000
G2 X29.590 Y80.000 Z-1.500 I0.000 J-1.590 F250.000
G1 X29.590 Y78.410 Z-1.500 F250.000
G1 X29.124 Y77.944
G1 X29.590 Y78.410
G1 X34.410 Y78.410 Z-1.500 F250.000
G1 X34.876 Y77.944
G1 X34.410 Y78.410
G1 X34.410 Y80.000 Z-1.500 F250.000
G2 X36.000 Y81.590 Z-1.500 I1.590 J0.000 F250.000
G1 X44.000 Y81.590 Z-1.500 F250.000
G2 X45.590 Y80.000 Z-1.500 I0.000 J-1.590 F250.000
G1 X45.590 Y78.410 Z-1.500 F250.000
G1 X45.124 Y77.944
G1 X45.590 Y78.410
G1 X50.410 Y78.410 Z-1.500 F250.000
G1 X50.876 Y77.944
G1 X50.410 Y78.410
G1 X50.410 Y80.000 Z-1.500 F250.000
G2 X52.000 Y81.590 Z-1.500 I1.590 J0.000 F250.000
G1 X60.000 Y81.590 Z-1.500 F250.000
G2 X61.590 Y80.000 Z-1.500 I0.000 J-1.590 F250.000
G1 X61.590 Y78.410 Z-1.500 F250.000
G1 X61.124 Y77.944
G1 X61.590 Y78.410
G1 X66.410 Y78.410 Z-1.500 F250.000
G1 X66.876 Y77.944
G1 X66.410 Y78.410
G1 X66.410 Y80.000 Z-1.500 F250.000
G2 X68.000 Y81.590 Z-1.500 I1.590 J0.000 F250.000
G1 X80.000 Y81.590 Z-1.500 F250.000
G2 X81.124 Y81.124 Z-1.500 I0.000 J-1.590 F250.000
G1 X81.124 Y81.124 Z-2.000 F100.000
G2 X81.590 Y80.000 Z-2.000 I-1.124 J-1.124 F250.000
G1 X81.590 Y68.000 Z-2.000 F250.000
G2 X80.000 Y66.410 Z-2.000 I-1.590 J-0.000 F250.000
G1 X78.410 Y66.410 Z-2.000 F250.000
G1 X77.944 Y66.876
G1 X78.410 Y66.410
G1 X78.410 Y61.590 Z-2.000 F250.000
G1 X77.944 Y61.124
G1 X78.410 Y61.590
G1 X80.000 Y61.590 Z-2.000 F250.000
G2 X81.590 Y60.000 Z-2.000 I0.000 J-1.590 F250.000
G1 X81.590 Y52.000 Z-2.000 F250.000
G2 X80.000 Y50.410 Z-2.000 I-1.590 J-0.000 F250.000
G1 X78.410 Y50.410 Z-2.000 F250.000
G1 X77.944 Y50.876
G1 X78.410 Y50.410
G1 X78.410 Y45.590 Z-2.000 F250.000
G1 X77.944 Y45.124
G1 X78.410 Y45.590
G1 X80.000 Y45.590 Z-2.000 F250.000
G2 X81.590 Y44.000 Z-2.000 I0.000 J-1.590 F250.000
G1 X81.590 Y36.000 Z-2.000 F250.000
G2 X80.000 Y34.410 Z-2.000 I-1.590 J-0.000 F250.000
G1 X78.410 Y34.410 Z-2.000 F250.000
G1 X77.944 Y34.876
G1 X78.410 Y34.410
G1 X78.410 Y29.590 Z-2.000 F250.000
G1 X77.944 Y29.124
G1 X78.410 Y29.590
G1 X80.000 Y29.590 Z-2.000 F250.000
G2 X81.590 Y28.000 Z-2.000 I0.000 J-1.590 F250.000
G1 X81.590 Y20.000 Z-2.000 F250.000
G2 X80.000 Y18.410 Z-2.000 I-1.590 J-0.000 F250.000
G1 X78.410 Y18.410 Z-2.000 F250.000
G1 X77.944 Y18.876
G1 X78.410 Y18.410
G1 X78.410 Y13.590 Z-2.000 F250.000
G1 X77.944 Y13.124
G1 X78.410 Y13.590
G1 X80.000 Y13.590 Z-2.000 F250.000
G2 X81.590 Y12.000 Z-2.000 I0.000 J-1.590 F250.000
G1 X81.590 Y0.000 Z-2.000 F250.000
G2 X80.000 Y-1.590 Z-2.000 I-1.590 J-0.000 F250.000
G1 X68.000 Y-1.590 Z-2.000 F250.000
G1 Y-1.590
G1 Y-1.590
G2 X66.410 Y0.000 Z-2.000 I-0.000 J1.590 F250.000
G1 X66.410 Y1.590 Z-2.000 F250.000
G1 X66.876 Y2.056
G1 X66.410 Y1.590
G1 X61.590 Y1.590 Z-2.000 F250.000
G1 X61.124 Y2.056
G1 X61.590 Y1.590
G1 X61.590 Y0.000 Z-2.000 F250.000
G2 X60.000 Y-1.590 Z-2.000 I-1.590 J-0.000 F250.000
G1 X52.000 Y-1.590 Z-2.000 F250.000
G1 Y-1.590
G1 Y-1.590
G2 X50.410 Y0.000 Z-2.000 I-0.000 J1.590 F250.000
G1 X50.410 Y1.590 Z-2.000 F250.000
G1 X50.876 Y2.056
G1 X50.410 Y1.590
G1 X45.590 Y1.590 Z-2.000 F250.000
G1 X45.124 Y2.056
G1 X45.590 Y1.590
G1 X45.590 Y-0.000 Z-2.000 F250.000
G2 X44.000 Y-1.590 Z-2.000 I-1.590 J-0.000 F250.000
G1 X36.000 Y-1.590 Z-2.000 F250.000
G2 X34.410 Y0.000 Z-2.000 I0.000 J1.590 F250.000
G1 X34.410 Y1.590 Z-2.000 F250.000
G1 X34.876 Y2.056
G1 X34.410 Y1.590
G1 X29.590 Y1.590 Z-2.000 F250.000
G1 X29.124 Y2.056
G1 X29.590 Y1.590
G1 X29.590 Y0.000 Z-2.000 F250.000
G2 X28.000 Y-1.590 Z-2.000 I-1.590 J-0.000 F250.000
G1 X20.000 Y-1.590 Z-2.000 F250.000
G1 Y-1.590
G1 Y-1.590
G2 X18.410 Y0.000 Z-2.000 I-0.000 J1.590 F250.000
G1 X18.410 Y1.590 Z-2.000 F250.000
G1 X18.876 Y2.056
G1 X18.410 Y1.590
G1 X13.590 Y1.590 Z-2.000 F250.000
G1 X13.124 Y2.056
G1 X13.590 Y1.590
G1 X13.590 Y0.000 Z-2.000 F250.000
G2 X12.000 Y-1.590 Z-2.000 I-1.590 J-0.000 F250.000
G1 X0.000 Y-1.590 Z-2.000 F250.000
G1 Y-1.590
G1 Y-1.590
G2 X-1.590 Y0.000 Z-2.000 I-0.000 J1.590 F250.000
G1 X-1.590 Y12.000 Z-2.000 F250.000
G2 X0.000 Y13.590 Z-2.000 I1.590 J0.000 F250.000
G1 X1.590 Y13.590 Z-2.000 F250.000
G1 X2.056 Y13.124
G1 X1.590 Y13.590
G1 X1.590 Y18.410 Z-2.000 F250.000
G1 X2.056 Y18.876
G1 X1.590 Y18.410
G1 X0.000 Y18.410 Z-2.000 F250.000
G1 Y18.410
G1 Y18.410
G2 X-1.590 Y20.000 Z-2.000 I-0.000 J1.590 F250.000
G1 X-1.590 Y28.000 Z-2.000 F250.000
G2 X0.000 Y29.590 Z-2.000 I1.590 J0.000 F250.000
G1 X1.590 Y29.590 Z-2.000 F250.000
G1 X2.056 Y29.124
G1 X1.590 Y29.590
G1 X1.590 Y34.410 Z-2.000 F250.000
G1 X2.056 Y34.876
G1 X1.590 Y34.410
G1 X0.000 Y34.410 Z-2.000 F250.000
G1 Y34.410
G1 Y34.410
G2 X-1.590 Y36.000 Z-2.000 I-0.000 J1.590 F250.000
G1 X-1.590 Y44.000 Z-2.000 F250.000
G2 X0.000 Y45.590 Z-2.000 I1.590 J0.000 F250.000
G1 X1.590 Y45.590 Z-2.000 F250.000
G1 X2.056 Y45.124
G1 X1.590 Y45.590
G1 X1.590 Y50.410 Z-2.000 F250.000
G1 X2.056 Y50.876
G1 X1.590 Y50.410
G1 X0.000 Y50.410 Z-2.000 F250.000
G1 Y50.410
G1 Y50.410
G2 X-1.590 Y52.000 Z-2.000 I-0.000 J1.590 F250.000
G1 X-1.590 Y60.000 Z-2.000 F250.000
G2 X0.000 Y61.590 Z-2.000 I1.590 J0.000 F250.000
G1 X1.590 Y61.590 Z-2.000 F250.000
G1 X2.056 Y61.124
G1 X1.590 Y61.590
G1 X1.590 Y66.410 Z-2.000 F250.000
G1 X2.056 Y66.876
G1 X1.590 Y66.410
G1 X0.000 Y66.410 Z-2.000 F250.000
G1 Y66.410
G1 Y66.410
G2 X-1.590 Y68.000 Z-2.000 I-0.000 J1.590 F250.000
G1 X-1.590 Y80.000 Z-2.000 F250.000
G2 X0.000 Y81.590 Z-2.000 I1.590 J0.000 F250.000
G1 X12.000 Y81.590 Z-2.000 F250.000
G2 X13.590 Y80.000 Z-2.000 I0.000 J-1.590 F250.000
G1 X13.590 Y78.410 Z-2.000 F250.000
G1 X13.124 Y77.944
G1 X13.590 Y78.410
G1 X18.410 Y78.410 Z-2.000 F250.000
G1 X18.876 Y77.944
G1 X18.410 Y78.410
G1 X18.410 Y80.000 Z-2.000 F250.000
G2 X20.000 Y81.590 Z-2.000 I1.590 J0.000 F250.000
G1 X28.000 Y81.590 Z-2.000 F250.000
G2 X29.590 Y80.000 Z-2.000 I0.000 J-1.590 F250.000
G1 X29.590 Y78.410 Z-2.000 F250.000
G1 X29.124 Y77.944
G1 X29.590 Y78.410
G1 X34.410 Y78.410 Z-2.000 F250.000
G1 X34.876 Y77.944
G1 X34.410 Y78.410
G1 X34.410 Y80.000 Z-2.000 F250.000
G2 X36.000 Y81.590 Z-2.000 I1.590 J0.000 F250.000
G1 X44.000 Y81.590 Z-2.000 F250.000
G2 X45.590 Y80.000 Z-2.000 I0.000 J-1.590 F250.000
G1 X45.590 Y78.410 Z-2.000 F250.000
G1 X45.124 Y77.944
G1 X45.590 Y78.410
G1 X50.410 Y78.410 Z-2.000 F250.000
G1 X50.876 Y77.944
G1 X50.410 Y78.410
G1 X50.410 Y80.000 Z-2.000 F250.000
G2 X52.000 Y81.590 Z-2.000 I1.590 J0.000 F250.000
G1 X60.000 Y81.590 Z-2.000 F250.000
G2 X61.590 Y80.000 Z-2.000 I0.000 J-1.590 F250.000
G1 X61.590 Y78.410 Z-2.000 F250.000
G1 X61.124 Y77.944
G1 X61.590 Y78.410
G1 X66.410 Y78.410 Z-2.000 F250.000
G1 X66.876 Y77.944
G1 X66.410 Y78.410
G1 X66.410 Y80.000 Z-2.000 F250.000
G2 X68.000 Y81.590 Z-2.000 I1.590 J0.000 F250.000
G1 X80.000 Y81.590 Z-2.000 F250.000
G2 X81.124 Y81.124 Z-2.000 I0.000 J-1.590 F250.000
G1 X81.124 Y81.124 Z-2.500 F100.000
G2 X81.590 Y80.000 Z-2.500 I-1.124 J-1.124 F250.000
G1 X81.590 Y68.000 Z-2.500 F250.000
G2 X80.000 Y66.410 Z-2.500 I-1.590 J-0.000 F250.000
G1 X78.410 Y66.410 Z-2.500 F250.000
G1 X77.944 Y66.876
G1 X78.410 Y66.410
G1 X78.410 Y61.590 Z-2.500 F250.000
G1 X77.944 Y61.124
G1 X78.410 Y61.590
G1 X80.000 Y61.590 Z-2.500 F250.000
G2 X81.590 Y60.000 Z-2.500 I0.000 J-1.590 F250.000
G1 X81.590 Y52.000 Z-2.500 F250.000
G2 X80.000 Y50.410 Z-2.500 I-1.590 J-0.000 F250.000
G1 X78.410 Y50.410 Z-2.500 F250.000
G1 X77.944 Y50.876
G1 X78.410 Y50.410
G1 X78.410 Y45.590 Z-2.500 F250.000
G1 X77.944 Y45.124
G1 X78.410 Y45.590
G1 X80.000 Y45.590 Z-2.500 F250.000
G2 X81.590 Y44.000 Z-2.500 I0.000 J-1.590 F250.000
G1 X81.590 Y36.000 Z-2.500 F250.000
G2 X80.000 Y34.410 Z-2.500 I-1.590 J-0.000 F250.000
G1 X78.410 Y34.410 Z-2.500 F250.000
G1 X77.944 Y34.876
G1 X78.410 Y34.410
G1 X78.410 Y29.590 Z-2.500 F250.000
G1 X77.944 Y29.124
G1 X78.410 Y29.590
G1 X80.000 Y29.590 Z-2.500 F250.000
G2 X81.590 Y28.000 Z-2.500 I0.000 J-1.590 F250.000
G1 X81.590 Y20.000 Z-2.500 F250.000
G2 X80.000 Y18.410 Z-2.500 I-1.590 J-0.000 F250.000
G1 X78.410 Y18.410 Z-2.500 F250.000
G1 X77.944 Y18.876
G1 X78.410 Y18.410
G1 X78.410 Y13.590 Z-2.500 F250.000
G1 X77.944 Y13.124
G1 X78.410 Y13.590
G1 X80.000 Y13.590 Z-2.500 F250.000
G2 X81.590 Y12.000 Z-2.500 I0.000 J-1.590 F250.000
G1 X81.590 Y0.000 Z-2.500 F250.000
G2 X80.000 Y-1.590 Z-2.500 I-1.590 J-0.000 F250.000
G1 X68.000 Y-1.590 Z-2.500 F250.000
G1 Y-1.590
G1 Y-1.590
G2 X66.410 Y0.000 Z-2.500 I-0.000 J1.590 F250.000
G1 X66.410 Y1.590 Z-2.500 F250.000
G1 X66.876 Y2.056
G1 X66.410 Y1.590
G1 X61.590 Y1.590 Z-2.500 F250.000
G1 X61.124 Y2.056
G1 X61.590 Y1.590
G1 X61.590 Y0.000 Z-2.500 F250.000
G2 X60.000 Y-1.590 Z-2.500 I-1.590 J-0.000 F250.000
G1 X52.000 Y-1.590 Z-2.500 F250.000
G1 Y-1.590
G1 Y-1.590
G2 X50.410 Y0.000 Z-2.500 I-0.000 J1.590 F250.000
G1 X50.410 Y1.590 Z-2.500 F250.000
G1 X50.876 Y2.056
G1 X50.410 Y1.590
G1 X45.590 Y1.590 Z-2.500 F250.000
G1 X45.124 Y2.056
G1 X45.590 Y1.590
G1 X45.590 Y-0.000 Z-2.500 F250.000
G2 X44.000 Y-1.590 Z-2.500 I-1.590 J-0.000 F250.000
G1 X36.000 Y-1.590 Z-2.500 F250.000
G2 X34.410 Y0.000 Z-2.500 I0.000 J1.590 F250.000
G1 X34.410 Y1.590 Z-2.500 F250.000
G1 X34.876 Y2.056
G1 X34.410 Y1.590
G1 X29.590 Y1.590 Z-2.500 F250.000
G1 X29.124 Y2.056
G1 X29.590 Y1.590
G1 X29.590 Y0.000 Z-2.500 F250.000
G2 X28.000 Y-1.590 Z-2.500 I-1.590 J-0.000 F250.000
G1 X20.000 Y-1.590 Z-2.500 F250.000
G1 Y-1.590
G1 Y-1.590
G2 X18.410 Y0.000 Z-2.500 I-0.000 J1.590 F250.000
G1 X18.410 Y1.590 Z-2.500 F250.000
G1 X18.876 Y2.056
G1 X18.410 Y1.590
G1 X13.590 Y1.590 Z-2.500 F250.000
G1 X13.124 Y2.056
G1 X13.590 Y1.590
G1 X13.590 Y0.000 Z-2.500 F250.000
G2 X12.000 Y-1.590 Z-2.500 I-1.590 J-0.000 F250.000
G1 X0.000 Y-1.590 Z-2.500 F250.000
G1 Y-1.590
G1 Y-1.590
G2 X-1.590 Y0.000 Z-2.500 I-0.000 J1.590 F250.000
G1 X-1.590 Y12.000 Z-2.500 F250.000
G2 X0.000 Y13.590 Z-2.500 I1.590 J0.000 F250.000
G1 X1.590 Y13.590 Z-2.500 F250.000
G1 X2.056 Y13.124
G1 X1.590 Y13.590
G1 X1.590 Y18.410 Z-2.500 F250.000
G1 X2.056 Y18.876
G1 X1.590 Y18.410
G1 X0.000 Y18.410 Z-2.500 F250.000
G1 Y18.410
G1 Y18.410
G2 X-1.590 Y20.000 Z-2.500 I-0.000 J1.590 F250.000
G1 X-1.590 Y28.000 Z-2.500 F250.000
G2 X0.000 Y29.590 Z-2.500 I1.590 J0.000 F250.000
G1 X1.590 Y29.590 Z-2.500 F250.000
G1 X2.056 Y29.124
G1 X1.590 Y29.590
G1 X1.590 Y34.410 Z-2.500 F250.000
G1 X2.056 Y34.876
G1 X1.590 Y34.410
G1 X0.000 Y34.410 Z-2.500 F250.000
G1 Y34.410
G1 Y34.410
G2 X-1.590 Y36.000 Z-2.500 I-0.000 J1.590 F250.000
G1 X-1.590 Y44.000 Z-2.500 F250.000
G2 X0.000 Y45.590 Z-2.500 I1.590 J0.000 F250.000
G1 X1.590 Y45.590 Z-2.500 F250.000
G1 X2.056 Y45.124
G1 X1.590 Y45.590
G1 X1.590 Y50.410 Z-2.500 F250.000
G1 X2.056 Y50.876
G1 X1.590 Y50.410
G1 X0.000 Y50.410 Z-2.500 F250.000
G1 Y50.410
G1 Y50.410
G2 X-1.590 Y52.000 Z-2.500 I-0.000 J1.590 F250.000
G1 X-1.590 Y60.000 Z-2.500 F250.000
G2 X0.000 Y61.590 Z-2.500 I1.590 J0.000 F250.000
G1 X1.590 Y61.590 Z-2.500 F250.000
G1 X2.056 Y61.124
G1 X1.590 Y61.590
G1 X1.590 Y66.410 Z-2.500 F250.000
G1 X2.056 Y66.876
G1 X1.590 Y66.410
G1 X0.000 Y66.410 Z-2.500 F250.000
G1 Y66.410
G1 Y66.410
G2 X-1.590 Y68.000 Z-2.500 I-0.000 J1.590 F250.000
G1 X-1.590 Y80.000 Z-2.500 F250.000
G2 X0.000 Y81.590 Z-2.500 I1.590 J0.000 F250.000
G1 X12.000 Y81.590 Z-2.500 F250.000
G2 X13.590 Y80.000 Z-2.500 I0.000 J-1.590 F250.000
G1 X13.590 Y78.410 Z-2.500 F250.000
G1 X13.124 Y77.944
G1 X13.590 Y78.410
G1 X18.410 Y78.410 Z-2.500 F250.000
G1 X18.876 Y77.944
G1 X18.410 Y78.410
G1 X18.410 Y80.000 Z-2.500 F250.000
G2 X20.000 Y81.590 Z-2.500 I1.590 J0.000 F250.000
G1 X28.000 Y81.590 Z-2.500 F250.000
G2 X29.590 Y80.000 Z-2.500 I0.000 J-1.590 F250.000
G1 X29.590 Y78.410 Z-2.500 F250.000
G1 X29.124 Y77.944
G1 X29.590 Y78.410
G1 X34.410 Y78.410 Z-2.500 F250.000
G1 X34.876 Y77.944
G1 X34.410 Y78.410
G1 X34.410 Y80.000 Z-2.500 F250.000
G2 X36.000 Y81.590 Z-2.500 I1.590 J0.000 F250.000
G1 X44.000 Y81.590 Z-2.500 F250.000
G2 X45.590 Y80.000 Z-2.500 I0.000 J-1.590 F250.000
G1 X45.590 Y78.410 Z-2.500 F250.000
G1 X45.124 Y77.944
G1 X45.590 Y78.410
G1 X50.410 Y78.410 Z-2.500 F250.000
G1 X50.876 Y77.944
G1 X50.410 Y78.410
G1 X50.410 Y80.000 Z-2.500 F250.000
G2 X52.000 Y81.590 Z-2.500 I1.590 J0.000 F250.000
G1 X60.000 Y81.590 Z-2.500 F250.000
G2 X61.590 Y80.000 Z-2.500 I0.000 J-1.590 F250.000
G1 X61.590 Y78.410 Z-2.500 F250.000
G1 X61.124 Y77.944
G1 X61.590 Y78.410
G1 X66.410 Y78.410 Z-2.500 F250.000
G1 X66.876 Y77.944
G1 X66.410 Y78.410
G1 X66.410 Y80.000 Z-2.500 F250.000
G2 X68.000 Y81.590 Z-2.500 I1.590 J0.000 F250.000
G1 X80.000 Y81.590 Z-2.500 F250.000
G2 X81.124 Y81.124 Z-2.500 I0.000 J-1.590 F250.000
G1 X81.124 Y81.124 Z-3.000 F100.000
G2 X81.590 Y80.000 Z-3.000 I-1.124 J-1.124 F250.000
G1 X81.590 Y68.000 Z-3.000 F250.000
G2 X80.000 Y66.410 Z-3.000 I-1.590 J-0.000 F250.000
G1 X78.410 Y66.410 Z-3.000 F250.000
G1 X77.944 Y66.876
G1 X78.410 Y66.410
G1 X78.410 Y61.590 Z-3.000 F250.000
G1 X77.944 Y61.124
G1 X78.410 Y61.590
G1 X80.000 Y61.590 Z-3.000 F250.000
G2 X81.590 Y60.000 Z-3.000 I0.000 J-1.590 F250.000
G1 X81.590 Y52.000 Z-3.000 F250.000
G2 X80.000 Y50.410 Z-3.000 I-1.590 J-0.000 F250.000
G1 X78.410 Y50.410 Z-3.000 F250.000
G1 X77.944 Y50.876
G1 X78.410 Y50.410
G1 X78.410 Y45.590 Z-3.000 F250.000
G1 X77.944 Y45.124
G1 X78.410 Y45.590
G1 X80.000 Y45.590 Z-3.000 F250.000
G2 X81.590 Y44.000 Z-3.000 I0.000 J-1.590 F250.000
G1 X81.590 Y36.000 Z-3.000 F250.000
G2 X80.000 Y34.410 Z-3.000 I-1.590 J-0.000 F250.000
G1 X78.410 Y34.410 Z-3.000 F250.000
G1 X77.944 Y34.876
G1 X78.410 Y34.410
G1 X78.410 Y29.590 Z-3.000 F250.000
G1 X77.944 Y29.124
G1 X78.410 Y29.590
G1 X80.000 Y29.590 Z-3.000 F250.000
G2 X81.590 Y28.000 Z-3.000 I0.000 J-1.590 F250.000
G1 X81.590 Y20.000 Z-3.000 F250.000
G2 X80.000 Y18.410 Z-3.000 I-1.590 J-0.000 F250.000
G1 X78.410 Y18.410 Z-3.000 F250.000
G1 X77.944 Y18.876
G1 X78.410 Y18.410
G1 X78.410 Y13.590 Z-3.000 F250.000
G1 X77.944 Y13.124
G1 X78.410 Y13.590
G1 X80.000 Y13.590 Z-3.000 F250.000
G2 X81.590 Y12.000 Z-3.000 I0.000 J-1.590 F250.000
G1 X81.590 Y0.000 Z-3.000 F250.000
G2 X80.000 Y-1.590 Z-3.000 I-1.590 J-0.000 F250.000
G1 X68.000 Y-1.590 Z-3.000 F250.000
G1 Y-1.590
G1 Y-1.590
G2 X66.410 Y0.000 Z-3.000 I-0.000 J1.590 F250.000
G1 X66.410 Y1.590 Z-3.000 F250.000
G1 X66.876 Y2.056
G1 X66.410 Y1.590
G1 X61.590 Y1.590 Z-3.000 F250.000
G1 X61.124 Y2.056
G1 X61.590 Y1.590
G1 X61.590 Y0.000 Z-3.000 F250.000
G2 X60.000 Y-1.590 Z-3.000 I-1.590 J-0.000 F250.000
G1 X52.000 Y-1.590 Z-3.000 F250.000
G1 Y-1.590
G1 Y-1.590
G2 X50.410 Y0.000 Z-3.000 I-0.000 J1.590 F250.000
G1 X50.410 Y1.590 Z-3.000 F250.000
G1 X50.876 Y2.056
G1 X50.410 Y1.590
G1 X45.590 Y1.590 Z-3.000 F250.000
G1 X45.124 Y2.056
G1 X45.590 Y1.590
G1 X45.590 Y-0.000 Z-3.000 F250.000
G2 X44.000 Y-1.590 Z-3.000 I-1.590 J-0.000 F250.000
G1 X36.000 Y-1.590 Z-3.000 F250.000
G2 X34.410 Y0.000 Z-3.000 I0.000 J1.590 F250.000
G1 X34.410 Y1.590 Z-3.000 F250.000
G1 X34.876 Y2.056
G1 X34.410 Y1.590
G1 X29.590 Y1.590 Z-3.000 F250.000
G1 X29.124 Y2.056
G1 X29.590 Y1.590
G1 X29.590 Y0.000 Z-3.000 F250.000
G2 X28.000 Y-1.590 Z-3.000 I-1.590 J-0.000 F250.000
G1 X20.000 Y-1.590 Z-3.000 F250.000
G1 Y-1.590
G1 Y-1.590
G2 X18.410 Y0.000 Z-3.000 I-0.000 J1.590 F250.000
G1 X18.410 Y1.590 Z-3.000 F250.000
G1 X18.876 Y2.056
G1 X18.410 Y1.590
G1 X13.590 Y1.590 Z-3.000 F250.000
G1 X13.124 Y2.056
G1 X13.590 Y1.590
G1 X13.590 Y0.000 Z-3.000 F250.000
G2 X12.000 Y-1.590 Z-3.000 I-1.590 J-0.000 F250.000
G1 X0.000 Y-1.590 Z-3.000 F250.000
G1 Y-1.590
G1 Y-1.590
G2 X-1.590 Y0.000 Z-3.000 I-0.000 J1.590 F250.000
G1 X-1.590 Y12.000 Z-3.000 F250.000
G2 X0.000 Y13.590 Z-3.000 I1.590 J0.000 F250.000
G1 X1.590 Y13.590 Z-3.000 F250.000
G1 X2.056 Y13.124
G1 X1.590 Y13.590
G1 X1.590 Y18.410 Z-3.000 F250.000
G1 X2.056 Y18.876
G1 X1.590 Y18.410
G1 X0.000 Y18.410 Z-3.000 F250.000
G1 Y18.410
G1 Y18.410
G2 X-1.590 Y20.000 Z-3.000 I-0.000 J1.590 F250.000
G1 X-1.590 Y28.000 Z-3.000 F250.000
G2 X0.000 Y29.590 Z-3.000 I1.590 J0.000 F250.000
G1 X1.590 Y29.590 Z-3.000 F250.000
G1 X2.056 Y29.124
G1 X1.590 Y29.590
G1 X1.590 Y34.410 Z-3.000 F250.000
G1 X2.056 Y34.876
G1 X1.590 Y34.410
G1 X0.000 Y34.410 Z-3.000 F250.000
G1 Y34.410
G1 Y34.410
G2 X-1.590 Y36.000 Z-3.000 I-0.000 J1.590 F250.000
G1 X-1.590 Y44.000 Z-3.000 F250.000
G2 X0.000 Y45.590 Z-3.000 I1.590 J0.000 F250.000
G1 X1.590 Y45.590 Z-3.000 F250.000
G1 X2.056 Y45.124
G1 X1.590 Y45.590
G1 X1.590 Y50.410 Z-3.000 F250.000
G1 X2.056 Y50.876
G1 X1.590 Y50.410
G1 X0.000 Y50.410 Z-3.000 F250.000
G1 Y50.410
G1 Y50.410
G2 X-1.590 Y52.000 Z-3.000 I-0.000 J1.590 F250.000
G1 X-1.590 Y60.000 Z-3.000 F250.000
G2 X0.000 Y61.590 Z-3.000 I1.590 J0.000 F250.000
G1 X1.590 Y61.590 Z-3.000 F250.000
G1 X2.056 Y61.124
G1 X1.590 Y61.590
G1 X1.590 Y66.410 Z-3.000 F250.000
G1 X2.056 Y66.876
G1 X1.590 Y66.410
G1 X0.000 Y66.410 Z-3.000 F250.000
G1 Y66.410
G1 Y66.410
G2 X-1.590 Y68.000 Z-3.000 I-0.000 J1.590 F250.000
G1 X-1.590 Y80.000 Z-3.000 F250.000
G2 X0.000 Y81.590 Z-3.000 I1.590 J0.000 F250.000
G1 X12.000 Y81.590 Z-3.000 F250.000
G2 X13.590 Y80.000 Z-3.000 I0.000 J-1.590 F250.000
G1 X13.590 Y78.410 Z-3.000 F250.000
G1 X13.124 Y77.944
G1 X13.590 Y78.410
G1 X18.410 Y78.410 Z-3.000 F250.000
G1 X18.876 Y77.944
G1 X18.410 Y78.410
G1 X18.410 Y80.000 Z-3.000 F250.000
G2 X20.000 Y81.590 Z-3.000 I1.590 J0.000 F250.000
G1 X28.000 Y81.590 Z-3.000 F250.000
G2 X29.590 Y80.000 Z-3.000 I0.000 J-1.590 F250.000
G1 X29.590 Y78.410 Z-3.000 F250.000
G1 X29.124 Y77.944
G1 X29.590 Y78.410
G1 X34.410 Y78.410 Z-3.000 F250.000
G1 X34.876 Y77.944
G1 X34.410 Y78.410
G1 X34.410 Y80.000 Z-3.000 F250.000
G2 X36.000 Y81.590 Z-3.000 I1.590 J0.000 F250.000
G1 X44.000 Y81.590 Z-3.000 F250.000
G2 X45.590 Y80.000 Z-3.000 I0.000 J-1.590 F250.000
G1 X45.590 Y78.410 Z-3.000 F250.000
G1 X45.124 Y77.944
G1 X45.590 Y78.410
G1 X50.410 Y78.410 Z-3.000 F250.000
G1 X50.876 Y77.944
G1 X50.410 Y78.410
G1 X50.410 Y80.000 Z-3.000 F250.000
G2 X52.000 Y81.590 Z-3.000 I1.590 J0.000 F250.000
G1 X60.000 Y81.590 Z-3.000 F250.000
G2 X61.590 Y80.000 Z-3.000 I0.000 J-1.590 F250.000
G1 X61.590 Y78.410 Z-3.000 F250.000
G1 X61.124 Y77.944
G1 X61.590 Y78.410
G1 X66.410 Y78.410 Z-3.000 F250.000
G1 X66.876 Y77.944
G1 X66.410 Y78.410
G1 X66.410 Y80.000 Z-3.000 F250.000
G2 X68.000 Y81.590 Z-3.000 I1.590 J0.000 F250.000
G1 X80.000 Y81.590 Z-3.000 F250.000
G2 X81.124 Y81.124 Z-3.000 I0.000 J-1.590 F250.000
G1 X81.124 Y81.124 Z-3.480 F100.000
G2 X81.590 Y80.000 Z-3.480 I-1.124 J-1.124 F250.000
G1 X81.590 Y68.000 Z-3.480 F250.000
G2 X80.000 Y66.410 Z-3.480 I-1.590 J-0.000 F250.000
G1 X78.410 Y66.410 Z-3.480 F250.000
G1 X77.944 Y66.876
G1 X78.410 Y66.410
G1 X78.410 Y61.590 Z-3.480 F250.000
G1 X77.944 Y61.124
G1 X78.410 Y61.590
G1 X80.000 Y61.590 Z-3.480 F250.000
G2 X81.590 Y60.000 Z-3.480 I0.000 J-1.590 F250.000
G1 X81.590 Y52.000 Z-3.480 F250.000
G2 X80.000 Y50.410 Z-3.480 I-1.590 J-0.000 F250.000
G1 X78.410 Y50.410 Z-3.480 F250.000
G1 X77.944 Y50.876
G1 X78.410 Y50.410
G1 X78.410 Y45.590 Z-3.480 F250.000
G1 X77.944 Y45.124
G1 X78.410 Y45.590
G1 X80.000 Y45.590 Z-3.480 F250.000
G2 X81.590 Y44.000 Z-3.480 I0.000 J-1.590 F250.000
G1 X81.590 Y36.000 Z-3.480 F250.000
G2 X80.000 Y34.410 Z-3.480 I-1.590 J-0.000 F250.000
G1 X78.410 Y34.410 Z-3.480 F250.000
G1 X77.944 Y34.876
G1 X78.410 Y34.410
G1 X78.410 Y29.590 Z-3.480 F250.000
G1 X77.944 Y29.124
G1 X78.410 Y29.590
G1 X80.000 Y29.590 Z-3.480 F250.000
G2 X81.590 Y28.000 Z-3.480 I0.000 J-1.590 F250.000
G1 X81.590 Y20.000 Z-3.480 F250.000
G2 X80.000 Y18.410 Z-3.480 I-1.590 J-0.000 F250.000
G1 X78.410 Y18.410 Z-3.480 F250.000
G1 X77.944 Y18.876
G1 X78.410 Y18.410
G1 X78.410 Y13.590 Z-3.480 F250.000
G1 X77.944 Y13.124
G1 X78.410 Y13.590
G1 X80.000 Y13.590 Z-3.480 F250.000
G2 X81.590 Y12.000 Z-3.480 I0.000 J-1.590 F250.000
G1 X81.590 Y0.000 Z-3.480 F250.000
G2 X80.000 Y-1.590 Z-3.480 I-1.590 J-0.000 F250.000
G1 X68.000 Y-1.590 Z-3.480 F250.000
G1 Y-1.590
G1 Y-1.590
G2 X66.410 Y0.000 Z-3.480 I-0.000 J1.590 F250.000
G1 X66.410 Y1.590 Z-3.480 F250.000
G1 X66.876 Y2.056
G1 X66.410 Y1.590
G1 X61.590 Y1.590 Z-3.480 F250.000
G1 X61.124 Y2.056
G1 X61.590 Y1.590
G1 X61.590 Y0.000 Z-3.480 F250.000
G2 X60.000 Y-1.590 Z-3.480 I-1.590 J-0.000 F250.000
G1 X52.000 Y-1.590 Z-3.480 F250.000
G1 Y-1.590
G1 Y-1.590
G2 X50.410 Y0.000 Z-3.480 I-0.000 J1.590 F250.000
G1 X50.410 Y1.590 Z-3.480 F250.000
G1 X50.876 Y2.056
G1 X50.410 Y1.590
G1 X45.590 Y1.590 Z-3.480 F250.000
G1 X45.124 Y2.056
G1 X45.590 Y1.590
G1 X45.590 Y-0.000 Z-3.480 F250.000
G2 X44.000 Y-1.590 Z-3.480 I-1.590 J-0.000 F250.000
G1 X36.000 Y-1.590 Z-3.480 F250.000
G2 X34.410 Y0.000 Z-3.480 I0.000 J1.590 F250.000
G1 X34.410 Y1.590 Z-3.480 F250.000
G1 X34.876 Y2.056
G1 X34.410 Y1.590
G1 X29.590 Y1.590 Z-3.480 F250.000
G1 X29.124 Y2.056
G1 X29.590 Y1.590
G1 X29.590 Y0.000 Z-3.480 F250.000
G2 X28.000 Y-1.590 Z-3.480 I-1.590 J-0.000 F250.000
G1 X20.000 Y-1.590 Z-3.480 F250.000
G1 Y-1.590
G1 Y-1.590
G2 X18.410 Y0.000 Z-3.480 I-0.000 J1.590 F250.000
G1 X18.410 Y1.590 Z-3.480 F250.000
G1 X18.876 Y2.056
G1 X18.410 Y1.590
G1 X13.590 Y1.590 Z-3.480 F250.000
G1 X13.124 Y2.056
G1 X13.590 Y1.590
G1 X13.590 Y0.000 Z-3.480 F250.000
G2 X12.000 Y-1.590 Z-3.480 I-1.590 J-0.000 F250.000
G1 X0.000 Y-1.590 Z-3.480 F250.000
G1 Y-1.590
G1 Y-1.590
G2 X-1.590 Y0.000 Z-3.480 I-0.000 J1.590 F250.000
G1 X-1.590 Y12.000 Z-3.480 F250.000
G2 X0.000 Y13.590 Z-3.480 I1.590 J0.000 F250.000
G1 X1.590 Y13.590 Z-3.480 F250.000
G1 X2.056 Y13.124
G1 X1.590 Y13.590
G1 X1.590 Y18.410 Z-3.480 F250.000
G1 X2.056 Y18.876
G1 X1.590 Y18.410
G1 X0.000 Y18.410 Z-3.480 F250.000
G1 Y18.410
G1 Y18.410
G2 X-1.590 Y20.000 Z-3.480 I-0.000 J1.590 F250.000
G1 X-1.590 Y28.000 Z-3.480 F250.000
G2 X0.000 Y29.590 Z-3.480 I1.590 J0.000 F250.000
G1 X1.590 Y29.590 Z-3.480 F250.000
G1 X2.056 Y29.124
G1 X1.590 Y29.590
G1 X1.590 Y34.410 Z-3.480 F250.000
G1 X2.056 Y34.876
G1 X1.590 Y34.410
G1 X0.000 Y34.410 Z-3.480 F250.000
G1 Y34.410
G1 Y34.410
G2 X-1.590 Y36.000 Z-3.480 I-0.000 J1.590 F250.000
G1 X-1.590 Y44.000 Z-3.480 F250.000
G2 X0.000 Y45.590 Z-3.480 I1.590 J0.000 F250.000
G1 X1.590 Y45.590 Z-3.480 F250.000
G1 X2.056 Y45.124
G1 X1.590 Y45.590
G1 X1.590 Y50.410 Z-3.480 F250.000
G1 X2.056 Y50.876
G1 X1.590 Y50.410
G1 X0.000 Y50.410 Z-3.480 F250.000
G1 Y50.410
G1 Y50.410
G2 X-1.590 Y52.000 Z-3.480 I-0.000 J1.590 F250.000
G1 X-1.590 Y60.000 Z-3.480 F250.000
G2 X0.000 Y61.590 Z-3.480 I1.590 J0.000 F250.000
G1 X1.590 Y61.590 Z-3.480 F250.000
G1 X2.056 Y61.124
G1 X1.590 Y61.590
G1 X1.590 Y66.410 Z-3.480 F250.000
G1 X2.056 Y66.876
G1 X1.590 Y66.410
G1 X0.000 Y66.410 Z-3.480 F250.000
G1 Y66.410
G1 Y66.410
G2 X-1.590 Y68.000 Z-3.480 I-0.000 J1.590 F250.000
G1 X-1.590 Y80.000 Z-3.480 F250.000
G2 X0.000 Y81.590 Z-3.480 I1.590 J0.000 F250.000
G1 X12.000 Y81.590 Z-3.480 F250.000
G2 X13.590 Y80.000 Z-3.480 I0.000 J-1.590 F250.000
G1 X13.590 Y78.410 Z-3.480 F250.000
G1 X13.124 Y77.944
G1 X13.590 Y78.410
G1 X18.410 Y78.410 Z-3.480 F250.000
G1 X18.876 Y77.944
G1 X18.410 Y78.410
G1 X18.410 Y80.000 Z-3.480 F250.000
G2 X20.000 Y81.590 Z-3.480 I1.590 J0.000 F250.000
G1 X28.000 Y81.590 Z-3.480 F250.000
G2 X29.590 Y80.000 Z-3.480 I0.000 J-1.590 F250.000
G1 X29.590 Y78.410 Z-3.480 F250.000
G1 X29.124 Y77.944
G1 X29.590 Y78.410
G1 X34.410 Y78.410 Z-3.480 F250.000
G1 X34.876 Y77.944
G1 X34.410 Y78.410
G1 X34.410 Y80.000 Z-3.480 F250.000
G2 X36.000 Y81.590 Z-3.480 I1.590 J0.000 F250.000
G1 X44.000 Y81.590 Z-3.480 F250.000
G2 X45.590 Y80.000 Z-3.480 I0.000 J-1.590 F250.000
G1 X45.590 Y78.410 Z-3.480 F250.000
G1 X45.124 Y77.944
G1 X45.590 Y78.410
G1 X50.410 Y78.410 Z-3.480 F250.000
G1 X50.876 Y77.944
G1 X50.410 Y78.410
G1 X50.410 Y80.000 Z-3.480 F250.000
G2 X52.000 Y81.590 Z-3.480 I1.590 J0.000 F250.000
G1 X60.000 Y81.590 Z-3.480 F250.000
G2 X61.590 Y80.000 Z-3.480 I0.000 J-1.590 F250.000
G1 X61.590 Y78.410 Z-3.480 F250.000
G1 X61.124 Y77.944
G1 X61.590 Y78.410
G1 X66.410 Y78.410 Z-3.480 F250.000
G1 X66.876 Y77.944
G1 X66.410 Y78.410
G1 X66.410 Y80.000 Z-3.480 F250.000
G2 X68.000 Y81.590 Z-3.480 I1.590 J0.000 F250.000
G1 X80.000 Y81.590 Z-3.480 F250.000
G2 X81.124 Y81.124 Z-3.480 I0.000 J-1.590 F250.000
G0 Z5.000
G0 Z5.000
(finish operation: DressupDogbone001)
(begin postamble)
M05 M09
G17 G90 G80 G40
M30
