(Exported by FreeCAD)
(Post Processor: KineticNCBeamicon2_post)
(Output Time:2023-12-28 20:26:15.419156)
(begin preamble)
%
G17 G21 G40 G49 G80 G90
M08
G21
(begin operation: Fixture)
(machine: not set, mm/min)
G54
(finish operation: Fixture)
(begin operation: 3.18mm Endmill007)
(machine: not set, mm/min)
(3.18mm Endmill007)
M05
M09M6 T2
M3 S10000
(finish operation: 3.18mm Endmill007)
(begin operation: DressupDogbone003)
(machine: not set, mm/min)
(Profile004)
(Compensated Tool Path. Diameter: 3.18)
G0 Z5.000
G0 X80.503 Y-1.672
G0 Z3.000
G1 X80.503 Y-1.672 Z-0.500 F100.000
G2 X81.590 Y-3.180 Z-0.500 I-0.503 J-1.508 F250.000
G1 X81.590 Y-12.000 Z-0.500 F250.000
G2 X80.000 Y-13.590 Z-0.500 I-1.590 J0.000 F250.000
G1 X78.410 Y-13.590 Z-0.500 F250.000
G1 X77.944 Y-13.124
G1 X78.410 Y-13.590
G1 X78.410 Y-18.410 Z-0.500 F250.000
G1 X77.944 Y-18.876
G1 X78.410 Y-18.410
G1 X80.000 Y-18.410 Z-0.500 F250.000
G2 X81.590 Y-20.000 Z-0.500 I0.000 J-1.590 F250.000
G1 X81.590 Y-28.000 Z-0.500 F250.000
G2 X80.000 Y-29.590 Z-0.500 I-1.590 J-0.000 F250.000
G1 X78.410 Y-29.590 Z-0.500 F250.000
G1 X77.944 Y-29.124
G1 X78.410 Y-29.590
G1 X78.410 Y-34.410 Z-0.500 F250.000
G1 X77.944 Y-34.876
G1 X78.410 Y-34.410
G1 X80.000 Y-34.410 Z-0.500 F250.000
G2 X81.590 Y-36.000 Z-0.500 I0.000 J-1.590 F250.000
G1 X81.590 Y-44.000 Z-0.500 F250.000
G2 X80.000 Y-45.590 Z-0.500 I-1.590 J-0.000 F250.000
G1 X78.410 Y-45.590 Z-0.500 F250.000
G1 X77.944 Y-45.124
G1 X78.410 Y-45.590
G1 X78.410 Y-50.410 Z-0.500 F250.000
G1 X77.944 Y-50.876
G1 X78.410 Y-50.410
G1 X80.000 Y-50.410 Z-0.500 F250.000
G2 X81.590 Y-52.000 Z-0.500 I0.000 J-1.590 F250.000
G1 X81.590 Y-60.000 Z-0.500 F250.000
G2 X80.000 Y-61.590 Z-0.500 I-1.590 J-0.000 F250.000
G1 X78.410 Y-61.590 Z-0.500 F250.000
G1 X77.944 Y-61.124
G1 X78.410 Y-61.590
G1 X78.410 Y-66.410 Z-0.500 F250.000
G1 X77.944 Y-66.876
G1 X78.410 Y-66.410
G1 X80.000 Y-66.410 Z-0.500 F250.000
G2 X81.590 Y-68.000 Z-0.500 I0.000 J-1.590 F250.000
G1 X81.590 Y-76.820 Z-0.500 F250.000
G2 X80.000 Y-78.410 Z-0.500 I-1.590 J-0.000 F250.000
G1 X69.590 Y-78.410 Z-0.500 F250.000
G1 X69.124 Y-77.944
G1 X69.590 Y-78.410
G1 X69.590 Y-80.000 Z-0.500 F250.000
G2 X68.000 Y-81.590 Z-0.500 I-1.590 J-0.000 F250.000
G1 X60.000 Y-81.590 Z-0.500 F250.000
G1 Y-81.590
G1 Y-81.590
G2 X58.410 Y-80.000 Z-0.500 I-0.000 J1.590 F250.000
G1 X58.410 Y-78.410 Z-0.500 F250.000
G1 X58.876 Y-77.944
G1 X58.410 Y-78.410
G1 X53.590 Y-78.410 Z-0.500 F250.000
G1 X53.124 Y-77.944
G1 X53.590 Y-78.410
G1 X53.590 Y-80.000 Z-0.500 F250.000
G2 X52.000 Y-81.590 Z-0.500 I-1.590 J-0.000 F250.000
G1 X44.000 Y-81.590 Z-0.500 F250.000
G1 Y-81.590
G1 Y-81.590
G2 X42.410 Y-80.000 Z-0.500 I-0.000 J1.590 F250.000
G1 X42.410 Y-78.410 Z-0.500 F250.000
G1 X42.876 Y-77.944
G1 X42.410 Y-78.410
G1 X37.590 Y-78.410 Z-0.500 F250.000
G1 X37.124 Y-77.944
G1 X37.590 Y-78.410
G1 X37.590 Y-80.000 Z-0.500 F250.000
G2 X36.000 Y-81.590 Z-0.500 I-1.590 J-0.000 F250.000
G1 X28.000 Y-81.590 Z-0.500 F250.000
G1 Y-81.590
G1 Y-81.590
G2 X26.410 Y-80.000 Z-0.500 I-0.000 J1.590 F250.000
G1 X26.410 Y-78.410 Z-0.500 F250.000
G1 X26.876 Y-77.944
G1 X26.410 Y-78.410
G1 X21.590 Y-78.410 Z-0.500 F250.000
G1 X21.124 Y-77.944
G1 X21.590 Y-78.410
G1 X21.590 Y-80.000 Z-0.500 F250.000
G2 X20.000 Y-81.590 Z-0.500 I-1.590 J-0.000 F250.000
G1 X12.000 Y-81.590 Z-0.500 F250.000
G1 Y-81.590
G1 Y-81.590
G2 X10.410 Y-80.000 Z-0.500 I-0.000 J1.590 F250.000
G1 X10.410 Y-78.410 Z-0.500 F250.000
G1 X10.876 Y-77.944
G1 X10.410 Y-78.410
G1 X0.000 Y-78.410 Z-0.500 F250.000
G1 Y-78.410
G1 Y-78.410
G2 X-1.590 Y-76.820 Z-0.500 I-0.000 J1.590 F250.000
G1 X-1.590 Y-68.000 Z-0.500 F250.000
G2 X0.000 Y-66.410 Z-0.500 I1.590 J0.000 F250.000
G1 X1.590 Y-66.410 Z-0.500 F250.000
G1 X2.056 Y-66.876
G1 X1.590 Y-66.410
G1 X1.590 Y-61.590 Z-0.500 F250.000
G1 X2.056 Y-61.124
G1 X1.590 Y-61.590
G1 X0.000 Y-61.590 Z-0.500 F250.000
G1 Y-61.590
G1 Y-61.590
G2 X-1.590 Y-60.000 Z-0.500 I-0.000 J1.590 F250.000
G1 X-1.590 Y-52.000 Z-0.500 F250.000
G2 X0.000 Y-50.410 Z-0.500 I1.590 J0.000 F250.000
G1 X1.590 Y-50.410 Z-0.500 F250.000
G1 X2.056 Y-50.876
G1 X1.590 Y-50.410
G1 X1.590 Y-45.590 Z-0.500 F250.000
G1 X2.056 Y-45.124
G1 X1.590 Y-45.590
G1 X0.000 Y-45.590 Z-0.500 F250.000
G1 Y-45.590
G1 Y-45.590
G2 X-1.590 Y-44.000 Z-0.500 I-0.000 J1.590 F250.000
G1 X-1.590 Y-36.000 Z-0.500 F250.000
G2 X0.000 Y-34.410 Z-0.500 I1.590 J0.000 F250.000
G1 X1.590 Y-34.410 Z-0.500 F250.000
G1 X2.056 Y-34.876
G1 X1.590 Y-34.410
G1 X1.590 Y-29.590 Z-0.500 F250.000
G1 X2.056 Y-29.124
G1 X1.590 Y-29.590
G1 X0.000 Y-29.590 Z-0.500 F250.000
G1 Y-29.590
G1 Y-29.590
G2 X-1.590 Y-28.000 Z-0.500 I-0.000 J1.590 F250.000
G1 X-1.590 Y-20.000 Z-0.500 F250.000
G2 X0.000 Y-18.410 Z-0.500 I1.590 J0.000 F250.000
G1 X1.590 Y-18.410 Z-0.500 F250.000
G1 X2.056 Y-18.876
G1 X1.590 Y-18.410
G1 X1.590 Y-13.590 Z-0.500 F250.000
G1 X2.056 Y-13.124
G1 X1.590 Y-13.590
G1 X0.000 Y-13.590 Z-0.500 F250.000
G1 Y-13.590
G1 Y-13.590
G2 X-1.590 Y-12.000 Z-0.500 I-0.000 J1.590 F250.000
G1 X-1.590 Y-3.180 Z-0.500 F250.000
G2 X0.000 Y-1.590 Z-0.500 I1.590 J0.000 F250.000
G1 X10.410 Y-1.590 Z-0.500 F250.000
G1 X10.876 Y-2.056
G1 X10.410 Y-1.590
G1 X10.410 Y0.000 Z-0.500 F250.000
G2 X12.000 Y1.590 Z-0.500 I1.590 J0.000 F250.000
G1 X20.000 Y1.590 Z-0.500 F250.000
G2 X21.590 Y-0.000 Z-0.500 I0.000 J-1.590 F250.000
G1 X21.590 Y-1.590 Z-0.500 F250.000
G1 X21.124 Y-2.056
G1 X21.590 Y-1.590
G1 X26.410 Y-1.590 Z-0.500 F250.000
G1 X26.876 Y-2.056
G1 X26.410 Y-1.590
G1 X26.410 Y-0.000 Z-0.500 F250.000
G2 X28.000 Y1.590 Z-0.500 I1.590 J0.000 F250.000
G1 X36.000 Y1.590 Z-0.500 F250.000
G2 X37.590 Y-0.000 Z-0.500 I0.000 J-1.590 F250.000
G1 X37.590 Y-1.590 Z-0.500 F250.000
G1 X37.124 Y-2.056
G1 X37.590 Y-1.590
G1 X42.410 Y-1.590 Z-0.500 F250.000
G1 X42.876 Y-2.056
G1 X42.410 Y-1.590
G1 X42.410 Y-0.000 Z-0.500 F250.000
G2 X44.000 Y1.590 Z-0.500 I1.590 J0.000 F250.000
G1 X52.000 Y1.590 Z-0.500 F250.000
G2 X53.590 Y-0.000 Z-0.500 I0.000 J-1.590 F250.000
G1 X53.590 Y-1.590 Z-0.500 F250.000
G1 X53.124 Y-2.056
G1 X53.590 Y-1.590
G1 X58.410 Y-1.590 Z-0.500 F250.000
G1 X58.876 Y-2.056
G1 X58.410 Y-1.590
G1 X58.410 Y-0.000 Z-0.500 F250.000
G2 X60.000 Y1.590 Z-0.500 I1.590 J0.000 F250.000
G1 X68.000 Y1.590 Z-0.500 F250.000
G2 X69.590 Y-0.000 Z-0.500 I0.000 J-1.590 F250.000
G1 X69.590 Y-1.590 Z-0.500 F250.000
G1 X69.124 Y-2.056
G1 X69.590 Y-1.590
G1 X80.000 Y-1.590 Z-0.500 F250.000
G2 X80.503 Y-1.672 Z-0.500 I0.000 J-1.590 F250.000
G1 X80.503 Y-1.672 Z-1.000 F100.000
G2 X81.590 Y-3.180 Z-1.000 I-0.503 J-1.508 F250.000
G1 X81.590 Y-12.000 Z-1.000 F250.000
G2 X80.000 Y-13.590 Z-1.000 I-1.590 J0.000 F250.000
G1 X78.410 Y-13.590 Z-1.000 F250.000
G1 X77.944 Y-13.124
G1 X78.410 Y-13.590
G1 X78.410 Y-18.410 Z-1.000 F250.000
G1 X77.944 Y-18.876
G1 X78.410 Y-18.410
G1 X80.000 Y-18.410 Z-1.000 F250.000
G2 X81.590 Y-20.000 Z-1.000 I0.000 J-1.590 F250.000
G1 X81.590 Y-28.000 Z-1.000 F250.000
G2 X80.000 Y-29.590 Z-1.000 I-1.590 J-0.000 F250.000
G1 X78.410 Y-29.590 Z-1.000 F250.000
G1 X77.944 Y-29.124
G1 X78.410 Y-29.590
G1 X78.410 Y-34.410 Z-1.000 F250.000
G1 X77.944 Y-34.876
G1 X78.410 Y-34.410
G1 X80.000 Y-34.410 Z-1.000 F250.000
G2 X81.590 Y-36.000 Z-1.000 I0.000 J-1.590 F250.000
G1 X81.590 Y-44.000 Z-1.000 F250.000
G2 X80.000 Y-45.590 Z-1.000 I-1.590 J-0.000 F250.000
G1 X78.410 Y-45.590 Z-1.000 F250.000
G1 X77.944 Y-45.124
G1 X78.410 Y-45.590
G1 X78.410 Y-50.410 Z-1.000 F250.000
G1 X77.944 Y-50.876
G1 X78.410 Y-50.410
G1 X80.000 Y-50.410 Z-1.000 F250.000
G2 X81.590 Y-52.000 Z-1.000 I0.000 J-1.590 F250.000
G1 X81.590 Y-60.000 Z-1.000 F250.000
G2 X80.000 Y-61.590 Z-1.000 I-1.590 J-0.000 F250.000
G1 X78.410 Y-61.590 Z-1.000 F250.000
G1 X77.944 Y-61.124
G1 X78.410 Y-61.590
G1 X78.410 Y-66.410 Z-1.000 F250.000
G1 X77.944 Y-66.876
G1 X78.410 Y-66.410
G1 X80.000 Y-66.410 Z-1.000 F250.000
G2 X81.590 Y-68.000 Z-1.000 I0.000 J-1.590 F250.000
G1 X81.590 Y-76.820 Z-1.000 F250.000
G2 X80.000 Y-78.410 Z-1.000 I-1.590 J-0.000 F250.000
G1 X69.590 Y-78.410 Z-1.000 F250.000
G1 X69.124 Y-77.944
G1 X69.590 Y-78.410
G1 X69.590 Y-80.000 Z-1.000 F250.000
G2 X68.000 Y-81.590 Z-1.000 I-1.590 J-0.000 F250.000
G1 X60.000 Y-81.590 Z-1.000 F250.000
G1 Y-81.590
G1 Y-81.590
G2 X58.410 Y-80.000 Z-1.000 I-0.000 J1.590 F250.000
G1 X58.410 Y-78.410 Z-1.000 F250.000
G1 X58.876 Y-77.944
G1 X58.410 Y-78.410
G1 X53.590 Y-78.410 Z-1.000 F250.000
G1 X53.124 Y-77.944
G1 X53.590 Y-78.410
G1 X53.590 Y-80.000 Z-1.000 F250.000
G2 X52.000 Y-81.590 Z-1.000 I-1.590 J-0.000 F250.000
G1 X44.000 Y-81.590 Z-1.000 F250.000
G1 Y-81.590
G1 Y-81.590
G2 X42.410 Y-80.000 Z-1.000 I-0.000 J1.590 F250.000
G1 X42.410 Y-78.410 Z-1.000 F250.000
G1 X42.876 Y-77.944
G1 X42.410 Y-78.410
G1 X37.590 Y-78.410 Z-1.000 F250.000
G1 X37.124 Y-77.944
G1 X37.590 Y-78.410
G1 X37.590 Y-80.000 Z-1.000 F250.000
G2 X36.000 Y-81.590 Z-1.000 I-1.590 J-0.000 F250.000
G1 X28.000 Y-81.590 Z-1.000 F250.000
G1 Y-81.590
G1 Y-81.590
G2 X26.410 Y-80.000 Z-1.000 I-0.000 J1.590 F250.000
G1 X26.410 Y-78.410 Z-1.000 F250.000
G1 X26.876 Y-77.944
G1 X26.410 Y-78.410
G1 X21.590 Y-78.410 Z-1.000 F250.000
G1 X21.124 Y-77.944
G1 X21.590 Y-78.410
G1 X21.590 Y-80.000 Z-1.000 F250.000
G2 X20.000 Y-81.590 Z-1.000 I-1.590 J-0.000 F250.000
G1 X12.000 Y-81.590 Z-1.000 F250.000
G1 Y-81.590
G1 Y-81.590
G2 X10.410 Y-80.000 Z-1.000 I-0.000 J1.590 F250.000
G1 X10.410 Y-78.410 Z-1.000 F250.000
G1 X10.876 Y-77.944
G1 X10.410 Y-78.410
G1 X0.000 Y-78.410 Z-1.000 F250.000
G1 Y-78.410
G1 Y-78.410
G2 X-1.590 Y-76.820 Z-1.000 I-0.000 J1.590 F250.000
G1 X-1.590 Y-68.000 Z-1.000 F250.000
G2 X0.000 Y-66.410 Z-1.000 I1.590 J0.000 F250.000
G1 X1.590 Y-66.410 Z-1.000 F250.000
G1 X2.056 Y-66.876
G1 X1.590 Y-66.410
G1 X1.590 Y-61.590 Z-1.000 F250.000
G1 X2.056 Y-61.124
G1 X1.590 Y-61.590
G1 X0.000 Y-61.590 Z-1.000 F250.000
G1 Y-61.590
G1 Y-61.590
G2 X-1.590 Y-60.000 Z-1.000 I-0.000 J1.590 F250.000
G1 X-1.590 Y-52.000 Z-1.000 F250.000
G2 X0.000 Y-50.410 Z-1.000 I1.590 J0.000 F250.000
G1 X1.590 Y-50.410 Z-1.000 F250.000
G1 X2.056 Y-50.876
G1 X1.590 Y-50.410
G1 X1.590 Y-45.590 Z-1.000 F250.000
G1 X2.056 Y-45.124
G1 X1.590 Y-45.590
G1 X0.000 Y-45.590 Z-1.000 F250.000
G1 Y-45.590
G1 Y-45.590
G2 X-1.590 Y-44.000 Z-1.000 I-0.000 J1.590 F250.000
G1 X-1.590 Y-36.000 Z-1.000 F250.000
G2 X0.000 Y-34.410 Z-1.000 I1.590 J0.000 F250.000
G1 X1.590 Y-34.410 Z-1.000 F250.000
G1 X2.056 Y-34.876
G1 X1.590 Y-34.410
G1 X1.590 Y-29.590 Z-1.000 F250.000
G1 X2.056 Y-29.124
G1 X1.590 Y-29.590
G1 X0.000 Y-29.590 Z-1.000 F250.000
G1 Y-29.590
G1 Y-29.590
G2 X-1.590 Y-28.000 Z-1.000 I-0.000 J1.590 F250.000
G1 X-1.590 Y-20.000 Z-1.000 F250.000
G2 X0.000 Y-18.410 Z-1.000 I1.590 J0.000 F250.000
G1 X1.590 Y-18.410 Z-1.000 F250.000
G1 X2.056 Y-18.876
G1 X1.590 Y-18.410
G1 X1.590 Y-13.590 Z-1.000 F250.000
G1 X2.056 Y-13.124
G1 X1.590 Y-13.590
G1 X0.000 Y-13.590 Z-1.000 F250.000
G1 Y-13.590
G1 Y-13.590
G2 X-1.590 Y-12.000 Z-1.000 I-0.000 J1.590 F250.000
G1 X-1.590 Y-3.180 Z-1.000 F250.000
G2 X0.000 Y-1.590 Z-1.000 I1.590 J0.000 F250.000
G1 X10.410 Y-1.590 Z-1.000 F250.000
G1 X10.876 Y-2.056
G1 X10.410 Y-1.590
G1 X10.410 Y0.000 Z-1.000 F250.000
G2 X12.000 Y1.590 Z-1.000 I1.590 J0.000 F250.000
G1 X20.000 Y1.590 Z-1.000 F250.000
G2 X21.590 Y-0.000 Z-1.000 I0.000 J-1.590 F250.000
G1 X21.590 Y-1.590 Z-1.000 F250.000
G1 X21.124 Y-2.056
G1 X21.590 Y-1.590
G1 X26.410 Y-1.590 Z-1.000 F250.000
G1 X26.876 Y-2.056
G1 X26.410 Y-1.590
G1 X26.410 Y-0.000 Z-1.000 F250.000
G2 X28.000 Y1.590 Z-1.000 I1.590 J0.000 F250.000
G1 X36.000 Y1.590 Z-1.000 F250.000
G2 X37.590 Y-0.000 Z-1.000 I0.000 J-1.590 F250.000
G1 X37.590 Y-1.590 Z-1.000 F250.000
G1 X37.124 Y-2.056
G1 X37.590 Y-1.590
G1 X42.410 Y-1.590 Z-1.000 F250.000
G1 X42.876 Y-2.056
G1 X42.410 Y-1.590
G1 X42.410 Y-0.000 Z-1.000 F250.000
G2 X44.000 Y1.590 Z-1.000 I1.590 J0.000 F250.000
G1 X52.000 Y1.590 Z-1.000 F250.000
G2 X53.590 Y-0.000 Z-1.000 I0.000 J-1.590 F250.000
G1 X53.590 Y-1.590 Z-1.000 F250.000
G1 X53.124 Y-2.056
G1 X53.590 Y-1.590
G1 X58.410 Y-1.590 Z-1.000 F250.000
G1 X58.876 Y-2.056
G1 X58.410 Y-1.590
G1 X58.410 Y-0.000 Z-1.000 F250.000
G2 X60.000 Y1.590 Z-1.000 I1.590 J0.000 F250.000
G1 X68.000 Y1.590 Z-1.000 F250.000
G2 X69.590 Y-0.000 Z-1.000 I0.000 J-1.590 F250.000
G1 X69.590 Y-1.590 Z-1.000 F250.000
G1 X69.124 Y-2.056
G1 X69.590 Y-1.590
G1 X80.000 Y-1.590 Z-1.000 F250.000
G2 X80.503 Y-1.672 Z-1.000 I0.000 J-1.590 F250.000
G1 X80.503 Y-1.672 Z-1.500 F100.000
G2 X81.590 Y-3.180 Z-1.500 I-0.503 J-1.508 F250.000
G1 X81.590 Y-12.000 Z-1.500 F250.000
G2 X80.000 Y-13.590 Z-1.500 I-1.590 J0.000 F250.000
G1 X78.410 Y-13.590 Z-1.500 F250.000
G1 X77.944 Y-13.124
G1 X78.410 Y-13.590
G1 X78.410 Y-18.410 Z-1.500 F250.000
G1 X77.944 Y-18.876
G1 X78.410 Y-18.410
G1 X80.000 Y-18.410 Z-1.500 F250.000
G2 X81.590 Y-20.000 Z-1.500 I0.000 J-1.590 F250.000
G1 X81.590 Y-28.000 Z-1.500 F250.000
G2 X80.000 Y-29.590 Z-1.500 I-1.590 J-0.000 F250.000
G1 X78.410 Y-29.590 Z-1.500 F250.000
G1 X77.944 Y-29.124
G1 X78.410 Y-29.590
G1 X78.410 Y-34.410 Z-1.500 F250.000
G1 X77.944 Y-34.876
G1 X78.410 Y-34.410
G1 X80.000 Y-34.410 Z-1.500 F250.000
G2 X81.590 Y-36.000 Z-1.500 I0.000 J-1.590 F250.000
G1 X81.590 Y-44.000 Z-1.500 F250.000
G2 X80.000 Y-45.590 Z-1.500 I-1.590 J-0.000 F250.000
G1 X78.410 Y-45.590 Z-1.500 F250.000
G1 X77.944 Y-45.124
G1 X78.410 Y-45.590
G1 X78.410 Y-50.410 Z-1.500 F250.000
G1 X77.944 Y-50.876
G1 X78.410 Y-50.410
G1 X80.000 Y-50.410 Z-1.500 F250.000
G2 X81.590 Y-52.000 Z-1.500 I0.000 J-1.590 F250.000
G1 X81.590 Y-60.000 Z-1.500 F250.000
G2 X80.000 Y-61.590 Z-1.500 I-1.590 J-0.000 F250.000
G1 X78.410 Y-61.590 Z-1.500 F250.000
G1 X77.944 Y-61.124
G1 X78.410 Y-61.590
G1 X78.410 Y-66.410 Z-1.500 F250.000
G1 X77.944 Y-66.876
G1 X78.410 Y-66.410
G1 X80.000 Y-66.410 Z-1.500 F250.000
G2 X81.590 Y-68.000 Z-1.500 I0.000 J-1.590 F250.000
G1 X81.590 Y-76.820 Z-1.500 F250.000
G2 X80.000 Y-78.410 Z-1.500 I-1.590 J-0.000 F250.000
G1 X69.590 Y-78.410 Z-1.500 F250.000
G1 X69.124 Y-77.944
G1 X69.590 Y-78.410
G1 X69.590 Y-80.000 Z-1.500 F250.000
G2 X68.000 Y-81.590 Z-1.500 I-1.590 J-0.000 F250.000
G1 X60.000 Y-81.590 Z-1.500 F250.000
G1 Y-81.590
G1 Y-81.590
G2 X58.410 Y-80.000 Z-1.500 I-0.000 J1.590 F250.000
G1 X58.410 Y-78.410 Z-1.500 F250.000
G1 X58.876 Y-77.944
G1 X58.410 Y-78.410
G1 X53.590 Y-78.410 Z-1.500 F250.000
G1 X53.124 Y-77.944
G1 X53.590 Y-78.410
G1 X53.590 Y-80.000 Z-1.500 F250.000
G2 X52.000 Y-81.590 Z-1.500 I-1.590 J-0.000 F250.000
G1 X44.000 Y-81.590 Z-1.500 F250.000
G1 Y-81.590
G1 Y-81.590
G2 X42.410 Y-80.000 Z-1.500 I-0.000 J1.590 F250.000
G1 X42.410 Y-78.410 Z-1.500 F250.000
G1 X42.876 Y-77.944
G1 X42.410 Y-78.410
G1 X37.590 Y-78.410 Z-1.500 F250.000
G1 X37.124 Y-77.944
G1 X37.590 Y-78.410
G1 X37.590 Y-80.000 Z-1.500 F250.000
G2 X36.000 Y-81.590 Z-1.500 I-1.590 J-0.000 F250.000
G1 X28.000 Y-81.590 Z-1.500 F250.000
G1 Y-81.590
G1 Y-81.590
G2 X26.410 Y-80.000 Z-1.500 I-0.000 J1.590 F250.000
G1 X26.410 Y-78.410 Z-1.500 F250.000
G1 X26.876 Y-77.944
G1 X26.410 Y-78.410
G1 X21.590 Y-78.410 Z-1.500 F250.000
G1 X21.124 Y-77.944
G1 X21.590 Y-78.410
G1 X21.590 Y-80.000 Z-1.500 F250.000
G2 X20.000 Y-81.590 Z-1.500 I-1.590 J-0.000 F250.000
G1 X12.000 Y-81.590 Z-1.500 F250.000
G1 Y-81.590
G1 Y-81.590
G2 X10.410 Y-80.000 Z-1.500 I-0.000 J1.590 F250.000
G1 X10.410 Y-78.410 Z-1.500 F250.000
G1 X10.876 Y-77.944
G1 X10.410 Y-78.410
G1 X0.000 Y-78.410 Z-1.500 F250.000
G1 Y-78.410
G1 Y-78.410
G2 X-1.590 Y-76.820 Z-1.500 I-0.000 J1.590 F250.000
G1 X-1.590 Y-68.000 Z-1.500 F250.000
G2 X0.000 Y-66.410 Z-1.500 I1.590 J0.000 F250.000
G1 X1.590 Y-66.410 Z-1.500 F250.000
G1 X2.056 Y-66.876
G1 X1.590 Y-66.410
G1 X1.590 Y-61.590 Z-1.500 F250.000
G1 X2.056 Y-61.124
G1 X1.590 Y-61.590
G1 X0.000 Y-61.590 Z-1.500 F250.000
G1 Y-61.590
G1 Y-61.590
G2 X-1.590 Y-60.000 Z-1.500 I-0.000 J1.590 F250.000
G1 X-1.590 Y-52.000 Z-1.500 F250.000
G2 X0.000 Y-50.410 Z-1.500 I1.590 J0.000 F250.000
G1 X1.590 Y-50.410 Z-1.500 F250.000
G1 X2.056 Y-50.876
G1 X1.590 Y-50.410
G1 X1.590 Y-45.590 Z-1.500 F250.000
G1 X2.056 Y-45.124
G1 X1.590 Y-45.590
G1 X0.000 Y-45.590 Z-1.500 F250.000
G1 Y-45.590
G1 Y-45.590
G2 X-1.590 Y-44.000 Z-1.500 I-0.000 J1.590 F250.000
G1 X-1.590 Y-36.000 Z-1.500 F250.000
G2 X0.000 Y-34.410 Z-1.500 I1.590 J0.000 F250.000
G1 X1.590 Y-34.410 Z-1.500 F250.000
G1 X2.056 Y-34.876
G1 X1.590 Y-34.410
G1 X1.590 Y-29.590 Z-1.500 F250.000
G1 X2.056 Y-29.124
G1 X1.590 Y-29.590
G1 X0.000 Y-29.590 Z-1.500 F250.000
G1 Y-29.590
G1 Y-29.590
G2 X-1.590 Y-28.000 Z-1.500 I-0.000 J1.590 F250.000
G1 X-1.590 Y-20.000 Z-1.500 F250.000
G2 X0.000 Y-18.410 Z-1.500 I1.590 J0.000 F250.000
G1 X1.590 Y-18.410 Z-1.500 F250.000
G1 X2.056 Y-18.876
G1 X1.590 Y-18.410
G1 X1.590 Y-13.590 Z-1.500 F250.000
G1 X2.056 Y-13.124
G1 X1.590 Y-13.590
G1 X0.000 Y-13.590 Z-1.500 F250.000
G1 Y-13.590
G1 Y-13.590
G2 X-1.590 Y-12.000 Z-1.500 I-0.000 J1.590 F250.000
G1 X-1.590 Y-3.180 Z-1.500 F250.000
G2 X0.000 Y-1.590 Z-1.500 I1.590 J0.000 F250.000
G1 X10.410 Y-1.590 Z-1.500 F250.000
G1 X10.876 Y-2.056
G1 X10.410 Y-1.590
G1 X10.410 Y0.000 Z-1.500 F250.000
G2 X12.000 Y1.590 Z-1.500 I1.590 J0.000 F250.000
G1 X20.000 Y1.590 Z-1.500 F250.000
G2 X21.590 Y-0.000 Z-1.500 I0.000 J-1.590 F250.000
G1 X21.590 Y-1.590 Z-1.500 F250.000
G1 X21.124 Y-2.056
G1 X21.590 Y-1.590
G1 X26.410 Y-1.590 Z-1.500 F250.000
G1 X26.876 Y-2.056
G1 X26.410 Y-1.590
G1 X26.410 Y-0.000 Z-1.500 F250.000
G2 X28.000 Y1.590 Z-1.500 I1.590 J0.000 F250.000
G1 X36.000 Y1.590 Z-1.500 F250.000
G2 X37.590 Y-0.000 Z-1.500 I0.000 J-1.590 F250.000
G1 X37.590 Y-1.590 Z-1.500 F250.000
G1 X37.124 Y-2.056
G1 X37.590 Y-1.590
G1 X42.410 Y-1.590 Z-1.500 F250.000
G1 X42.876 Y-2.056
G1 X42.410 Y-1.590
G1 X42.410 Y-0.000 Z-1.500 F250.000
G2 X44.000 Y1.590 Z-1.500 I1.590 J0.000 F250.000
G1 X52.000 Y1.590 Z-1.500 F250.000
G2 X53.590 Y-0.000 Z-1.500 I0.000 J-1.590 F250.000
G1 X53.590 Y-1.590 Z-1.500 F250.000
G1 X53.124 Y-2.056
G1 X53.590 Y-1.590
G1 X58.410 Y-1.590 Z-1.500 F250.000
G1 X58.876 Y-2.056
G1 X58.410 Y-1.590
G1 X58.410 Y-0.000 Z-1.500 F250.000
G2 X60.000 Y1.590 Z-1.500 I1.590 J0.000 F250.000
G1 X68.000 Y1.590 Z-1.500 F250.000
G2 X69.590 Y-0.000 Z-1.500 I0.000 J-1.590 F250.000
G1 X69.590 Y-1.590 Z-1.500 F250.000
G1 X69.124 Y-2.056
G1 X69.590 Y-1.590
G1 X80.000 Y-1.590 Z-1.500 F250.000
G2 X80.503 Y-1.672 Z-1.500 I0.000 J-1.590 F250.000
G1 X80.503 Y-1.672 Z-2.000 F100.000
G2 X81.590 Y-3.180 Z-2.000 I-0.503 J-1.508 F250.000
G1 X81.590 Y-12.000 Z-2.000 F250.000
G2 X80.000 Y-13.590 Z-2.000 I-1.590 J0.000 F250.000
G1 X78.410 Y-13.590 Z-2.000 F250.000
G1 X77.944 Y-13.124
G1 X78.410 Y-13.590
G1 X78.410 Y-18.410 Z-2.000 F250.000
G1 X77.944 Y-18.876
G1 X78.410 Y-18.410
G1 X80.000 Y-18.410 Z-2.000 F250.000
G2 X81.590 Y-20.000 Z-2.000 I0.000 J-1.590 F250.000
G1 X81.590 Y-28.000 Z-2.000 F250.000
G2 X80.000 Y-29.590 Z-2.000 I-1.590 J-0.000 F250.000
G1 X78.410 Y-29.590 Z-2.000 F250.000
G1 X77.944 Y-29.124
G1 X78.410 Y-29.590
G1 X78.410 Y-34.410 Z-2.000 F250.000
G1 X77.944 Y-34.876
G1 X78.410 Y-34.410
G1 X80.000 Y-34.410 Z-2.000 F250.000
G2 X81.590 Y-36.000 Z-2.000 I0.000 J-1.590 F250.000
G1 X81.590 Y-44.000 Z-2.000 F250.000
G2 X80.000 Y-45.590 Z-2.000 I-1.590 J-0.000 F250.000
G1 X78.410 Y-45.590 Z-2.000 F250.000
G1 X77.944 Y-45.124
G1 X78.410 Y-45.590
G1 X78.410 Y-50.410 Z-2.000 F250.000
G1 X77.944 Y-50.876
G1 X78.410 Y-50.410
G1 X80.000 Y-50.410 Z-2.000 F250.000
G2 X81.590 Y-52.000 Z-2.000 I0.000 J-1.590 F250.000
G1 X81.590 Y-60.000 Z-2.000 F250.000
G2 X80.000 Y-61.590 Z-2.000 I-1.590 J-0.000 F250.000
G1 X78.410 Y-61.590 Z-2.000 F250.000
G1 X77.944 Y-61.124
G1 X78.410 Y-61.590
G1 X78.410 Y-66.410 Z-2.000 F250.000
G1 X77.944 Y-66.876
G1 X78.410 Y-66.410
G1 X80.000 Y-66.410 Z-2.000 F250.000
G2 X81.590 Y-68.000 Z-2.000 I0.000 J-1.590 F250.000
G1 X81.590 Y-76.820 Z-2.000 F250.000
G2 X80.000 Y-78.410 Z-2.000 I-1.590 J-0.000 F250.000
G1 X69.590 Y-78.410 Z-2.000 F250.000
G1 X69.124 Y-77.944
G1 X69.590 Y-78.410
G1 X69.590 Y-80.000 Z-2.000 F250.000
G2 X68.000 Y-81.590 Z-2.000 I-1.590 J-0.000 F250.000
G1 X60.000 Y-81.590 Z-2.000 F250.000
G1 Y-81.590
G1 Y-81.590
G2 X58.410 Y-80.000 Z-2.000 I-0.000 J1.590 F250.000
G1 X58.410 Y-78.410 Z-2.000 F250.000
G1 X58.876 Y-77.944
G1 X58.410 Y-78.410
G1 X53.590 Y-78.410 Z-2.000 F250.000
G1 X53.124 Y-77.944
G1 X53.590 Y-78.410
G1 X53.590 Y-80.000 Z-2.000 F250.000
G2 X52.000 Y-81.590 Z-2.000 I-1.590 J-0.000 F250.000
G1 X44.000 Y-81.590 Z-2.000 F250.000
G1 Y-81.590
G1 Y-81.590
G2 X42.410 Y-80.000 Z-2.000 I-0.000 J1.590 F250.000
G1 X42.410 Y-78.410 Z-2.000 F250.000
G1 X42.876 Y-77.944
G1 X42.410 Y-78.410
G1 X37.590 Y-78.410 Z-2.000 F250.000
G1 X37.124 Y-77.944
G1 X37.590 Y-78.410
G1 X37.590 Y-80.000 Z-2.000 F250.000
G2 X36.000 Y-81.590 Z-2.000 I-1.590 J-0.000 F250.000
G1 X28.000 Y-81.590 Z-2.000 F250.000
G1 Y-81.590
G1 Y-81.590
G2 X26.410 Y-80.000 Z-2.000 I-0.000 J1.590 F250.000
G1 X26.410 Y-78.410 Z-2.000 F250.000
G1 X26.876 Y-77.944
G1 X26.410 Y-78.410
G1 X21.590 Y-78.410 Z-2.000 F250.000
G1 X21.124 Y-77.944
G1 X21.590 Y-78.410
G1 X21.590 Y-80.000 Z-2.000 F250.000
G2 X20.000 Y-81.590 Z-2.000 I-1.590 J-0.000 F250.000
G1 X12.000 Y-81.590 Z-2.000 F250.000
G1 Y-81.590
G1 Y-81.590
G2 X10.410 Y-80.000 Z-2.000 I-0.000 J1.590 F250.000
G1 X10.410 Y-78.410 Z-2.000 F250.000
G1 X10.876 Y-77.944
G1 X10.410 Y-78.410
G1 X0.000 Y-78.410 Z-2.000 F250.000
G1 Y-78.410
G1 Y-78.410
G2 X-1.590 Y-76.820 Z-2.000 I-0.000 J1.590 F250.000
G1 X-1.590 Y-68.000 Z-2.000 F250.000
G2 X0.000 Y-66.410 Z-2.000 I1.590 J0.000 F250.000
G1 X1.590 Y-66.410 Z-2.000 F250.000
G1 X2.056 Y-66.876
G1 X1.590 Y-66.410
G1 X1.590 Y-61.590 Z-2.000 F250.000
G1 X2.056 Y-61.124
G1 X1.590 Y-61.590
G1 X0.000 Y-61.590 Z-2.000 F250.000
G1 Y-61.590
G1 Y-61.590
G2 X-1.590 Y-60.000 Z-2.000 I-0.000 J1.590 F250.000
G1 X-1.590 Y-52.000 Z-2.000 F250.000
G2 X0.000 Y-50.410 Z-2.000 I1.590 J0.000 F250.000
G1 X1.590 Y-50.410 Z-2.000 F250.000
G1 X2.056 Y-50.876
G1 X1.590 Y-50.410
G1 X1.590 Y-45.590 Z-2.000 F250.000
G1 X2.056 Y-45.124
G1 X1.590 Y-45.590
G1 X0.000 Y-45.590 Z-2.000 F250.000
G1 Y-45.590
G1 Y-45.590
G2 X-1.590 Y-44.000 Z-2.000 I-0.000 J1.590 F250.000
G1 X-1.590 Y-36.000 Z-2.000 F250.000
G2 X0.000 Y-34.410 Z-2.000 I1.590 J0.000 F250.000
G1 X1.590 Y-34.410 Z-2.000 F250.000
G1 X2.056 Y-34.876
G1 X1.590 Y-34.410
G1 X1.590 Y-29.590 Z-2.000 F250.000
G1 X2.056 Y-29.124
G1 X1.590 Y-29.590
G1 X0.000 Y-29.590 Z-2.000 F250.000
G1 Y-29.590
G1 Y-29.590
G2 X-1.590 Y-28.000 Z-2.000 I-0.000 J1.590 F250.000
G1 X-1.590 Y-20.000 Z-2.000 F250.000
G2 X0.000 Y-18.410 Z-2.000 I1.590 J0.000 F250.000
G1 X1.590 Y-18.410 Z-2.000 F250.000
G1 X2.056 Y-18.876
G1 X1.590 Y-18.410
G1 X1.590 Y-13.590 Z-2.000 F250.000
G1 X2.056 Y-13.124
G1 X1.590 Y-13.590
G1 X0.000 Y-13.590 Z-2.000 F250.000
G1 Y-13.590
G1 Y-13.590
G2 X-1.590 Y-12.000 Z-2.000 I-0.000 J1.590 F250.000
G1 X-1.590 Y-3.180 Z-2.000 F250.000
G2 X0.000 Y-1.590 Z-2.000 I1.590 J0.000 F250.000
G1 X10.410 Y-1.590 Z-2.000 F250.000
G1 X10.876 Y-2.056
G1 X10.410 Y-1.590
G1 X10.410 Y0.000 Z-2.000 F250.000
G2 X12.000 Y1.590 Z-2.000 I1.590 J0.000 F250.000
G1 X20.000 Y1.590 Z-2.000 F250.000
G2 X21.590 Y-0.000 Z-2.000 I0.000 J-1.590 F250.000
G1 X21.590 Y-1.590 Z-2.000 F250.000
G1 X21.124 Y-2.056
G1 X21.590 Y-1.590
G1 X26.410 Y-1.590 Z-2.000 F250.000
G1 X26.876 Y-2.056
G1 X26.410 Y-1.590
G1 X26.410 Y-0.000 Z-2.000 F250.000
G2 X28.000 Y1.590 Z-2.000 I1.590 J0.000 F250.000
G1 X36.000 Y1.590 Z-2.000 F250.000
G2 X37.590 Y-0.000 Z-2.000 I0.000 J-1.590 F250.000
G1 X37.590 Y-1.590 Z-2.000 F250.000
G1 X37.124 Y-2.056
G1 X37.590 Y-1.590
G1 X42.410 Y-1.590 Z-2.000 F250.000
G1 X42.876 Y-2.056
G1 X42.410 Y-1.590
G1 X42.410 Y-0.000 Z-2.000 F250.000
G2 X44.000 Y1.590 Z-2.000 I1.590 J0.000 F250.000
G1 X52.000 Y1.590 Z-2.000 F250.000
G2 X53.590 Y-0.000 Z-2.000 I0.000 J-1.590 F250.000
G1 X53.590 Y-1.590 Z-2.000 F250.000
G1 X53.124 Y-2.056
G1 X53.590 Y-1.590
G1 X58.410 Y-1.590 Z-2.000 F250.000
G1 X58.876 Y-2.056
G1 X58.410 Y-1.590
G1 X58.410 Y-0.000 Z-2.000 F250.000
G2 X60.000 Y1.590 Z-2.000 I1.590 J0.000 F250.000
G1 X68.000 Y1.590 Z-2.000 F250.000
G2 X69.590 Y-0.000 Z-2.000 I0.000 J-1.590 F250.000
G1 X69.590 Y-1.590 Z-2.000 F250.000
G1 X69.124 Y-2.056
G1 X69.590 Y-1.590
G1 X80.000 Y-1.590 Z-2.000 F250.000
G2 X80.503 Y-1.672 Z-2.000 I0.000 J-1.590 F250.000
G1 X80.503 Y-1.672 Z-2.500 F100.000
G2 X81.590 Y-3.180 Z-2.500 I-0.503 J-1.508 F250.000
G1 X81.590 Y-12.000 Z-2.500 F250.000
G2 X80.000 Y-13.590 Z-2.500 I-1.590 J0.000 F250.000
G1 X78.410 Y-13.590 Z-2.500 F250.000
G1 X77.944 Y-13.124
G1 X78.410 Y-13.590
G1 X78.410 Y-18.410 Z-2.500 F250.000
G1 X77.944 Y-18.876
G1 X78.410 Y-18.410
G1 X80.000 Y-18.410 Z-2.500 F250.000
G2 X81.590 Y-20.000 Z-2.500 I0.000 J-1.590 F250.000
G1 X81.590 Y-28.000 Z-2.500 F250.000
G2 X80.000 Y-29.590 Z-2.500 I-1.590 J-0.000 F250.000
G1 X78.410 Y-29.590 Z-2.500 F250.000
G1 X77.944 Y-29.124
G1 X78.410 Y-29.590
G1 X78.410 Y-34.410 Z-2.500 F250.000
G1 X77.944 Y-34.876
G1 X78.410 Y-34.410
G1 X80.000 Y-34.410 Z-2.500 F250.000
G2 X81.590 Y-36.000 Z-2.500 I0.000 J-1.590 F250.000
G1 X81.590 Y-44.000 Z-2.500 F250.000
G2 X80.000 Y-45.590 Z-2.500 I-1.590 J-0.000 F250.000
G1 X78.410 Y-45.590 Z-2.500 F250.000
G1 X77.944 Y-45.124
G1 X78.410 Y-45.590
G1 X78.410 Y-50.410 Z-2.500 F250.000
G1 X77.944 Y-50.876
G1 X78.410 Y-50.410
G1 X80.000 Y-50.410 Z-2.500 F250.000
G2 X81.590 Y-52.000 Z-2.500 I0.000 J-1.590 F250.000
G1 X81.590 Y-60.000 Z-2.500 F250.000
G2 X80.000 Y-61.590 Z-2.500 I-1.590 J-0.000 F250.000
G1 X78.410 Y-61.590 Z-2.500 F250.000
G1 X77.944 Y-61.124
G1 X78.410 Y-61.590
G1 X78.410 Y-66.410 Z-2.500 F250.000
G1 X77.944 Y-66.876
G1 X78.410 Y-66.410
G1 X80.000 Y-66.410 Z-2.500 F250.000
G2 X81.590 Y-68.000 Z-2.500 I0.000 J-1.590 F250.000
G1 X81.590 Y-76.820 Z-2.500 F250.000
G2 X80.000 Y-78.410 Z-2.500 I-1.590 J-0.000 F250.000
G1 X69.590 Y-78.410 Z-2.500 F250.000
G1 X69.124 Y-77.944
G1 X69.590 Y-78.410
G1 X69.590 Y-80.000 Z-2.500 F250.000
G2 X68.000 Y-81.590 Z-2.500 I-1.590 J-0.000 F250.000
G1 X60.000 Y-81.590 Z-2.500 F250.000
G1 Y-81.590
G1 Y-81.590
G2 X58.410 Y-80.000 Z-2.500 I-0.000 J1.590 F250.000
G1 X58.410 Y-78.410 Z-2.500 F250.000
G1 X58.876 Y-77.944
G1 X58.410 Y-78.410
G1 X53.590 Y-78.410 Z-2.500 F250.000
G1 X53.124 Y-77.944
G1 X53.590 Y-78.410
G1 X53.590 Y-80.000 Z-2.500 F250.000
G2 X52.000 Y-81.590 Z-2.500 I-1.590 J-0.000 F250.000
G1 X44.000 Y-81.590 Z-2.500 F250.000
G1 Y-81.590
G1 Y-81.590
G2 X42.410 Y-80.000 Z-2.500 I-0.000 J1.590 F250.000
G1 X42.410 Y-78.410 Z-2.500 F250.000
G1 X42.876 Y-77.944
G1 X42.410 Y-78.410
G1 X37.590 Y-78.410 Z-2.500 F250.000
G1 X37.124 Y-77.944
G1 X37.590 Y-78.410
G1 X37.590 Y-80.000 Z-2.500 F250.000
G2 X36.000 Y-81.590 Z-2.500 I-1.590 J-0.000 F250.000
G1 X28.000 Y-81.590 Z-2.500 F250.000
G1 Y-81.590
G1 Y-81.590
G2 X26.410 Y-80.000 Z-2.500 I-0.000 J1.590 F250.000
G1 X26.410 Y-78.410 Z-2.500 F250.000
G1 X26.876 Y-77.944
G1 X26.410 Y-78.410
G1 X21.590 Y-78.410 Z-2.500 F250.000
G1 X21.124 Y-77.944
G1 X21.590 Y-78.410
G1 X21.590 Y-80.000 Z-2.500 F250.000
G2 X20.000 Y-81.590 Z-2.500 I-1.590 J-0.000 F250.000
G1 X12.000 Y-81.590 Z-2.500 F250.000
G1 Y-81.590
G1 Y-81.590
G2 X10.410 Y-80.000 Z-2.500 I-0.000 J1.590 F250.000
G1 X10.410 Y-78.410 Z-2.500 F250.000
G1 X10.876 Y-77.944
G1 X10.410 Y-78.410
G1 X0.000 Y-78.410 Z-2.500 F250.000
G1 Y-78.410
G1 Y-78.410
G2 X-1.590 Y-76.820 Z-2.500 I-0.000 J1.590 F250.000
G1 X-1.590 Y-68.000 Z-2.500 F250.000
G2 X0.000 Y-66.410 Z-2.500 I1.590 J0.000 F250.000
G1 X1.590 Y-66.410 Z-2.500 F250.000
G1 X2.056 Y-66.876
G1 X1.590 Y-66.410
G1 X1.590 Y-61.590 Z-2.500 F250.000
G1 X2.056 Y-61.124
G1 X1.590 Y-61.590
G1 X0.000 Y-61.590 Z-2.500 F250.000
G1 Y-61.590
G1 Y-61.590
G2 X-1.590 Y-60.000 Z-2.500 I-0.000 J1.590 F250.000
G1 X-1.590 Y-52.000 Z-2.500 F250.000
G2 X0.000 Y-50.410 Z-2.500 I1.590 J0.000 F250.000
G1 X1.590 Y-50.410 Z-2.500 F250.000
G1 X2.056 Y-50.876
G1 X1.590 Y-50.410
G1 X1.590 Y-45.590 Z-2.500 F250.000
G1 X2.056 Y-45.124
G1 X1.590 Y-45.590
G1 X0.000 Y-45.590 Z-2.500 F250.000
G1 Y-45.590
G1 Y-45.590
G2 X-1.590 Y-44.000 Z-2.500 I-0.000 J1.590 F250.000
G1 X-1.590 Y-36.000 Z-2.500 F250.000
G2 X0.000 Y-34.410 Z-2.500 I1.590 J0.000 F250.000
G1 X1.590 Y-34.410 Z-2.500 F250.000
G1 X2.056 Y-34.876
G1 X1.590 Y-34.410
G1 X1.590 Y-29.590 Z-2.500 F250.000
G1 X2.056 Y-29.124
G1 X1.590 Y-29.590
G1 X0.000 Y-29.590 Z-2.500 F250.000
G1 Y-29.590
G1 Y-29.590
G2 X-1.590 Y-28.000 Z-2.500 I-0.000 J1.590 F250.000
G1 X-1.590 Y-20.000 Z-2.500 F250.000
G2 X0.000 Y-18.410 Z-2.500 I1.590 J0.000 F250.000
G1 X1.590 Y-18.410 Z-2.500 F250.000
G1 X2.056 Y-18.876
G1 X1.590 Y-18.410
G1 X1.590 Y-13.590 Z-2.500 F250.000
G1 X2.056 Y-13.124
G1 X1.590 Y-13.590
G1 X0.000 Y-13.590 Z-2.500 F250.000
G1 Y-13.590
G1 Y-13.590
G2 X-1.590 Y-12.000 Z-2.500 I-0.000 J1.590 F250.000
G1 X-1.590 Y-3.180 Z-2.500 F250.000
G2 X0.000 Y-1.590 Z-2.500 I1.590 J0.000 F250.000
G1 X10.410 Y-1.590 Z-2.500 F250.000
G1 X10.876 Y-2.056
G1 X10.410 Y-1.590
G1 X10.410 Y0.000 Z-2.500 F250.000
G2 X12.000 Y1.590 Z-2.500 I1.590 J0.000 F250.000
G1 X20.000 Y1.590 Z-2.500 F250.000
G2 X21.590 Y-0.000 Z-2.500 I0.000 J-1.590 F250.000
G1 X21.590 Y-1.590 Z-2.500 F250.000
G1 X21.124 Y-2.056
G1 X21.590 Y-1.590
G1 X26.410 Y-1.590 Z-2.500 F250.000
G1 X26.876 Y-2.056
G1 X26.410 Y-1.590
G1 X26.410 Y-0.000 Z-2.500 F250.000
G2 X28.000 Y1.590 Z-2.500 I1.590 J0.000 F250.000
G1 X36.000 Y1.590 Z-2.500 F250.000
G2 X37.590 Y-0.000 Z-2.500 I0.000 J-1.590 F250.000
G1 X37.590 Y-1.590 Z-2.500 F250.000
G1 X37.124 Y-2.056
G1 X37.590 Y-1.590
G1 X42.410 Y-1.590 Z-2.500 F250.000
G1 X42.876 Y-2.056
G1 X42.410 Y-1.590
G1 X42.410 Y-0.000 Z-2.500 F250.000
G2 X44.000 Y1.590 Z-2.500 I1.590 J0.000 F250.000
G1 X52.000 Y1.590 Z-2.500 F250.000
G2 X53.590 Y-0.000 Z-2.500 I0.000 J-1.590 F250.000
G1 X53.590 Y-1.590 Z-2.500 F250.000
G1 X53.124 Y-2.056
G1 X53.590 Y-1.590
G1 X58.410 Y-1.590 Z-2.500 F250.000
G1 X58.876 Y-2.056
G1 X58.410 Y-1.590
G1 X58.410 Y-0.000 Z-2.500 F250.000
G2 X60.000 Y1.590 Z-2.500 I1.590 J0.000 F250.000
G1 X68.000 Y1.590 Z-2.500 F250.000
G2 X69.590 Y-0.000 Z-2.500 I0.000 J-1.590 F250.000
G1 X69.590 Y-1.590 Z-2.500 F250.000
G1 X69.124 Y-2.056
G1 X69.590 Y-1.590
G1 X80.000 Y-1.590 Z-2.500 F250.000
G2 X80.503 Y-1.672 Z-2.500 I0.000 J-1.590 F250.000
G1 X80.503 Y-1.672 Z-3.000 F100.000
G2 X81.590 Y-3.180 Z-3.000 I-0.503 J-1.508 F250.000
G1 X81.590 Y-12.000 Z-3.000 F250.000
G2 X80.000 Y-13.590 Z-3.000 I-1.590 J0.000 F250.000
G1 X78.410 Y-13.590 Z-3.000 F250.000
G1 X77.944 Y-13.124
G1 X78.410 Y-13.590
G1 X78.410 Y-18.410 Z-3.000 F250.000
G1 X77.944 Y-18.876
G1 X78.410 Y-18.410
G1 X80.000 Y-18.410 Z-3.000 F250.000
G2 X81.590 Y-20.000 Z-3.000 I0.000 J-1.590 F250.000
G1 X81.590 Y-28.000 Z-3.000 F250.000
G2 X80.000 Y-29.590 Z-3.000 I-1.590 J-0.000 F250.000
G1 X78.410 Y-29.590 Z-3.000 F250.000
G1 X77.944 Y-29.124
G1 X78.410 Y-29.590
G1 X78.410 Y-34.410 Z-3.000 F250.000
G1 X77.944 Y-34.876
G1 X78.410 Y-34.410
G1 X80.000 Y-34.410 Z-3.000 F250.000
G2 X81.590 Y-36.000 Z-3.000 I0.000 J-1.590 F250.000
G1 X81.590 Y-44.000 Z-3.000 F250.000
G2 X80.000 Y-45.590 Z-3.000 I-1.590 J-0.000 F250.000
G1 X78.410 Y-45.590 Z-3.000 F250.000
G1 X77.944 Y-45.124
G1 X78.410 Y-45.590
G1 X78.410 Y-50.410 Z-3.000 F250.000
G1 X77.944 Y-50.876
G1 X78.410 Y-50.410
G1 X80.000 Y-50.410 Z-3.000 F250.000
G2 X81.590 Y-52.000 Z-3.000 I0.000 J-1.590 F250.000
G1 X81.590 Y-60.000 Z-3.000 F250.000
G2 X80.000 Y-61.590 Z-3.000 I-1.590 J-0.000 F250.000
G1 X78.410 Y-61.590 Z-3.000 F250.000
G1 X77.944 Y-61.124
G1 X78.410 Y-61.590
G1 X78.410 Y-66.410 Z-3.000 F250.000
G1 X77.944 Y-66.876
G1 X78.410 Y-66.410
G1 X80.000 Y-66.410 Z-3.000 F250.000
G2 X81.590 Y-68.000 Z-3.000 I0.000 J-1.590 F250.000
G1 X81.590 Y-76.820 Z-3.000 F250.000
G2 X80.000 Y-78.410 Z-3.000 I-1.590 J-0.000 F250.000
G1 X69.590 Y-78.410 Z-3.000 F250.000
G1 X69.124 Y-77.944
G1 X69.590 Y-78.410
G1 X69.590 Y-80.000 Z-3.000 F250.000
G2 X68.000 Y-81.590 Z-3.000 I-1.590 J-0.000 F250.000
G1 X60.000 Y-81.590 Z-3.000 F250.000
G1 Y-81.590
G1 Y-81.590
G2 X58.410 Y-80.000 Z-3.000 I-0.000 J1.590 F250.000
G1 X58.410 Y-78.410 Z-3.000 F250.000
G1 X58.876 Y-77.944
G1 X58.410 Y-78.410
G1 X53.590 Y-78.410 Z-3.000 F250.000
G1 X53.124 Y-77.944
G1 X53.590 Y-78.410
G1 X53.590 Y-80.000 Z-3.000 F250.000
G2 X52.000 Y-81.590 Z-3.000 I-1.590 J-0.000 F250.000
G1 X44.000 Y-81.590 Z-3.000 F250.000
G1 Y-81.590
G1 Y-81.590
G2 X42.410 Y-80.000 Z-3.000 I-0.000 J1.590 F250.000
G1 X42.410 Y-78.410 Z-3.000 F250.000
G1 X42.876 Y-77.944
G1 X42.410 Y-78.410
G1 X37.590 Y-78.410 Z-3.000 F250.000
G1 X37.124 Y-77.944
G1 X37.590 Y-78.410
G1 X37.590 Y-80.000 Z-3.000 F250.000
G2 X36.000 Y-81.590 Z-3.000 I-1.590 J-0.000 F250.000
G1 X28.000 Y-81.590 Z-3.000 F250.000
G1 Y-81.590
G1 Y-81.590
G2 X26.410 Y-80.000 Z-3.000 I-0.000 J1.590 F250.000
G1 X26.410 Y-78.410 Z-3.000 F250.000
G1 X26.876 Y-77.944
G1 X26.410 Y-78.410
G1 X21.590 Y-78.410 Z-3.000 F250.000
G1 X21.124 Y-77.944
G1 X21.590 Y-78.410
G1 X21.590 Y-80.000 Z-3.000 F250.000
G2 X20.000 Y-81.590 Z-3.000 I-1.590 J-0.000 F250.000
G1 X12.000 Y-81.590 Z-3.000 F250.000
G1 Y-81.590
G1 Y-81.590
G2 X10.410 Y-80.000 Z-3.000 I-0.000 J1.590 F250.000
G1 X10.410 Y-78.410 Z-3.000 F250.000
G1 X10.876 Y-77.944
G1 X10.410 Y-78.410
G1 X0.000 Y-78.410 Z-3.000 F250.000
G1 Y-78.410
G1 Y-78.410
G2 X-1.590 Y-76.820 Z-3.000 I-0.000 J1.590 F250.000
G1 X-1.590 Y-68.000 Z-3.000 F250.000
G2 X0.000 Y-66.410 Z-3.000 I1.590 J0.000 F250.000
G1 X1.590 Y-66.410 Z-3.000 F250.000
G1 X2.056 Y-66.876
G1 X1.590 Y-66.410
G1 X1.590 Y-61.590 Z-3.000 F250.000
G1 X2.056 Y-61.124
G1 X1.590 Y-61.590
G1 X0.000 Y-61.590 Z-3.000 F250.000
G1 Y-61.590
G1 Y-61.590
G2 X-1.590 Y-60.000 Z-3.000 I-0.000 J1.590 F250.000
G1 X-1.590 Y-52.000 Z-3.000 F250.000
G2 X0.000 Y-50.410 Z-3.000 I1.590 J0.000 F250.000
G1 X1.590 Y-50.410 Z-3.000 F250.000
G1 X2.056 Y-50.876
G1 X1.590 Y-50.410
G1 X1.590 Y-45.590 Z-3.000 F250.000
G1 X2.056 Y-45.124
G1 X1.590 Y-45.590
G1 X0.000 Y-45.590 Z-3.000 F250.000
G1 Y-45.590
G1 Y-45.590
G2 X-1.590 Y-44.000 Z-3.000 I-0.000 J1.590 F250.000
G1 X-1.590 Y-36.000 Z-3.000 F250.000
G2 X0.000 Y-34.410 Z-3.000 I1.590 J0.000 F250.000
G1 X1.590 Y-34.410 Z-3.000 F250.000
G1 X2.056 Y-34.876
G1 X1.590 Y-34.410
G1 X1.590 Y-29.590 Z-3.000 F250.000
G1 X2.056 Y-29.124
G1 X1.590 Y-29.590
G1 X0.000 Y-29.590 Z-3.000 F250.000
G1 Y-29.590
G1 Y-29.590
G2 X-1.590 Y-28.000 Z-3.000 I-0.000 J1.590 F250.000
G1 X-1.590 Y-20.000 Z-3.000 F250.000
G2 X0.000 Y-18.410 Z-3.000 I1.590 J0.000 F250.000
G1 X1.590 Y-18.410 Z-3.000 F250.000
G1 X2.056 Y-18.876
G1 X1.590 Y-18.410
G1 X1.590 Y-13.590 Z-3.000 F250.000
G1 X2.056 Y-13.124
G1 X1.590 Y-13.590
G1 X0.000 Y-13.590 Z-3.000 F250.000
G1 Y-13.590
G1 Y-13.590
G2 X-1.590 Y-12.000 Z-3.000 I-0.000 J1.590 F250.000
G1 X-1.590 Y-3.180 Z-3.000 F250.000
G2 X0.000 Y-1.590 Z-3.000 I1.590 J0.000 F250.000
G1 X10.410 Y-1.590 Z-3.000 F250.000
G1 X10.876 Y-2.056
G1 X10.410 Y-1.590
G1 X10.410 Y0.000 Z-3.000 F250.000
G2 X12.000 Y1.590 Z-3.000 I1.590 J0.000 F250.000
G1 X20.000 Y1.590 Z-3.000 F250.000
G2 X21.590 Y-0.000 Z-3.000 I0.000 J-1.590 F250.000
G1 X21.590 Y-1.590 Z-3.000 F250.000
G1 X21.124 Y-2.056
G1 X21.590 Y-1.590
G1 X26.410 Y-1.590 Z-3.000 F250.000
G1 X26.876 Y-2.056
G1 X26.410 Y-1.590
G1 X26.410 Y-0.000 Z-3.000 F250.000
G2 X28.000 Y1.590 Z-3.000 I1.590 J0.000 F250.000
G1 X36.000 Y1.590 Z-3.000 F250.000
G2 X37.590 Y-0.000 Z-3.000 I0.000 J-1.590 F250.000
G1 X37.590 Y-1.590 Z-3.000 F250.000
G1 X37.124 Y-2.056
G1 X37.590 Y-1.590
G1 X42.410 Y-1.590 Z-3.000 F250.000
G1 X42.876 Y-2.056
G1 X42.410 Y-1.590
G1 X42.410 Y-0.000 Z-3.000 F250.000
G2 X44.000 Y1.590 Z-3.000 I1.590 J0.000 F250.000
G1 X52.000 Y1.590 Z-3.000 F250.000
G2 X53.590 Y-0.000 Z-3.000 I0.000 J-1.590 F250.000
G1 X53.590 Y-1.590 Z-3.000 F250.000
G1 X53.124 Y-2.056
G1 X53.590 Y-1.590
G1 X58.410 Y-1.590 Z-3.000 F250.000
G1 X58.876 Y-2.056
G1 X58.410 Y-1.590
G1 X58.410 Y-0.000 Z-3.000 F250.000
G2 X60.000 Y1.590 Z-3.000 I1.590 J0.000 F250.000
G1 X68.000 Y1.590 Z-3.000 F250.000
G2 X69.590 Y-0.000 Z-3.000 I0.000 J-1.590 F250.000
G1 X69.590 Y-1.590 Z-3.000 F250.000
G1 X69.124 Y-2.056
G1 X69.590 Y-1.590
G1 X80.000 Y-1.590 Z-3.000 F250.000
G2 X80.503 Y-1.672 Z-3.000 I0.000 J-1.590 F250.000
G1 X80.503 Y-1.672 Z-3.480 F100.000
G2 X81.590 Y-3.180 Z-3.480 I-0.503 J-1.508 F250.000
G1 X81.590 Y-12.000 Z-3.480 F250.000
G2 X80.000 Y-13.590 Z-3.480 I-1.590 J0.000 F250.000
G1 X78.410 Y-13.590 Z-3.480 F250.000
G1 X77.944 Y-13.124
G1 X78.410 Y-13.590
G1 X78.410 Y-18.410 Z-3.480 F250.000
G1 X77.944 Y-18.876
G1 X78.410 Y-18.410
G1 X80.000 Y-18.410 Z-3.480 F250.000
G2 X81.590 Y-20.000 Z-3.480 I0.000 J-1.590 F250.000
G1 X81.590 Y-28.000 Z-3.480 F250.000
G2 X80.000 Y-29.590 Z-3.480 I-1.590 J-0.000 F250.000
G1 X78.410 Y-29.590 Z-3.480 F250.000
G1 X77.944 Y-29.124
G1 X78.410 Y-29.590
G1 X78.410 Y-34.410 Z-3.480 F250.000
G1 X77.944 Y-34.876
G1 X78.410 Y-34.410
G1 X80.000 Y-34.410 Z-3.480 F250.000
G2 X81.590 Y-36.000 Z-3.480 I0.000 J-1.590 F250.000
G1 X81.590 Y-44.000 Z-3.480 F250.000
G2 X80.000 Y-45.590 Z-3.480 I-1.590 J-0.000 F250.000
G1 X78.410 Y-45.590 Z-3.480 F250.000
G1 X77.944 Y-45.124
G1 X78.410 Y-45.590
G1 X78.410 Y-50.410 Z-3.480 F250.000
G1 X77.944 Y-50.876
G1 X78.410 Y-50.410
G1 X80.000 Y-50.410 Z-3.480 F250.000
G2 X81.590 Y-52.000 Z-3.480 I0.000 J-1.590 F250.000
G1 X81.590 Y-60.000 Z-3.480 F250.000
G2 X80.000 Y-61.590 Z-3.480 I-1.590 J-0.000 F250.000
G1 X78.410 Y-61.590 Z-3.480 F250.000
G1 X77.944 Y-61.124
G1 X78.410 Y-61.590
G1 X78.410 Y-66.410 Z-3.480 F250.000
G1 X77.944 Y-66.876
G1 X78.410 Y-66.410
G1 X80.000 Y-66.410 Z-3.480 F250.000
G2 X81.590 Y-68.000 Z-3.480 I0.000 J-1.590 F250.000
G1 X81.590 Y-76.820 Z-3.480 F250.000
G2 X80.000 Y-78.410 Z-3.480 I-1.590 J-0.000 F250.000
G1 X69.590 Y-78.410 Z-3.480 F250.000
G1 X69.124 Y-77.944
G1 X69.590 Y-78.410
G1 X69.590 Y-80.000 Z-3.480 F250.000
G2 X68.000 Y-81.590 Z-3.480 I-1.590 J-0.000 F250.000
G1 X60.000 Y-81.590 Z-3.480 F250.000
G1 Y-81.590
G1 Y-81.590
G2 X58.410 Y-80.000 Z-3.480 I-0.000 J1.590 F250.000
G1 X58.410 Y-78.410 Z-3.480 F250.000
G1 X58.876 Y-77.944
G1 X58.410 Y-78.410
G1 X53.590 Y-78.410 Z-3.480 F250.000
G1 X53.124 Y-77.944
G1 X53.590 Y-78.410
G1 X53.590 Y-80.000 Z-3.480 F250.000
G2 X52.000 Y-81.590 Z-3.480 I-1.590 J-0.000 F250.000
G1 X44.000 Y-81.590 Z-3.480 F250.000
G1 Y-81.590
G1 Y-81.590
G2 X42.410 Y-80.000 Z-3.480 I-0.000 J1.590 F250.000
G1 X42.410 Y-78.410 Z-3.480 F250.000
G1 X42.876 Y-77.944
G1 X42.410 Y-78.410
G1 X37.590 Y-78.410 Z-3.480 F250.000
G1 X37.124 Y-77.944
G1 X37.590 Y-78.410
G1 X37.590 Y-80.000 Z-3.480 F250.000
G2 X36.000 Y-81.590 Z-3.480 I-1.590 J-0.000 F250.000
G1 X28.000 Y-81.590 Z-3.480 F250.000
G1 Y-81.590
G1 Y-81.590
G2 X26.410 Y-80.000 Z-3.480 I-0.000 J1.590 F250.000
G1 X26.410 Y-78.410 Z-3.480 F250.000
G1 X26.876 Y-77.944
G1 X26.410 Y-78.410
G1 X21.590 Y-78.410 Z-3.480 F250.000
G1 X21.124 Y-77.944
G1 X21.590 Y-78.410
G1 X21.590 Y-80.000 Z-3.480 F250.000
G2 X20.000 Y-81.590 Z-3.480 I-1.590 J-0.000 F250.000
G1 X12.000 Y-81.590 Z-3.480 F250.000
G1 Y-81.590
G1 Y-81.590
G2 X10.410 Y-80.000 Z-3.480 I-0.000 J1.590 F250.000
G1 X10.410 Y-78.410 Z-3.480 F250.000
G1 X10.876 Y-77.944
G1 X10.410 Y-78.410
G1 X0.000 Y-78.410 Z-3.480 F250.000
G1 Y-78.410
G1 Y-78.410
G2 X-1.590 Y-76.820 Z-3.480 I-0.000 J1.590 F250.000
G1 X-1.590 Y-68.000 Z-3.480 F250.000
G2 X0.000 Y-66.410 Z-3.480 I1.590 J0.000 F250.000
G1 X1.590 Y-66.410 Z-3.480 F250.000
G1 X2.056 Y-66.876
G1 X1.590 Y-66.410
G1 X1.590 Y-61.590 Z-3.480 F250.000
G1 X2.056 Y-61.124
G1 X1.590 Y-61.590
G1 X0.000 Y-61.590 Z-3.480 F250.000
G1 Y-61.590
G1 Y-61.590
G2 X-1.590 Y-60.000 Z-3.480 I-0.000 J1.590 F250.000
G1 X-1.590 Y-52.000 Z-3.480 F250.000
G2 X0.000 Y-50.410 Z-3.480 I1.590 J0.000 F250.000
G1 X1.590 Y-50.410 Z-3.480 F250.000
G1 X2.056 Y-50.876
G1 X1.590 Y-50.410
G1 X1.590 Y-45.590 Z-3.480 F250.000
G1 X2.056 Y-45.124
G1 X1.590 Y-45.590
G1 X0.000 Y-45.590 Z-3.480 F250.000
G1 Y-45.590
G1 Y-45.590
G2 X-1.590 Y-44.000 Z-3.480 I-0.000 J1.590 F250.000
G1 X-1.590 Y-36.000 Z-3.480 F250.000
G2 X0.000 Y-34.410 Z-3.480 I1.590 J0.000 F250.000
G1 X1.590 Y-34.410 Z-3.480 F250.000
G1 X2.056 Y-34.876
G1 X1.590 Y-34.410
G1 X1.590 Y-29.590 Z-3.480 F250.000
G1 X2.056 Y-29.124
G1 X1.590 Y-29.590
G1 X0.000 Y-29.590 Z-3.480 F250.000
G1 Y-29.590
G1 Y-29.590
G2 X-1.590 Y-28.000 Z-3.480 I-0.000 J1.590 F250.000
G1 X-1.590 Y-20.000 Z-3.480 F250.000
G2 X0.000 Y-18.410 Z-3.480 I1.590 J0.000 F250.000
G1 X1.590 Y-18.410 Z-3.480 F250.000
G1 X2.056 Y-18.876
G1 X1.590 Y-18.410
G1 X1.590 Y-13.590 Z-3.480 F250.000
G1 X2.056 Y-13.124
G1 X1.590 Y-13.590
G1 X0.000 Y-13.590 Z-3.480 F250.000
G1 Y-13.590
G1 Y-13.590
G2 X-1.590 Y-12.000 Z-3.480 I-0.000 J1.590 F250.000
G1 X-1.590 Y-3.180 Z-3.480 F250.000
G2 X0.000 Y-1.590 Z-3.480 I1.590 J0.000 F250.000
G1 X10.410 Y-1.590 Z-3.480 F250.000
G1 X10.876 Y-2.056
G1 X10.410 Y-1.590
G1 X10.410 Y0.000 Z-3.480 F250.000
G2 X12.000 Y1.590 Z-3.480 I1.590 J0.000 F250.000
G1 X20.000 Y1.590 Z-3.480 F250.000
G2 X21.590 Y-0.000 Z-3.480 I0.000 J-1.590 F250.000
G1 X21.590 Y-1.590 Z-3.480 F250.000
G1 X21.124 Y-2.056
G1 X21.590 Y-1.590
G1 X26.410 Y-1.590 Z-3.480 F250.000
G1 X26.876 Y-2.056
G1 X26.410 Y-1.590
G1 X26.410 Y-0.000 Z-3.480 F250.000
G2 X28.000 Y1.590 Z-3.480 I1.590 J0.000 F250.000
G1 X36.000 Y1.590 Z-3.480 F250.000
G2 X37.590 Y-0.000 Z-3.480 I0.000 J-1.590 F250.000
G1 X37.590 Y-1.590 Z-3.480 F250.000
G1 X37.124 Y-2.056
G1 X37.590 Y-1.590
G1 X42.410 Y-1.590 Z-3.480 F250.000
G1 X42.876 Y-2.056
G1 X42.410 Y-1.590
G1 X42.410 Y-0.000 Z-3.480 F250.000
G2 X44.000 Y1.590 Z-3.480 I1.590 J0.000 F250.000
G1 X52.000 Y1.590 Z-3.480 F250.000
G2 X53.590 Y-0.000 Z-3.480 I0.000 J-1.590 F250.000
G1 X53.590 Y-1.590 Z-3.480 F250.000
G1 X53.124 Y-2.056
G1 X53.590 Y-1.590
G1 X58.410 Y-1.590 Z-3.480 F250.000
G1 X58.876 Y-2.056
G1 X58.410 Y-1.590
G1 X58.410 Y-0.000 Z-3.480 F250.000
G2 X60.000 Y1.590 Z-3.480 I1.590 J0.000 F250.000
G1 X68.000 Y1.590 Z-3.480 F250.000
G2 X69.590 Y-0.000 Z-3.480 I0.000 J-1.590 F250.000
G1 X69.590 Y-1.590 Z-3.480 F250.000
G1 X69.124 Y-2.056
G1 X69.590 Y-1.590
G1 X80.000 Y-1.590 Z-3.480 F250.000
G2 X80.503 Y-1.672 Z-3.480 I0.000 J-1.590 F250.000
G0 Z5.000
G0 Z5.000
(finish operation: DressupDogbone003)
(begin postamble)
M05 M09
G17 G90 G80 G40
M30
