(Exported by FreeCAD)
(Post Processor: KineticNCBeamicon2_post)
(Output Time:2023-12-28 19:35:17.193478)
(begin preamble)
%
G17 G21 G40 G49 G80 G90
M08
G21
(begin operation: Fixture)
(machine: not set, mm/min)
G54
(finish operation: Fixture)
(begin operation: 3.18mm Endmill005)
(machine: not set, mm/min)
(3.18mm Endmill005)
M05
M09M6 T2
M3 S10000
(finish operation: 3.18mm Endmill005)
(begin operation: DressupDogbone002)
(machine: not set, mm/min)
(Profile003)
(Compensated Tool Path. Diameter: 3.18)
G0 Z5.000
G0 X-2.056 Y77.944
G0 Z3.000
G1 X-2.056 Y77.944 Z-0.500 F100.000
G2 X-1.590 Y76.820 Z-0.500 I-1.124 J-1.124 F250.000
G1 X-1.590 Y69.590 Z-0.500 F250.000
G1 X-2.056 Y69.124
G1 X-1.590 Y69.590
G1 X0.000 Y69.590 Z-0.500 F250.000
G2 X1.590 Y68.000 Z-0.500 I0.000 J-1.590 F250.000
G1 X1.590 Y60.000 Z-0.500 F250.000
G2 X0.000 Y58.410 Z-0.500 I-1.590 J0.000 F250.000
G1 X-1.590 Y58.410 Z-0.500 F250.000
G1 X-2.056 Y58.876
G1 X-1.590 Y58.410
G1 X-1.590 Y53.590 Z-0.500 F250.000
G1 X-2.056 Y53.124
G1 X-1.590 Y53.590
G1 X0.000 Y53.590 Z-0.500 F250.000
G2 X1.590 Y52.000 Z-0.500 I0.000 J-1.590 F250.000
G1 X1.590 Y44.000 Z-0.500 F250.000
G2 X0.000 Y42.410 Z-0.500 I-1.590 J0.000 F250.000
G1 X-1.590 Y42.410 Z-0.500 F250.000
G1 X-2.056 Y42.876
G1 X-1.590 Y42.410
G1 X-1.590 Y37.590 Z-0.500 F250.000
G1 X-2.056 Y37.124
G1 X-1.590 Y37.590
G1 X0.000 Y37.590 Z-0.500 F250.000
G2 X1.590 Y36.000 Z-0.500 I0.000 J-1.590 F250.000
G1 X1.590 Y28.000 Z-0.500 F250.000
G2 X0.000 Y26.410 Z-0.500 I-1.590 J0.000 F250.000
G1 X-1.590 Y26.410 Z-0.500 F250.000
G1 X-2.056 Y26.876
G1 X-1.590 Y26.410
G1 X-1.590 Y21.590 Z-0.500 F250.000
G1 X-2.056 Y21.124
G1 X-1.590 Y21.590
G1 X0.000 Y21.590 Z-0.500 F250.000
G2 X1.590 Y20.000 Z-0.500 I0.000 J-1.590 F250.000
G1 X1.590 Y12.000 Z-0.500 F250.000
G2 X0.000 Y10.410 Z-0.500 I-1.590 J0.000 F250.000
G1 X-1.590 Y10.410 Z-0.500 F250.000
G1 X-2.056 Y10.876
G1 X-1.590 Y10.410
G1 X-1.590 Y3.180 Z-0.500 F250.000
G2 X-3.180 Y1.590 Z-0.500 I-1.590 J0.000 F250.000
G1 X-10.410 Y1.590 Z-0.500 F250.000
G1 X-10.876 Y2.056
G1 X-10.410 Y1.590
G1 X-10.410 Y0.000 Z-0.500 F250.000
G2 X-12.000 Y-1.590 Z-0.500 I-1.590 J0.000 F250.000
G1 X-20.000 Y-1.590 Z-0.500 F250.000
G1 Y-1.590
G1 Y-1.590
G2 X-21.590 Y0.000 Z-0.500 I0.000 J1.590 F250.000
G1 X-21.590 Y1.590 Z-0.500 F250.000
G1 X-21.124 Y2.056
G1 X-21.590 Y1.590
G1 X-26.410 Y1.590 Z-0.500 F250.000
G1 X-26.876 Y2.056
G1 X-26.410 Y1.590
G1 X-26.410 Y0.000 Z-0.500 F250.000
G2 X-28.000 Y-1.590 Z-0.500 I-1.590 J0.000 F250.000
G1 X-36.000 Y-1.590 Z-0.500 F250.000
G1 Y-1.590
G1 Y-1.590
G2 X-37.590 Y0.000 Z-0.500 I0.000 J1.590 F250.000
G1 X-37.590 Y1.590 Z-0.500 F250.000
G1 X-37.124 Y2.056
G1 X-37.590 Y1.590
G1 X-42.410 Y1.590 Z-0.500 F250.000
G1 X-42.876 Y2.056
G1 X-42.410 Y1.590
G1 X-42.410 Y0.000 Z-0.500 F250.000
G2 X-44.000 Y-1.590 Z-0.500 I-1.590 J0.000 F250.000
G1 X-52.000 Y-1.590 Z-0.500 F250.000
G1 Y-1.590
G1 Y-1.590
G2 X-53.590 Y0.000 Z-0.500 I0.000 J1.590 F250.000
G1 X-53.590 Y1.590 Z-0.500 F250.000
G1 X-53.124 Y2.056
G1 X-53.590 Y1.590
G1 X-58.410 Y1.590 Z-0.500 F250.000
G1 X-58.876 Y2.056
G1 X-58.410 Y1.590
G1 X-58.410 Y0.000 Z-0.500 F250.000
G2 X-60.000 Y-1.590 Z-0.500 I-1.590 J0.000 F250.000
G1 X-68.000 Y-1.590 Z-0.500 F250.000
G1 Y-1.590
G1 Y-1.590
G2 X-69.590 Y0.000 Z-0.500 I0.000 J1.590 F250.000
G1 X-69.590 Y1.590 Z-0.500 F250.000
G1 X-69.124 Y2.056
G1 X-69.590 Y1.590
G1 X-76.820 Y1.590 Z-0.500 F250.000
G1 Y1.590
G1 Y1.590
G2 X-78.410 Y3.180 Z-0.500 I0.000 J1.590 F250.000
G1 X-78.410 Y10.410 Z-0.500 F250.000
G1 X-77.944 Y10.876
G1 X-78.410 Y10.410
G1 X-80.000 Y10.410 Z-0.500 F250.000
G1 Y10.410
G1 Y10.410
G2 X-81.590 Y12.000 Z-0.500 I0.000 J1.590 F250.000
G1 X-81.590 Y20.000 Z-0.500 F250.000
G2 X-80.000 Y21.590 Z-0.500 I1.590 J0.000 F250.000
G1 X-78.410 Y21.590 Z-0.500 F250.000
G1 X-77.944 Y21.124
G1 X-78.410 Y21.590
G1 X-78.410 Y26.410 Z-0.500 F250.000
G1 X-77.944 Y26.876
G1 X-78.410 Y26.410
G1 X-80.000 Y26.410 Z-0.500 F250.000
G1 Y26.410
G1 Y26.410
G2 X-81.590 Y28.000 Z-0.500 I0.000 J1.590 F250.000
G1 X-81.590 Y36.000 Z-0.500 F250.000
G2 X-80.000 Y37.590 Z-0.500 I1.590 J0.000 F250.000
G1 X-78.410 Y37.590 Z-0.500 F250.000
G1 X-77.944 Y37.124
G1 X-78.410 Y37.590
G1 X-78.410 Y42.410 Z-0.500 F250.000
G1 X-77.944 Y42.876
G1 X-78.410 Y42.410
G1 X-80.000 Y42.410 Z-0.500 F250.000
G1 Y42.410
G1 Y42.410
G2 X-81.590 Y44.000 Z-0.500 I0.000 J1.590 F250.000
G1 X-81.590 Y52.000 Z-0.500 F250.000
G2 X-80.000 Y53.590 Z-0.500 I1.590 J0.000 F250.000
G1 X-78.410 Y53.590 Z-0.500 F250.000
G1 X-77.944 Y53.124
G1 X-78.410 Y53.590
G1 X-78.410 Y58.410 Z-0.500 F250.000
G1 X-77.944 Y58.876
G1 X-78.410 Y58.410
G1 X-80.000 Y58.410 Z-0.500 F250.000
G1 Y58.410
G1 Y58.410
G2 X-81.590 Y60.000 Z-0.500 I0.000 J1.590 F250.000
G1 X-81.590 Y68.000 Z-0.500 F250.000
G2 X-80.000 Y69.590 Z-0.500 I1.590 J0.000 F250.000
G1 X-78.410 Y69.590 Z-0.500 F250.000
G1 X-77.944 Y69.124
G1 X-78.410 Y69.590
G1 X-78.410 Y76.820 Z-0.500 F250.000
G2 X-76.820 Y78.410 Z-0.500 I1.590 J0.000 F250.000
G1 X-69.590 Y78.410 Z-0.500 F250.000
G1 X-69.124 Y77.944
G1 X-69.590 Y78.410
G1 X-69.590 Y80.000 Z-0.500 F250.000
G2 X-68.000 Y81.590 Z-0.500 I1.590 J0.000 F250.000
G1 X-60.000 Y81.590 Z-0.500 F250.000
G2 X-58.410 Y80.000 Z-0.500 I0.000 J-1.590 F250.000
G1 X-58.410 Y78.410 Z-0.500 F250.000
G1 X-58.876 Y77.944
G1 X-58.410 Y78.410
G1 X-53.590 Y78.410 Z-0.500 F250.000
G1 X-53.124 Y77.944
G1 X-53.590 Y78.410
G1 X-53.590 Y80.000 Z-0.500 F250.000
G2 X-52.000 Y81.590 Z-0.500 I1.590 J0.000 F250.000
G1 X-44.000 Y81.590 Z-0.500 F250.000
G2 X-42.410 Y80.000 Z-0.500 I0.000 J-1.590 F250.000
G1 X-42.410 Y78.410 Z-0.500 F250.000
G1 X-42.876 Y77.944
G1 X-42.410 Y78.410
G1 X-37.590 Y78.410 Z-0.500 F250.000
G1 X-37.124 Y77.944
G1 X-37.590 Y78.410
G1 X-37.590 Y80.000 Z-0.500 F250.000
G2 X-36.000 Y81.590 Z-0.500 I1.590 J0.000 F250.000
G1 X-28.000 Y81.590 Z-0.500 F250.000
G2 X-26.410 Y80.000 Z-0.500 I0.000 J-1.590 F250.000
G1 X-26.410 Y78.410 Z-0.500 F250.000
G1 X-26.876 Y77.944
G1 X-26.410 Y78.410
G1 X-21.590 Y78.410 Z-0.500 F250.000
G1 X-21.124 Y77.944
G1 X-21.590 Y78.410
G1 X-21.590 Y80.000 Z-0.500 F250.000
G2 X-20.000 Y81.590 Z-0.500 I1.590 J0.000 F250.000
G1 X-12.000 Y81.590 Z-0.500 F250.000
G2 X-10.410 Y80.000 Z-0.500 I0.000 J-1.590 F250.000
G1 X-10.410 Y78.410 Z-0.500 F250.000
G1 X-10.876 Y77.944
G1 X-10.410 Y78.410
G1 X-3.180 Y78.410 Z-0.500 F250.000
G2 X-2.056 Y77.944 Z-0.500 I0.000 J-1.590 F250.000
G1 X-2.056 Y77.944 Z-1.000 F100.000
G2 X-1.590 Y76.820 Z-1.000 I-1.124 J-1.124 F250.000
G1 X-1.590 Y69.590 Z-1.000 F250.000
G1 X-2.056 Y69.124
G1 X-1.590 Y69.590
G1 X0.000 Y69.590 Z-1.000 F250.000
G2 X1.590 Y68.000 Z-1.000 I0.000 J-1.590 F250.000
G1 X1.590 Y60.000 Z-1.000 F250.000
G2 X0.000 Y58.410 Z-1.000 I-1.590 J0.000 F250.000
G1 X-1.590 Y58.410 Z-1.000 F250.000
G1 X-2.056 Y58.876
G1 X-1.590 Y58.410
G1 X-1.590 Y53.590 Z-1.000 F250.000
G1 X-2.056 Y53.124
G1 X-1.590 Y53.590
G1 X0.000 Y53.590 Z-1.000 F250.000
G2 X1.590 Y52.000 Z-1.000 I0.000 J-1.590 F250.000
G1 X1.590 Y44.000 Z-1.000 F250.000
G2 X0.000 Y42.410 Z-1.000 I-1.590 J0.000 F250.000
G1 X-1.590 Y42.410 Z-1.000 F250.000
G1 X-2.056 Y42.876
G1 X-1.590 Y42.410
G1 X-1.590 Y37.590 Z-1.000 F250.000
G1 X-2.056 Y37.124
G1 X-1.590 Y37.590
G1 X0.000 Y37.590 Z-1.000 F250.000
G2 X1.590 Y36.000 Z-1.000 I0.000 J-1.590 F250.000
G1 X1.590 Y28.000 Z-1.000 F250.000
G2 X0.000 Y26.410 Z-1.000 I-1.590 J0.000 F250.000
G1 X-1.590 Y26.410 Z-1.000 F250.000
G1 X-2.056 Y26.876
G1 X-1.590 Y26.410
G1 X-1.590 Y21.590 Z-1.000 F250.000
G1 X-2.056 Y21.124
G1 X-1.590 Y21.590
G1 X0.000 Y21.590 Z-1.000 F250.000
G2 X1.590 Y20.000 Z-1.000 I0.000 J-1.590 F250.000
G1 X1.590 Y12.000 Z-1.000 F250.000
G2 X0.000 Y10.410 Z-1.000 I-1.590 J0.000 F250.000
G1 X-1.590 Y10.410 Z-1.000 F250.000
G1 X-2.056 Y10.876
G1 X-1.590 Y10.410
G1 X-1.590 Y3.180 Z-1.000 F250.000
G2 X-3.180 Y1.590 Z-1.000 I-1.590 J0.000 F250.000
G1 X-10.410 Y1.590 Z-1.000 F250.000
G1 X-10.876 Y2.056
G1 X-10.410 Y1.590
G1 X-10.410 Y0.000 Z-1.000 F250.000
G2 X-12.000 Y-1.590 Z-1.000 I-1.590 J0.000 F250.000
G1 X-20.000 Y-1.590 Z-1.000 F250.000
G1 Y-1.590
G1 Y-1.590
G2 X-21.590 Y0.000 Z-1.000 I0.000 J1.590 F250.000
G1 X-21.590 Y1.590 Z-1.000 F250.000
G1 X-21.124 Y2.056
G1 X-21.590 Y1.590
G1 X-26.410 Y1.590 Z-1.000 F250.000
G1 X-26.876 Y2.056
G1 X-26.410 Y1.590
G1 X-26.410 Y0.000 Z-1.000 F250.000
G2 X-28.000 Y-1.590 Z-1.000 I-1.590 J0.000 F250.000
G1 X-36.000 Y-1.590 Z-1.000 F250.000
G1 Y-1.590
G1 Y-1.590
G2 X-37.590 Y0.000 Z-1.000 I0.000 J1.590 F250.000
G1 X-37.590 Y1.590 Z-1.000 F250.000
G1 X-37.124 Y2.056
G1 X-37.590 Y1.590
G1 X-42.410 Y1.590 Z-1.000 F250.000
G1 X-42.876 Y2.056
G1 X-42.410 Y1.590
G1 X-42.410 Y0.000 Z-1.000 F250.000
G2 X-44.000 Y-1.590 Z-1.000 I-1.590 J0.000 F250.000
G1 X-52.000 Y-1.590 Z-1.000 F250.000
G1 Y-1.590
G1 Y-1.590
G2 X-53.590 Y0.000 Z-1.000 I0.000 J1.590 F250.000
G1 X-53.590 Y1.590 Z-1.000 F250.000
G1 X-53.124 Y2.056
G1 X-53.590 Y1.590
G1 X-58.410 Y1.590 Z-1.000 F250.000
G1 X-58.876 Y2.056
G1 X-58.410 Y1.590
G1 X-58.410 Y0.000 Z-1.000 F250.000
G2 X-60.000 Y-1.590 Z-1.000 I-1.590 J0.000 F250.000
G1 X-68.000 Y-1.590 Z-1.000 F250.000
G1 Y-1.590
G1 Y-1.590
G2 X-69.590 Y0.000 Z-1.000 I0.000 J1.590 F250.000
G1 X-69.590 Y1.590 Z-1.000 F250.000
G1 X-69.124 Y2.056
G1 X-69.590 Y1.590
G1 X-76.820 Y1.590 Z-1.000 F250.000
G1 Y1.590
G1 Y1.590
G2 X-78.410 Y3.180 Z-1.000 I0.000 J1.590 F250.000
G1 X-78.410 Y10.410 Z-1.000 F250.000
G1 X-77.944 Y10.876
G1 X-78.410 Y10.410
G1 X-80.000 Y10.410 Z-1.000 F250.000
G1 Y10.410
G1 Y10.410
G2 X-81.590 Y12.000 Z-1.000 I0.000 J1.590 F250.000
G1 X-81.590 Y20.000 Z-1.000 F250.000
G2 X-80.000 Y21.590 Z-1.000 I1.590 J0.000 F250.000
G1 X-78.410 Y21.590 Z-1.000 F250.000
G1 X-77.944 Y21.124
G1 X-78.410 Y21.590
G1 X-78.410 Y26.410 Z-1.000 F250.000
G1 X-77.944 Y26.876
G1 X-78.410 Y26.410
G1 X-80.000 Y26.410 Z-1.000 F250.000
G1 Y26.410
G1 Y26.410
G2 X-81.590 Y28.000 Z-1.000 I0.000 J1.590 F250.000
G1 X-81.590 Y36.000 Z-1.000 F250.000
G2 X-80.000 Y37.590 Z-1.000 I1.590 J0.000 F250.000
G1 X-78.410 Y37.590 Z-1.000 F250.000
G1 X-77.944 Y37.124
G1 X-78.410 Y37.590
G1 X-78.410 Y42.410 Z-1.000 F250.000
G1 X-77.944 Y42.876
G1 X-78.410 Y42.410
G1 X-80.000 Y42.410 Z-1.000 F250.000
G1 Y42.410
G1 Y42.410
G2 X-81.590 Y44.000 Z-1.000 I0.000 J1.590 F250.000
G1 X-81.590 Y52.000 Z-1.000 F250.000
G2 X-80.000 Y53.590 Z-1.000 I1.590 J0.000 F250.000
G1 X-78.410 Y53.590 Z-1.000 F250.000
G1 X-77.944 Y53.124
G1 X-78.410 Y53.590
G1 X-78.410 Y58.410 Z-1.000 F250.000
G1 X-77.944 Y58.876
G1 X-78.410 Y58.410
G1 X-80.000 Y58.410 Z-1.000 F250.000
G1 Y58.410
G1 Y58.410
G2 X-81.590 Y60.000 Z-1.000 I0.000 J1.590 F250.000
G1 X-81.590 Y68.000 Z-1.000 F250.000
G2 X-80.000 Y69.590 Z-1.000 I1.590 J0.000 F250.000
G1 X-78.410 Y69.590 Z-1.000 F250.000
G1 X-77.944 Y69.124
G1 X-78.410 Y69.590
G1 X-78.410 Y76.820 Z-1.000 F250.000
G2 X-76.820 Y78.410 Z-1.000 I1.590 J0.000 F250.000
G1 X-69.590 Y78.410 Z-1.000 F250.000
G1 X-69.124 Y77.944
G1 X-69.590 Y78.410
G1 X-69.590 Y80.000 Z-1.000 F250.000
G2 X-68.000 Y81.590 Z-1.000 I1.590 J0.000 F250.000
G1 X-60.000 Y81.590 Z-1.000 F250.000
G2 X-58.410 Y80.000 Z-1.000 I0.000 J-1.590 F250.000
G1 X-58.410 Y78.410 Z-1.000 F250.000
G1 X-58.876 Y77.944
G1 X-58.410 Y78.410
G1 X-53.590 Y78.410 Z-1.000 F250.000
G1 X-53.124 Y77.944
G1 X-53.590 Y78.410
G1 X-53.590 Y80.000 Z-1.000 F250.000
G2 X-52.000 Y81.590 Z-1.000 I1.590 J0.000 F250.000
G1 X-44.000 Y81.590 Z-1.000 F250.000
G2 X-42.410 Y80.000 Z-1.000 I0.000 J-1.590 F250.000
G1 X-42.410 Y78.410 Z-1.000 F250.000
G1 X-42.876 Y77.944
G1 X-42.410 Y78.410
G1 X-37.590 Y78.410 Z-1.000 F250.000
G1 X-37.124 Y77.944
G1 X-37.590 Y78.410
G1 X-37.590 Y80.000 Z-1.000 F250.000
G2 X-36.000 Y81.590 Z-1.000 I1.590 J0.000 F250.000
G1 X-28.000 Y81.590 Z-1.000 F250.000
G2 X-26.410 Y80.000 Z-1.000 I0.000 J-1.590 F250.000
G1 X-26.410 Y78.410 Z-1.000 F250.000
G1 X-26.876 Y77.944
G1 X-26.410 Y78.410
G1 X-21.590 Y78.410 Z-1.000 F250.000
G1 X-21.124 Y77.944
G1 X-21.590 Y78.410
G1 X-21.590 Y80.000 Z-1.000 F250.000
G2 X-20.000 Y81.590 Z-1.000 I1.590 J0.000 F250.000
G1 X-12.000 Y81.590 Z-1.000 F250.000
G2 X-10.410 Y80.000 Z-1.000 I0.000 J-1.590 F250.000
G1 X-10.410 Y78.410 Z-1.000 F250.000
G1 X-10.876 Y77.944
G1 X-10.410 Y78.410
G1 X-3.180 Y78.410 Z-1.000 F250.000
G2 X-2.056 Y77.944 Z-1.000 I0.000 J-1.590 F250.000
G1 X-2.056 Y77.944 Z-1.500 F100.000
G2 X-1.590 Y76.820 Z-1.500 I-1.124 J-1.124 F250.000
G1 X-1.590 Y69.590 Z-1.500 F250.000
G1 X-2.056 Y69.124
G1 X-1.590 Y69.590
G1 X0.000 Y69.590 Z-1.500 F250.000
G2 X1.590 Y68.000 Z-1.500 I0.000 J-1.590 F250.000
G1 X1.590 Y60.000 Z-1.500 F250.000
G2 X0.000 Y58.410 Z-1.500 I-1.590 J0.000 F250.000
G1 X-1.590 Y58.410 Z-1.500 F250.000
G1 X-2.056 Y58.876
G1 X-1.590 Y58.410
G1 X-1.590 Y53.590 Z-1.500 F250.000
G1 X-2.056 Y53.124
G1 X-1.590 Y53.590
G1 X0.000 Y53.590 Z-1.500 F250.000
G2 X1.590 Y52.000 Z-1.500 I0.000 J-1.590 F250.000
G1 X1.590 Y44.000 Z-1.500 F250.000
G2 X0.000 Y42.410 Z-1.500 I-1.590 J0.000 F250.000
G1 X-1.590 Y42.410 Z-1.500 F250.000
G1 X-2.056 Y42.876
G1 X-1.590 Y42.410
G1 X-1.590 Y37.590 Z-1.500 F250.000
G1 X-2.056 Y37.124
G1 X-1.590 Y37.590
G1 X0.000 Y37.590 Z-1.500 F250.000
G2 X1.590 Y36.000 Z-1.500 I0.000 J-1.590 F250.000
G1 X1.590 Y28.000 Z-1.500 F250.000
G2 X0.000 Y26.410 Z-1.500 I-1.590 J0.000 F250.000
G1 X-1.590 Y26.410 Z-1.500 F250.000
G1 X-2.056 Y26.876
G1 X-1.590 Y26.410
G1 X-1.590 Y21.590 Z-1.500 F250.000
G1 X-2.056 Y21.124
G1 X-1.590 Y21.590
G1 X0.000 Y21.590 Z-1.500 F250.000
G2 X1.590 Y20.000 Z-1.500 I0.000 J-1.590 F250.000
G1 X1.590 Y12.000 Z-1.500 F250.000
G2 X0.000 Y10.410 Z-1.500 I-1.590 J0.000 F250.000
G1 X-1.590 Y10.410 Z-1.500 F250.000
G1 X-2.056 Y10.876
G1 X-1.590 Y10.410
G1 X-1.590 Y3.180 Z-1.500 F250.000
G2 X-3.180 Y1.590 Z-1.500 I-1.590 J0.000 F250.000
G1 X-10.410 Y1.590 Z-1.500 F250.000
G1 X-10.876 Y2.056
G1 X-10.410 Y1.590
G1 X-10.410 Y0.000 Z-1.500 F250.000
G2 X-12.000 Y-1.590 Z-1.500 I-1.590 J0.000 F250.000
G1 X-20.000 Y-1.590 Z-1.500 F250.000
G1 Y-1.590
G1 Y-1.590
G2 X-21.590 Y0.000 Z-1.500 I0.000 J1.590 F250.000
G1 X-21.590 Y1.590 Z-1.500 F250.000
G1 X-21.124 Y2.056
G1 X-21.590 Y1.590
G1 X-26.410 Y1.590 Z-1.500 F250.000
G1 X-26.876 Y2.056
G1 X-26.410 Y1.590
G1 X-26.410 Y0.000 Z-1.500 F250.000
G2 X-28.000 Y-1.590 Z-1.500 I-1.590 J0.000 F250.000
G1 X-36.000 Y-1.590 Z-1.500 F250.000
G1 Y-1.590
G1 Y-1.590
G2 X-37.590 Y0.000 Z-1.500 I0.000 J1.590 F250.000
G1 X-37.590 Y1.590 Z-1.500 F250.000
G1 X-37.124 Y2.056
G1 X-37.590 Y1.590
G1 X-42.410 Y1.590 Z-1.500 F250.000
G1 X-42.876 Y2.056
G1 X-42.410 Y1.590
G1 X-42.410 Y0.000 Z-1.500 F250.000
G2 X-44.000 Y-1.590 Z-1.500 I-1.590 J0.000 F250.000
G1 X-52.000 Y-1.590 Z-1.500 F250.000
G1 Y-1.590
G1 Y-1.590
G2 X-53.590 Y0.000 Z-1.500 I0.000 J1.590 F250.000
G1 X-53.590 Y1.590 Z-1.500 F250.000
G1 X-53.124 Y2.056
G1 X-53.590 Y1.590
G1 X-58.410 Y1.590 Z-1.500 F250.000
G1 X-58.876 Y2.056
G1 X-58.410 Y1.590
G1 X-58.410 Y0.000 Z-1.500 F250.000
G2 X-60.000 Y-1.590 Z-1.500 I-1.590 J0.000 F250.000
G1 X-68.000 Y-1.590 Z-1.500 F250.000
G1 Y-1.590
G1 Y-1.590
G2 X-69.590 Y0.000 Z-1.500 I0.000 J1.590 F250.000
G1 X-69.590 Y1.590 Z-1.500 F250.000
G1 X-69.124 Y2.056
G1 X-69.590 Y1.590
G1 X-76.820 Y1.590 Z-1.500 F250.000
G1 Y1.590
G1 Y1.590
G2 X-78.410 Y3.180 Z-1.500 I0.000 J1.590 F250.000
G1 X-78.410 Y10.410 Z-1.500 F250.000
G1 X-77.944 Y10.876
G1 X-78.410 Y10.410
G1 X-80.000 Y10.410 Z-1.500 F250.000
G1 Y10.410
G1 Y10.410
G2 X-81.590 Y12.000 Z-1.500 I0.000 J1.590 F250.000
G1 X-81.590 Y20.000 Z-1.500 F250.000
G2 X-80.000 Y21.590 Z-1.500 I1.590 J0.000 F250.000
G1 X-78.410 Y21.590 Z-1.500 F250.000
G1 X-77.944 Y21.124
G1 X-78.410 Y21.590
G1 X-78.410 Y26.410 Z-1.500 F250.000
G1 X-77.944 Y26.876
G1 X-78.410 Y26.410
G1 X-80.000 Y26.410 Z-1.500 F250.000
G1 Y26.410
G1 Y26.410
G2 X-81.590 Y28.000 Z-1.500 I0.000 J1.590 F250.000
G1 X-81.590 Y36.000 Z-1.500 F250.000
G2 X-80.000 Y37.590 Z-1.500 I1.590 J0.000 F250.000
G1 X-78.410 Y37.590 Z-1.500 F250.000
G1 X-77.944 Y37.124
G1 X-78.410 Y37.590
G1 X-78.410 Y42.410 Z-1.500 F250.000
G1 X-77.944 Y42.876
G1 X-78.410 Y42.410
G1 X-80.000 Y42.410 Z-1.500 F250.000
G1 Y42.410
G1 Y42.410
G2 X-81.590 Y44.000 Z-1.500 I0.000 J1.590 F250.000
G1 X-81.590 Y52.000 Z-1.500 F250.000
G2 X-80.000 Y53.590 Z-1.500 I1.590 J0.000 F250.000
G1 X-78.410 Y53.590 Z-1.500 F250.000
G1 X-77.944 Y53.124
G1 X-78.410 Y53.590
G1 X-78.410 Y58.410 Z-1.500 F250.000
G1 X-77.944 Y58.876
G1 X-78.410 Y58.410
G1 X-80.000 Y58.410 Z-1.500 F250.000
G1 Y58.410
G1 Y58.410
G2 X-81.590 Y60.000 Z-1.500 I0.000 J1.590 F250.000
G1 X-81.590 Y68.000 Z-1.500 F250.000
G2 X-80.000 Y69.590 Z-1.500 I1.590 J0.000 F250.000
G1 X-78.410 Y69.590 Z-1.500 F250.000
G1 X-77.944 Y69.124
G1 X-78.410 Y69.590
G1 X-78.410 Y76.820 Z-1.500 F250.000
G2 X-76.820 Y78.410 Z-1.500 I1.590 J0.000 F250.000
G1 X-69.590 Y78.410 Z-1.500 F250.000
G1 X-69.124 Y77.944
G1 X-69.590 Y78.410
G1 X-69.590 Y80.000 Z-1.500 F250.000
G2 X-68.000 Y81.590 Z-1.500 I1.590 J0.000 F250.000
G1 X-60.000 Y81.590 Z-1.500 F250.000
G2 X-58.410 Y80.000 Z-1.500 I0.000 J-1.590 F250.000
G1 X-58.410 Y78.410 Z-1.500 F250.000
G1 X-58.876 Y77.944
G1 X-58.410 Y78.410
G1 X-53.590 Y78.410 Z-1.500 F250.000
G1 X-53.124 Y77.944
G1 X-53.590 Y78.410
G1 X-53.590 Y80.000 Z-1.500 F250.000
G2 X-52.000 Y81.590 Z-1.500 I1.590 J0.000 F250.000
G1 X-44.000 Y81.590 Z-1.500 F250.000
G2 X-42.410 Y80.000 Z-1.500 I0.000 J-1.590 F250.000
G1 X-42.410 Y78.410 Z-1.500 F250.000
G1 X-42.876 Y77.944
G1 X-42.410 Y78.410
G1 X-37.590 Y78.410 Z-1.500 F250.000
G1 X-37.124 Y77.944
G1 X-37.590 Y78.410
G1 X-37.590 Y80.000 Z-1.500 F250.000
G2 X-36.000 Y81.590 Z-1.500 I1.590 J0.000 F250.000
G1 X-28.000 Y81.590 Z-1.500 F250.000
G2 X-26.410 Y80.000 Z-1.500 I0.000 J-1.590 F250.000
G1 X-26.410 Y78.410 Z-1.500 F250.000
G1 X-26.876 Y77.944
G1 X-26.410 Y78.410
G1 X-21.590 Y78.410 Z-1.500 F250.000
G1 X-21.124 Y77.944
G1 X-21.590 Y78.410
G1 X-21.590 Y80.000 Z-1.500 F250.000
G2 X-20.000 Y81.590 Z-1.500 I1.590 J0.000 F250.000
G1 X-12.000 Y81.590 Z-1.500 F250.000
G2 X-10.410 Y80.000 Z-1.500 I0.000 J-1.590 F250.000
G1 X-10.410 Y78.410 Z-1.500 F250.000
G1 X-10.876 Y77.944
G1 X-10.410 Y78.410
G1 X-3.180 Y78.410 Z-1.500 F250.000
G2 X-2.056 Y77.944 Z-1.500 I0.000 J-1.590 F250.000
G1 X-2.056 Y77.944 Z-2.000 F100.000
G2 X-1.590 Y76.820 Z-2.000 I-1.124 J-1.124 F250.000
G1 X-1.590 Y69.590 Z-2.000 F250.000
G1 X-2.056 Y69.124
G1 X-1.590 Y69.590
G1 X0.000 Y69.590 Z-2.000 F250.000
G2 X1.590 Y68.000 Z-2.000 I0.000 J-1.590 F250.000
G1 X1.590 Y60.000 Z-2.000 F250.000
G2 X0.000 Y58.410 Z-2.000 I-1.590 J0.000 F250.000
G1 X-1.590 Y58.410 Z-2.000 F250.000
G1 X-2.056 Y58.876
G1 X-1.590 Y58.410
G1 X-1.590 Y53.590 Z-2.000 F250.000
G1 X-2.056 Y53.124
G1 X-1.590 Y53.590
G1 X0.000 Y53.590 Z-2.000 F250.000
G2 X1.590 Y52.000 Z-2.000 I0.000 J-1.590 F250.000
G1 X1.590 Y44.000 Z-2.000 F250.000
G2 X0.000 Y42.410 Z-2.000 I-1.590 J0.000 F250.000
G1 X-1.590 Y42.410 Z-2.000 F250.000
G1 X-2.056 Y42.876
G1 X-1.590 Y42.410
G1 X-1.590 Y37.590 Z-2.000 F250.000
G1 X-2.056 Y37.124
G1 X-1.590 Y37.590
G1 X0.000 Y37.590 Z-2.000 F250.000
G2 X1.590 Y36.000 Z-2.000 I0.000 J-1.590 F250.000
G1 X1.590 Y28.000 Z-2.000 F250.000
G2 X0.000 Y26.410 Z-2.000 I-1.590 J0.000 F250.000
G1 X-1.590 Y26.410 Z-2.000 F250.000
G1 X-2.056 Y26.876
G1 X-1.590 Y26.410
G1 X-1.590 Y21.590 Z-2.000 F250.000
G1 X-2.056 Y21.124
G1 X-1.590 Y21.590
G1 X0.000 Y21.590 Z-2.000 F250.000
G2 X1.590 Y20.000 Z-2.000 I0.000 J-1.590 F250.000
G1 X1.590 Y12.000 Z-2.000 F250.000
G2 X0.000 Y10.410 Z-2.000 I-1.590 J0.000 F250.000
G1 X-1.590 Y10.410 Z-2.000 F250.000
G1 X-2.056 Y10.876
G1 X-1.590 Y10.410
G1 X-1.590 Y3.180 Z-2.000 F250.000
G2 X-3.180 Y1.590 Z-2.000 I-1.590 J0.000 F250.000
G1 X-10.410 Y1.590 Z-2.000 F250.000
G1 X-10.876 Y2.056
G1 X-10.410 Y1.590
G1 X-10.410 Y0.000 Z-2.000 F250.000
G2 X-12.000 Y-1.590 Z-2.000 I-1.590 J0.000 F250.000
G1 X-20.000 Y-1.590 Z-2.000 F250.000
G1 Y-1.590
G1 Y-1.590
G2 X-21.590 Y0.000 Z-2.000 I0.000 J1.590 F250.000
G1 X-21.590 Y1.590 Z-2.000 F250.000
G1 X-21.124 Y2.056
G1 X-21.590 Y1.590
G1 X-26.410 Y1.590 Z-2.000 F250.000
G1 X-26.876 Y2.056
G1 X-26.410 Y1.590
G1 X-26.410 Y0.000 Z-2.000 F250.000
G2 X-28.000 Y-1.590 Z-2.000 I-1.590 J0.000 F250.000
G1 X-36.000 Y-1.590 Z-2.000 F250.000
G1 Y-1.590
G1 Y-1.590
G2 X-37.590 Y0.000 Z-2.000 I0.000 J1.590 F250.000
G1 X-37.590 Y1.590 Z-2.000 F250.000
G1 X-37.124 Y2.056
G1 X-37.590 Y1.590
G1 X-42.410 Y1.590 Z-2.000 F250.000
G1 X-42.876 Y2.056
G1 X-42.410 Y1.590
G1 X-42.410 Y0.000 Z-2.000 F250.000
G2 X-44.000 Y-1.590 Z-2.000 I-1.590 J0.000 F250.000
G1 X-52.000 Y-1.590 Z-2.000 F250.000
G1 Y-1.590
G1 Y-1.590
G2 X-53.590 Y0.000 Z-2.000 I0.000 J1.590 F250.000
G1 X-53.590 Y1.590 Z-2.000 F250.000
G1 X-53.124 Y2.056
G1 X-53.590 Y1.590
G1 X-58.410 Y1.590 Z-2.000 F250.000
G1 X-58.876 Y2.056
G1 X-58.410 Y1.590
G1 X-58.410 Y0.000 Z-2.000 F250.000
G2 X-60.000 Y-1.590 Z-2.000 I-1.590 J0.000 F250.000
G1 X-68.000 Y-1.590 Z-2.000 F250.000
G1 Y-1.590
G1 Y-1.590
G2 X-69.590 Y0.000 Z-2.000 I0.000 J1.590 F250.000
G1 X-69.590 Y1.590 Z-2.000 F250.000
G1 X-69.124 Y2.056
G1 X-69.590 Y1.590
G1 X-76.820 Y1.590 Z-2.000 F250.000
G1 Y1.590
G1 Y1.590
G2 X-78.410 Y3.180 Z-2.000 I0.000 J1.590 F250.000
G1 X-78.410 Y10.410 Z-2.000 F250.000
G1 X-77.944 Y10.876
G1 X-78.410 Y10.410
G1 X-80.000 Y10.410 Z-2.000 F250.000
G1 Y10.410
G1 Y10.410
G2 X-81.590 Y12.000 Z-2.000 I0.000 J1.590 F250.000
G1 X-81.590 Y20.000 Z-2.000 F250.000
G2 X-80.000 Y21.590 Z-2.000 I1.590 J0.000 F250.000
G1 X-78.410 Y21.590 Z-2.000 F250.000
G1 X-77.944 Y21.124
G1 X-78.410 Y21.590
G1 X-78.410 Y26.410 Z-2.000 F250.000
G1 X-77.944 Y26.876
G1 X-78.410 Y26.410
G1 X-80.000 Y26.410 Z-2.000 F250.000
G1 Y26.410
G1 Y26.410
G2 X-81.590 Y28.000 Z-2.000 I0.000 J1.590 F250.000
G1 X-81.590 Y36.000 Z-2.000 F250.000
G2 X-80.000 Y37.590 Z-2.000 I1.590 J0.000 F250.000
G1 X-78.410 Y37.590 Z-2.000 F250.000
G1 X-77.944 Y37.124
G1 X-78.410 Y37.590
G1 X-78.410 Y42.410 Z-2.000 F250.000
G1 X-77.944 Y42.876
G1 X-78.410 Y42.410
G1 X-80.000 Y42.410 Z-2.000 F250.000
G1 Y42.410
G1 Y42.410
G2 X-81.590 Y44.000 Z-2.000 I0.000 J1.590 F250.000
G1 X-81.590 Y52.000 Z-2.000 F250.000
G2 X-80.000 Y53.590 Z-2.000 I1.590 J0.000 F250.000
G1 X-78.410 Y53.590 Z-2.000 F250.000
G1 X-77.944 Y53.124
G1 X-78.410 Y53.590
G1 X-78.410 Y58.410 Z-2.000 F250.000
G1 X-77.944 Y58.876
G1 X-78.410 Y58.410
G1 X-80.000 Y58.410 Z-2.000 F250.000
G1 Y58.410
G1 Y58.410
G2 X-81.590 Y60.000 Z-2.000 I0.000 J1.590 F250.000
G1 X-81.590 Y68.000 Z-2.000 F250.000
G2 X-80.000 Y69.590 Z-2.000 I1.590 J0.000 F250.000
G1 X-78.410 Y69.590 Z-2.000 F250.000
G1 X-77.944 Y69.124
G1 X-78.410 Y69.590
G1 X-78.410 Y76.820 Z-2.000 F250.000
G2 X-76.820 Y78.410 Z-2.000 I1.590 J0.000 F250.000
G1 X-69.590 Y78.410 Z-2.000 F250.000
G1 X-69.124 Y77.944
G1 X-69.590 Y78.410
G1 X-69.590 Y80.000 Z-2.000 F250.000
G2 X-68.000 Y81.590 Z-2.000 I1.590 J0.000 F250.000
G1 X-60.000 Y81.590 Z-2.000 F250.000
G2 X-58.410 Y80.000 Z-2.000 I0.000 J-1.590 F250.000
G1 X-58.410 Y78.410 Z-2.000 F250.000
G1 X-58.876 Y77.944
G1 X-58.410 Y78.410
G1 X-53.590 Y78.410 Z-2.000 F250.000
G1 X-53.124 Y77.944
G1 X-53.590 Y78.410
G1 X-53.590 Y80.000 Z-2.000 F250.000
G2 X-52.000 Y81.590 Z-2.000 I1.590 J0.000 F250.000
G1 X-44.000 Y81.590 Z-2.000 F250.000
G2 X-42.410 Y80.000 Z-2.000 I0.000 J-1.590 F250.000
G1 X-42.410 Y78.410 Z-2.000 F250.000
G1 X-42.876 Y77.944
G1 X-42.410 Y78.410
G1 X-37.590 Y78.410 Z-2.000 F250.000
G1 X-37.124 Y77.944
G1 X-37.590 Y78.410
G1 X-37.590 Y80.000 Z-2.000 F250.000
G2 X-36.000 Y81.590 Z-2.000 I1.590 J0.000 F250.000
G1 X-28.000 Y81.590 Z-2.000 F250.000
G2 X-26.410 Y80.000 Z-2.000 I0.000 J-1.590 F250.000
G1 X-26.410 Y78.410 Z-2.000 F250.000
G1 X-26.876 Y77.944
G1 X-26.410 Y78.410
G1 X-21.590 Y78.410 Z-2.000 F250.000
G1 X-21.124 Y77.944
G1 X-21.590 Y78.410
G1 X-21.590 Y80.000 Z-2.000 F250.000
G2 X-20.000 Y81.590 Z-2.000 I1.590 J0.000 F250.000
G1 X-12.000 Y81.590 Z-2.000 F250.000
G2 X-10.410 Y80.000 Z-2.000 I0.000 J-1.590 F250.000
G1 X-10.410 Y78.410 Z-2.000 F250.000
G1 X-10.876 Y77.944
G1 X-10.410 Y78.410
G1 X-3.180 Y78.410 Z-2.000 F250.000
G2 X-2.056 Y77.944 Z-2.000 I0.000 J-1.590 F250.000
G1 X-2.056 Y77.944 Z-2.500 F100.000
G2 X-1.590 Y76.820 Z-2.500 I-1.124 J-1.124 F250.000
G1 X-1.590 Y69.590 Z-2.500 F250.000
G1 X-2.056 Y69.124
G1 X-1.590 Y69.590
G1 X0.000 Y69.590 Z-2.500 F250.000
G2 X1.590 Y68.000 Z-2.500 I0.000 J-1.590 F250.000
G1 X1.590 Y60.000 Z-2.500 F250.000
G2 X0.000 Y58.410 Z-2.500 I-1.590 J0.000 F250.000
G1 X-1.590 Y58.410 Z-2.500 F250.000
G1 X-2.056 Y58.876
G1 X-1.590 Y58.410
G1 X-1.590 Y53.590 Z-2.500 F250.000
G1 X-2.056 Y53.124
G1 X-1.590 Y53.590
G1 X0.000 Y53.590 Z-2.500 F250.000
G2 X1.590 Y52.000 Z-2.500 I0.000 J-1.590 F250.000
G1 X1.590 Y44.000 Z-2.500 F250.000
G2 X0.000 Y42.410 Z-2.500 I-1.590 J0.000 F250.000
G1 X-1.590 Y42.410 Z-2.500 F250.000
G1 X-2.056 Y42.876
G1 X-1.590 Y42.410
G1 X-1.590 Y37.590 Z-2.500 F250.000
G1 X-2.056 Y37.124
G1 X-1.590 Y37.590
G1 X0.000 Y37.590 Z-2.500 F250.000
G2 X1.590 Y36.000 Z-2.500 I0.000 J-1.590 F250.000
G1 X1.590 Y28.000 Z-2.500 F250.000
G2 X0.000 Y26.410 Z-2.500 I-1.590 J0.000 F250.000
G1 X-1.590 Y26.410 Z-2.500 F250.000
G1 X-2.056 Y26.876
G1 X-1.590 Y26.410
G1 X-1.590 Y21.590 Z-2.500 F250.000
G1 X-2.056 Y21.124
G1 X-1.590 Y21.590
G1 X0.000 Y21.590 Z-2.500 F250.000
G2 X1.590 Y20.000 Z-2.500 I0.000 J-1.590 F250.000
G1 X1.590 Y12.000 Z-2.500 F250.000
G2 X0.000 Y10.410 Z-2.500 I-1.590 J0.000 F250.000
G1 X-1.590 Y10.410 Z-2.500 F250.000
G1 X-2.056 Y10.876
G1 X-1.590 Y10.410
G1 X-1.590 Y3.180 Z-2.500 F250.000
G2 X-3.180 Y1.590 Z-2.500 I-1.590 J0.000 F250.000
G1 X-10.410 Y1.590 Z-2.500 F250.000
G1 X-10.876 Y2.056
G1 X-10.410 Y1.590
G1 X-10.410 Y0.000 Z-2.500 F250.000
G2 X-12.000 Y-1.590 Z-2.500 I-1.590 J0.000 F250.000
G1 X-20.000 Y-1.590 Z-2.500 F250.000
G1 Y-1.590
G1 Y-1.590
G2 X-21.590 Y0.000 Z-2.500 I0.000 J1.590 F250.000
G1 X-21.590 Y1.590 Z-2.500 F250.000
G1 X-21.124 Y2.056
G1 X-21.590 Y1.590
G1 X-26.410 Y1.590 Z-2.500 F250.000
G1 X-26.876 Y2.056
G1 X-26.410 Y1.590
G1 X-26.410 Y0.000 Z-2.500 F250.000
G2 X-28.000 Y-1.590 Z-2.500 I-1.590 J0.000 F250.000
G1 X-36.000 Y-1.590 Z-2.500 F250.000
G1 Y-1.590
G1 Y-1.590
G2 X-37.590 Y0.000 Z-2.500 I0.000 J1.590 F250.000
G1 X-37.590 Y1.590 Z-2.500 F250.000
G1 X-37.124 Y2.056
G1 X-37.590 Y1.590
G1 X-42.410 Y1.590 Z-2.500 F250.000
G1 X-42.876 Y2.056
G1 X-42.410 Y1.590
G1 X-42.410 Y0.000 Z-2.500 F250.000
G2 X-44.000 Y-1.590 Z-2.500 I-1.590 J0.000 F250.000
G1 X-52.000 Y-1.590 Z-2.500 F250.000
G1 Y-1.590
G1 Y-1.590
G2 X-53.590 Y0.000 Z-2.500 I0.000 J1.590 F250.000
G1 X-53.590 Y1.590 Z-2.500 F250.000
G1 X-53.124 Y2.056
G1 X-53.590 Y1.590
G1 X-58.410 Y1.590 Z-2.500 F250.000
G1 X-58.876 Y2.056
G1 X-58.410 Y1.590
G1 X-58.410 Y0.000 Z-2.500 F250.000
G2 X-60.000 Y-1.590 Z-2.500 I-1.590 J0.000 F250.000
G1 X-68.000 Y-1.590 Z-2.500 F250.000
G1 Y-1.590
G1 Y-1.590
G2 X-69.590 Y0.000 Z-2.500 I0.000 J1.590 F250.000
G1 X-69.590 Y1.590 Z-2.500 F250.000
G1 X-69.124 Y2.056
G1 X-69.590 Y1.590
G1 X-76.820 Y1.590 Z-2.500 F250.000
G1 Y1.590
G1 Y1.590
G2 X-78.410 Y3.180 Z-2.500 I0.000 J1.590 F250.000
G1 X-78.410 Y10.410 Z-2.500 F250.000
G1 X-77.944 Y10.876
G1 X-78.410 Y10.410
G1 X-80.000 Y10.410 Z-2.500 F250.000
G1 Y10.410
G1 Y10.410
G2 X-81.590 Y12.000 Z-2.500 I0.000 J1.590 F250.000
G1 X-81.590 Y20.000 Z-2.500 F250.000
G2 X-80.000 Y21.590 Z-2.500 I1.590 J0.000 F250.000
G1 X-78.410 Y21.590 Z-2.500 F250.000
G1 X-77.944 Y21.124
G1 X-78.410 Y21.590
G1 X-78.410 Y26.410 Z-2.500 F250.000
G1 X-77.944 Y26.876
G1 X-78.410 Y26.410
G1 X-80.000 Y26.410 Z-2.500 F250.000
G1 Y26.410
G1 Y26.410
G2 X-81.590 Y28.000 Z-2.500 I0.000 J1.590 F250.000
G1 X-81.590 Y36.000 Z-2.500 F250.000
G2 X-80.000 Y37.590 Z-2.500 I1.590 J0.000 F250.000
G1 X-78.410 Y37.590 Z-2.500 F250.000
G1 X-77.944 Y37.124
G1 X-78.410 Y37.590
G1 X-78.410 Y42.410 Z-2.500 F250.000
G1 X-77.944 Y42.876
G1 X-78.410 Y42.410
G1 X-80.000 Y42.410 Z-2.500 F250.000
G1 Y42.410
G1 Y42.410
G2 X-81.590 Y44.000 Z-2.500 I0.000 J1.590 F250.000
G1 X-81.590 Y52.000 Z-2.500 F250.000
G2 X-80.000 Y53.590 Z-2.500 I1.590 J0.000 F250.000
G1 X-78.410 Y53.590 Z-2.500 F250.000
G1 X-77.944 Y53.124
G1 X-78.410 Y53.590
G1 X-78.410 Y58.410 Z-2.500 F250.000
G1 X-77.944 Y58.876
G1 X-78.410 Y58.410
G1 X-80.000 Y58.410 Z-2.500 F250.000
G1 Y58.410
G1 Y58.410
G2 X-81.590 Y60.000 Z-2.500 I0.000 J1.590 F250.000
G1 X-81.590 Y68.000 Z-2.500 F250.000
G2 X-80.000 Y69.590 Z-2.500 I1.590 J0.000 F250.000
G1 X-78.410 Y69.590 Z-2.500 F250.000
G1 X-77.944 Y69.124
G1 X-78.410 Y69.590
G1 X-78.410 Y76.820 Z-2.500 F250.000
G2 X-76.820 Y78.410 Z-2.500 I1.590 J0.000 F250.000
G1 X-69.590 Y78.410 Z-2.500 F250.000
G1 X-69.124 Y77.944
G1 X-69.590 Y78.410
G1 X-69.590 Y80.000 Z-2.500 F250.000
G2 X-68.000 Y81.590 Z-2.500 I1.590 J0.000 F250.000
G1 X-60.000 Y81.590 Z-2.500 F250.000
G2 X-58.410 Y80.000 Z-2.500 I0.000 J-1.590 F250.000
G1 X-58.410 Y78.410 Z-2.500 F250.000
G1 X-58.876 Y77.944
G1 X-58.410 Y78.410
G1 X-53.590 Y78.410 Z-2.500 F250.000
G1 X-53.124 Y77.944
G1 X-53.590 Y78.410
G1 X-53.590 Y80.000 Z-2.500 F250.000
G2 X-52.000 Y81.590 Z-2.500 I1.590 J0.000 F250.000
G1 X-44.000 Y81.590 Z-2.500 F250.000
G2 X-42.410 Y80.000 Z-2.500 I0.000 J-1.590 F250.000
G1 X-42.410 Y78.410 Z-2.500 F250.000
G1 X-42.876 Y77.944
G1 X-42.410 Y78.410
G1 X-37.590 Y78.410 Z-2.500 F250.000
G1 X-37.124 Y77.944
G1 X-37.590 Y78.410
G1 X-37.590 Y80.000 Z-2.500 F250.000
G2 X-36.000 Y81.590 Z-2.500 I1.590 J0.000 F250.000
G1 X-28.000 Y81.590 Z-2.500 F250.000
G2 X-26.410 Y80.000 Z-2.500 I0.000 J-1.590 F250.000
G1 X-26.410 Y78.410 Z-2.500 F250.000
G1 X-26.876 Y77.944
G1 X-26.410 Y78.410
G1 X-21.590 Y78.410 Z-2.500 F250.000
G1 X-21.124 Y77.944
G1 X-21.590 Y78.410
G1 X-21.590 Y80.000 Z-2.500 F250.000
G2 X-20.000 Y81.590 Z-2.500 I1.590 J0.000 F250.000
G1 X-12.000 Y81.590 Z-2.500 F250.000
G2 X-10.410 Y80.000 Z-2.500 I0.000 J-1.590 F250.000
G1 X-10.410 Y78.410 Z-2.500 F250.000
G1 X-10.876 Y77.944
G1 X-10.410 Y78.410
G1 X-3.180 Y78.410 Z-2.500 F250.000
G2 X-2.056 Y77.944 Z-2.500 I0.000 J-1.590 F250.000
G1 X-2.056 Y77.944 Z-3.000 F100.000
G2 X-1.590 Y76.820 Z-3.000 I-1.124 J-1.124 F250.000
G1 X-1.590 Y69.590 Z-3.000 F250.000
G1 X-2.056 Y69.124
G1 X-1.590 Y69.590
G1 X0.000 Y69.590 Z-3.000 F250.000
G2 X1.590 Y68.000 Z-3.000 I0.000 J-1.590 F250.000
G1 X1.590 Y60.000 Z-3.000 F250.000
G2 X0.000 Y58.410 Z-3.000 I-1.590 J0.000 F250.000
G1 X-1.590 Y58.410 Z-3.000 F250.000
G1 X-2.056 Y58.876
G1 X-1.590 Y58.410
G1 X-1.590 Y53.590 Z-3.000 F250.000
G1 X-2.056 Y53.124
G1 X-1.590 Y53.590
G1 X0.000 Y53.590 Z-3.000 F250.000
G2 X1.590 Y52.000 Z-3.000 I0.000 J-1.590 F250.000
G1 X1.590 Y44.000 Z-3.000 F250.000
G2 X0.000 Y42.410 Z-3.000 I-1.590 J0.000 F250.000
G1 X-1.590 Y42.410 Z-3.000 F250.000
G1 X-2.056 Y42.876
G1 X-1.590 Y42.410
G1 X-1.590 Y37.590 Z-3.000 F250.000
G1 X-2.056 Y37.124
G1 X-1.590 Y37.590
G1 X0.000 Y37.590 Z-3.000 F250.000
G2 X1.590 Y36.000 Z-3.000 I0.000 J-1.590 F250.000
G1 X1.590 Y28.000 Z-3.000 F250.000
G2 X0.000 Y26.410 Z-3.000 I-1.590 J0.000 F250.000
G1 X-1.590 Y26.410 Z-3.000 F250.000
G1 X-2.056 Y26.876
G1 X-1.590 Y26.410
G1 X-1.590 Y21.590 Z-3.000 F250.000
G1 X-2.056 Y21.124
G1 X-1.590 Y21.590
G1 X0.000 Y21.590 Z-3.000 F250.000
G2 X1.590 Y20.000 Z-3.000 I0.000 J-1.590 F250.000
G1 X1.590 Y12.000 Z-3.000 F250.000
G2 X0.000 Y10.410 Z-3.000 I-1.590 J0.000 F250.000
G1 X-1.590 Y10.410 Z-3.000 F250.000
G1 X-2.056 Y10.876
G1 X-1.590 Y10.410
G1 X-1.590 Y3.180 Z-3.000 F250.000
G2 X-3.180 Y1.590 Z-3.000 I-1.590 J0.000 F250.000
G1 X-10.410 Y1.590 Z-3.000 F250.000
G1 X-10.876 Y2.056
G1 X-10.410 Y1.590
G1 X-10.410 Y0.000 Z-3.000 F250.000
G2 X-12.000 Y-1.590 Z-3.000 I-1.590 J0.000 F250.000
G1 X-20.000 Y-1.590 Z-3.000 F250.000
G1 Y-1.590
G1 Y-1.590
G2 X-21.590 Y0.000 Z-3.000 I0.000 J1.590 F250.000
G1 X-21.590 Y1.590 Z-3.000 F250.000
G1 X-21.124 Y2.056
G1 X-21.590 Y1.590
G1 X-26.410 Y1.590 Z-3.000 F250.000
G1 X-26.876 Y2.056
G1 X-26.410 Y1.590
G1 X-26.410 Y0.000 Z-3.000 F250.000
G2 X-28.000 Y-1.590 Z-3.000 I-1.590 J0.000 F250.000
G1 X-36.000 Y-1.590 Z-3.000 F250.000
G1 Y-1.590
G1 Y-1.590
G2 X-37.590 Y0.000 Z-3.000 I0.000 J1.590 F250.000
G1 X-37.590 Y1.590 Z-3.000 F250.000
G1 X-37.124 Y2.056
G1 X-37.590 Y1.590
G1 X-42.410 Y1.590 Z-3.000 F250.000
G1 X-42.876 Y2.056
G1 X-42.410 Y1.590
G1 X-42.410 Y0.000 Z-3.000 F250.000
G2 X-44.000 Y-1.590 Z-3.000 I-1.590 J0.000 F250.000
G1 X-52.000 Y-1.590 Z-3.000 F250.000
G1 Y-1.590
G1 Y-1.590
G2 X-53.590 Y0.000 Z-3.000 I0.000 J1.590 F250.000
G1 X-53.590 Y1.590 Z-3.000 F250.000
G1 X-53.124 Y2.056
G1 X-53.590 Y1.590
G1 X-58.410 Y1.590 Z-3.000 F250.000
G1 X-58.876 Y2.056
G1 X-58.410 Y1.590
G1 X-58.410 Y0.000 Z-3.000 F250.000
G2 X-60.000 Y-1.590 Z-3.000 I-1.590 J0.000 F250.000
G1 X-68.000 Y-1.590 Z-3.000 F250.000
G1 Y-1.590
G1 Y-1.590
G2 X-69.590 Y0.000 Z-3.000 I0.000 J1.590 F250.000
G1 X-69.590 Y1.590 Z-3.000 F250.000
G1 X-69.124 Y2.056
G1 X-69.590 Y1.590
G1 X-76.820 Y1.590 Z-3.000 F250.000
G1 Y1.590
G1 Y1.590
G2 X-78.410 Y3.180 Z-3.000 I0.000 J1.590 F250.000
G1 X-78.410 Y10.410 Z-3.000 F250.000
G1 X-77.944 Y10.876
G1 X-78.410 Y10.410
G1 X-80.000 Y10.410 Z-3.000 F250.000
G1 Y10.410
G1 Y10.410
G2 X-81.590 Y12.000 Z-3.000 I0.000 J1.590 F250.000
G1 X-81.590 Y20.000 Z-3.000 F250.000
G2 X-80.000 Y21.590 Z-3.000 I1.590 J0.000 F250.000
G1 X-78.410 Y21.590 Z-3.000 F250.000
G1 X-77.944 Y21.124
G1 X-78.410 Y21.590
G1 X-78.410 Y26.410 Z-3.000 F250.000
G1 X-77.944 Y26.876
G1 X-78.410 Y26.410
G1 X-80.000 Y26.410 Z-3.000 F250.000
G1 Y26.410
G1 Y26.410
G2 X-81.590 Y28.000 Z-3.000 I0.000 J1.590 F250.000
G1 X-81.590 Y36.000 Z-3.000 F250.000
G2 X-80.000 Y37.590 Z-3.000 I1.590 J0.000 F250.000
G1 X-78.410 Y37.590 Z-3.000 F250.000
G1 X-77.944 Y37.124
G1 X-78.410 Y37.590
G1 X-78.410 Y42.410 Z-3.000 F250.000
G1 X-77.944 Y42.876
G1 X-78.410 Y42.410
G1 X-80.000 Y42.410 Z-3.000 F250.000
G1 Y42.410
G1 Y42.410
G2 X-81.590 Y44.000 Z-3.000 I0.000 J1.590 F250.000
G1 X-81.590 Y52.000 Z-3.000 F250.000
G2 X-80.000 Y53.590 Z-3.000 I1.590 J0.000 F250.000
G1 X-78.410 Y53.590 Z-3.000 F250.000
G1 X-77.944 Y53.124
G1 X-78.410 Y53.590
G1 X-78.410 Y58.410 Z-3.000 F250.000
G1 X-77.944 Y58.876
G1 X-78.410 Y58.410
G1 X-80.000 Y58.410 Z-3.000 F250.000
G1 Y58.410
G1 Y58.410
G2 X-81.590 Y60.000 Z-3.000 I0.000 J1.590 F250.000
G1 X-81.590 Y68.000 Z-3.000 F250.000
G2 X-80.000 Y69.590 Z-3.000 I1.590 J0.000 F250.000
G1 X-78.410 Y69.590 Z-3.000 F250.000
G1 X-77.944 Y69.124
G1 X-78.410 Y69.590
G1 X-78.410 Y76.820 Z-3.000 F250.000
G2 X-76.820 Y78.410 Z-3.000 I1.590 J0.000 F250.000
G1 X-69.590 Y78.410 Z-3.000 F250.000
G1 X-69.124 Y77.944
G1 X-69.590 Y78.410
G1 X-69.590 Y80.000 Z-3.000 F250.000
G2 X-68.000 Y81.590 Z-3.000 I1.590 J0.000 F250.000
G1 X-60.000 Y81.590 Z-3.000 F250.000
G2 X-58.410 Y80.000 Z-3.000 I0.000 J-1.590 F250.000
G1 X-58.410 Y78.410 Z-3.000 F250.000
G1 X-58.876 Y77.944
G1 X-58.410 Y78.410
G1 X-53.590 Y78.410 Z-3.000 F250.000
G1 X-53.124 Y77.944
G1 X-53.590 Y78.410
G1 X-53.590 Y80.000 Z-3.000 F250.000
G2 X-52.000 Y81.590 Z-3.000 I1.590 J0.000 F250.000
G1 X-44.000 Y81.590 Z-3.000 F250.000
G2 X-42.410 Y80.000 Z-3.000 I0.000 J-1.590 F250.000
G1 X-42.410 Y78.410 Z-3.000 F250.000
G1 X-42.876 Y77.944
G1 X-42.410 Y78.410
G1 X-37.590 Y78.410 Z-3.000 F250.000
G1 X-37.124 Y77.944
G1 X-37.590 Y78.410
G1 X-37.590 Y80.000 Z-3.000 F250.000
G2 X-36.000 Y81.590 Z-3.000 I1.590 J0.000 F250.000
G1 X-28.000 Y81.590 Z-3.000 F250.000
G2 X-26.410 Y80.000 Z-3.000 I0.000 J-1.590 F250.000
G1 X-26.410 Y78.410 Z-3.000 F250.000
G1 X-26.876 Y77.944
G1 X-26.410 Y78.410
G1 X-21.590 Y78.410 Z-3.000 F250.000
G1 X-21.124 Y77.944
G1 X-21.590 Y78.410
G1 X-21.590 Y80.000 Z-3.000 F250.000
G2 X-20.000 Y81.590 Z-3.000 I1.590 J0.000 F250.000
G1 X-12.000 Y81.590 Z-3.000 F250.000
G2 X-10.410 Y80.000 Z-3.000 I0.000 J-1.590 F250.000
G1 X-10.410 Y78.410 Z-3.000 F250.000
G1 X-10.876 Y77.944
G1 X-10.410 Y78.410
G1 X-3.180 Y78.410 Z-3.000 F250.000
G2 X-2.056 Y77.944 Z-3.000 I0.000 J-1.590 F250.000
G1 X-2.056 Y77.944 Z-3.480 F100.000
G2 X-1.590 Y76.820 Z-3.480 I-1.124 J-1.124 F250.000
G1 X-1.590 Y69.590 Z-3.480 F250.000
G1 X-2.056 Y69.124
G1 X-1.590 Y69.590
G1 X0.000 Y69.590 Z-3.480 F250.000
G2 X1.590 Y68.000 Z-3.480 I0.000 J-1.590 F250.000
G1 X1.590 Y60.000 Z-3.480 F250.000
G2 X0.000 Y58.410 Z-3.480 I-1.590 J0.000 F250.000
G1 X-1.590 Y58.410 Z-3.480 F250.000
G1 X-2.056 Y58.876
G1 X-1.590 Y58.410
G1 X-1.590 Y53.590 Z-3.480 F250.000
G1 X-2.056 Y53.124
G1 X-1.590 Y53.590
G1 X0.000 Y53.590 Z-3.480 F250.000
G2 X1.590 Y52.000 Z-3.480 I0.000 J-1.590 F250.000
G1 X1.590 Y44.000 Z-3.480 F250.000
G2 X0.000 Y42.410 Z-3.480 I-1.590 J0.000 F250.000
G1 X-1.590 Y42.410 Z-3.480 F250.000
G1 X-2.056 Y42.876
G1 X-1.590 Y42.410
G1 X-1.590 Y37.590 Z-3.480 F250.000
G1 X-2.056 Y37.124
G1 X-1.590 Y37.590
G1 X0.000 Y37.590 Z-3.480 F250.000
G2 X1.590 Y36.000 Z-3.480 I0.000 J-1.590 F250.000
G1 X1.590 Y28.000 Z-3.480 F250.000
G2 X0.000 Y26.410 Z-3.480 I-1.590 J0.000 F250.000
G1 X-1.590 Y26.410 Z-3.480 F250.000
G1 X-2.056 Y26.876
G1 X-1.590 Y26.410
G1 X-1.590 Y21.590 Z-3.480 F250.000
G1 X-2.056 Y21.124
G1 X-1.590 Y21.590
G1 X0.000 Y21.590 Z-3.480 F250.000
G2 X1.590 Y20.000 Z-3.480 I0.000 J-1.590 F250.000
G1 X1.590 Y12.000 Z-3.480 F250.000
G2 X0.000 Y10.410 Z-3.480 I-1.590 J0.000 F250.000
G1 X-1.590 Y10.410 Z-3.480 F250.000
G1 X-2.056 Y10.876
G1 X-1.590 Y10.410
G1 X-1.590 Y3.180 Z-3.480 F250.000
G2 X-3.180 Y1.590 Z-3.480 I-1.590 J0.000 F250.000
G1 X-10.410 Y1.590 Z-3.480 F250.000
G1 X-10.876 Y2.056
G1 X-10.410 Y1.590
G1 X-10.410 Y0.000 Z-3.480 F250.000
G2 X-12.000 Y-1.590 Z-3.480 I-1.590 J0.000 F250.000
G1 X-20.000 Y-1.590 Z-3.480 F250.000
G1 Y-1.590
G1 Y-1.590
G2 X-21.590 Y0.000 Z-3.480 I0.000 J1.590 F250.000
G1 X-21.590 Y1.590 Z-3.480 F250.000
G1 X-21.124 Y2.056
G1 X-21.590 Y1.590
G1 X-26.410 Y1.590 Z-3.480 F250.000
G1 X-26.876 Y2.056
G1 X-26.410 Y1.590
G1 X-26.410 Y0.000 Z-3.480 F250.000
G2 X-28.000 Y-1.590 Z-3.480 I-1.590 J0.000 F250.000
G1 X-36.000 Y-1.590 Z-3.480 F250.000
G1 Y-1.590
G1 Y-1.590
G2 X-37.590 Y0.000 Z-3.480 I0.000 J1.590 F250.000
G1 X-37.590 Y1.590 Z-3.480 F250.000
G1 X-37.124 Y2.056
G1 X-37.590 Y1.590
G1 X-42.410 Y1.590 Z-3.480 F250.000
G1 X-42.876 Y2.056
G1 X-42.410 Y1.590
G1 X-42.410 Y0.000 Z-3.480 F250.000
G2 X-44.000 Y-1.590 Z-3.480 I-1.590 J0.000 F250.000
G1 X-52.000 Y-1.590 Z-3.480 F250.000
G1 Y-1.590
G1 Y-1.590
G2 X-53.590 Y0.000 Z-3.480 I0.000 J1.590 F250.000
G1 X-53.590 Y1.590 Z-3.480 F250.000
G1 X-53.124 Y2.056
G1 X-53.590 Y1.590
G1 X-58.410 Y1.590 Z-3.480 F250.000
G1 X-58.876 Y2.056
G1 X-58.410 Y1.590
G1 X-58.410 Y0.000 Z-3.480 F250.000
G2 X-60.000 Y-1.590 Z-3.480 I-1.590 J0.000 F250.000
G1 X-68.000 Y-1.590 Z-3.480 F250.000
G1 Y-1.590
G1 Y-1.590
G2 X-69.590 Y0.000 Z-3.480 I0.000 J1.590 F250.000
G1 X-69.590 Y1.590 Z-3.480 F250.000
G1 X-69.124 Y2.056
G1 X-69.590 Y1.590
G1 X-76.820 Y1.590 Z-3.480 F250.000
G1 Y1.590
G1 Y1.590
G2 X-78.410 Y3.180 Z-3.480 I0.000 J1.590 F250.000
G1 X-78.410 Y10.410 Z-3.480 F250.000
G1 X-77.944 Y10.876
G1 X-78.410 Y10.410
G1 X-80.000 Y10.410 Z-3.480 F250.000
G1 Y10.410
G1 Y10.410
G2 X-81.590 Y12.000 Z-3.480 I0.000 J1.590 F250.000
G1 X-81.590 Y20.000 Z-3.480 F250.000
G2 X-80.000 Y21.590 Z-3.480 I1.590 J0.000 F250.000
G1 X-78.410 Y21.590 Z-3.480 F250.000
G1 X-77.944 Y21.124
G1 X-78.410 Y21.590
G1 X-78.410 Y26.410 Z-3.480 F250.000
G1 X-77.944 Y26.876
G1 X-78.410 Y26.410
G1 X-80.000 Y26.410 Z-3.480 F250.000
G1 Y26.410
G1 Y26.410
G2 X-81.590 Y28.000 Z-3.480 I0.000 J1.590 F250.000
G1 X-81.590 Y36.000 Z-3.480 F250.000
G2 X-80.000 Y37.590 Z-3.480 I1.590 J0.000 F250.000
G1 X-78.410 Y37.590 Z-3.480 F250.000
G1 X-77.944 Y37.124
G1 X-78.410 Y37.590
G1 X-78.410 Y42.410 Z-3.480 F250.000
G1 X-77.944 Y42.876
G1 X-78.410 Y42.410
G1 X-80.000 Y42.410 Z-3.480 F250.000
G1 Y42.410
G1 Y42.410
G2 X-81.590 Y44.000 Z-3.480 I0.000 J1.590 F250.000
G1 X-81.590 Y52.000 Z-3.480 F250.000
G2 X-80.000 Y53.590 Z-3.480 I1.590 J0.000 F250.000
G1 X-78.410 Y53.590 Z-3.480 F250.000
G1 X-77.944 Y53.124
G1 X-78.410 Y53.590
G1 X-78.410 Y58.410 Z-3.480 F250.000
G1 X-77.944 Y58.876
G1 X-78.410 Y58.410
G1 X-80.000 Y58.410 Z-3.480 F250.000
G1 Y58.410
G1 Y58.410
G2 X-81.590 Y60.000 Z-3.480 I0.000 J1.590 F250.000
G1 X-81.590 Y68.000 Z-3.480 F250.000
G2 X-80.000 Y69.590 Z-3.480 I1.590 J0.000 F250.000
G1 X-78.410 Y69.590 Z-3.480 F250.000
G1 X-77.944 Y69.124
G1 X-78.410 Y69.590
G1 X-78.410 Y76.820 Z-3.480 F250.000
G2 X-76.820 Y78.410 Z-3.480 I1.590 J0.000 F250.000
G1 X-69.590 Y78.410 Z-3.480 F250.000
G1 X-69.124 Y77.944
G1 X-69.590 Y78.410
G1 X-69.590 Y80.000 Z-3.480 F250.000
G2 X-68.000 Y81.590 Z-3.480 I1.590 J0.000 F250.000
G1 X-60.000 Y81.590 Z-3.480 F250.000
G2 X-58.410 Y80.000 Z-3.480 I0.000 J-1.590 F250.000
G1 X-58.410 Y78.410 Z-3.480 F250.000
G1 X-58.876 Y77.944
G1 X-58.410 Y78.410
G1 X-53.590 Y78.410 Z-3.480 F250.000
G1 X-53.124 Y77.944
G1 X-53.590 Y78.410
G1 X-53.590 Y80.000 Z-3.480 F250.000
G2 X-52.000 Y81.590 Z-3.480 I1.590 J0.000 F250.000
G1 X-44.000 Y81.590 Z-3.480 F250.000
G2 X-42.410 Y80.000 Z-3.480 I0.000 J-1.590 F250.000
G1 X-42.410 Y78.410 Z-3.480 F250.000
G1 X-42.876 Y77.944
G1 X-42.410 Y78.410
G1 X-37.590 Y78.410 Z-3.480 F250.000
G1 X-37.124 Y77.944
G1 X-37.590 Y78.410
G1 X-37.590 Y80.000 Z-3.480 F250.000
G2 X-36.000 Y81.590 Z-3.480 I1.590 J0.000 F250.000
G1 X-28.000 Y81.590 Z-3.480 F250.000
G2 X-26.410 Y80.000 Z-3.480 I0.000 J-1.590 F250.000
G1 X-26.410 Y78.410 Z-3.480 F250.000
G1 X-26.876 Y77.944
G1 X-26.410 Y78.410
G1 X-21.590 Y78.410 Z-3.480 F250.000
G1 X-21.124 Y77.944
G1 X-21.590 Y78.410
G1 X-21.590 Y80.000 Z-3.480 F250.000
G2 X-20.000 Y81.590 Z-3.480 I1.590 J0.000 F250.000
G1 X-12.000 Y81.590 Z-3.480 F250.000
G2 X-10.410 Y80.000 Z-3.480 I0.000 J-1.590 F250.000
G1 X-10.410 Y78.410 Z-3.480 F250.000
G1 X-10.876 Y77.944
G1 X-10.410 Y78.410
G1 X-3.180 Y78.410 Z-3.480 F250.000
G2 X-2.056 Y77.944 Z-3.480 I0.000 J-1.590 F250.000
G0 Z5.000
G0 Z5.000
(finish operation: DressupDogbone002)
(begin postamble)
M05 M09
G17 G90 G80 G40
M30
